{
 "type": "map",
 "version": "1.10",
 "tiledversion": "1.11.0",
 "orientation": "orthogonal",
 "renderorder": "right-down",
 "width": 2,
 "height": 2,
 "tilewidth": 64,
 "tileheight": 64,
 "infinite": false,
 "nextlayerid": 4,
 "nextobjectid": 3,
 "properties": [
  {
   "name": "gv2prefab",
   "type": "string",
   "value": "shrub-large-snow"
  }
 ],
 "tilesets": [
  {
   "firstgid": 1,
   "name": "gamev2",
   "tilewidth": 64,
   "tileheight": 64,
   "tilecount": 2,
   "columns": 0,
   "objectalignment": "topleft",
   "grid": {
    "orientation": "orthogonal",
    "width": 64,
    "height": 64
   },
   "tiles": [
    {
     "id": 0,
     "image": "../../assets/sprites/shrub-large-circle-snow_0_0.png",
     "imagewidth": 128,
     "imageheight": 128
    },
    {
     "id": 1,
     "image": "../../assets/sprites/collider-marker.png",
     "imagewidth": 64,
     "imageheight": 64
    }
   ]
  }
 ],
 "layers": [
  {
   "type": "objectgroup",
   "id": 1,
   "name": "Collidables \u00b7obj",
   "x": 0,
   "y": 0,
   "opacity": 1,
   "visible": true,
   "draworder": "index",
   "objects": [
    {
     "id": 1,
     "gid": 1,
     "name": "shrub-large-circle-snow_0_0",
     "x": 0,
     "y": 0,
     "width": 128,
     "height": 128,
     "visible": true
    }
   ],
   "properties": [
    {
     "name": "gv2layer",
     "type": "string",
     "value": "Collidables"
    },
    {
     "name": "z",
     "type": "int",
     "value": 5
    },
    {
     "name": "collision",
     "type": "bool",
     "value": false
    }
   ]
  },
  {
   "type": "tilelayer",
   "id": 2,
   "name": "Colliders",
   "width": 2,
   "height": 2,
   "x": 0,
   "y": 0,
   "opacity": 0.6,
   "visible": true,
   "data": [
    2,
    2,
    2,
    2
   ],
   "properties": [
    {
     "name": "gv2layer",
     "type": "string",
     "value": "Colliders"
    },
    {
     "name": "z",
     "type": "int",
     "value": 5
    },
    {
     "name": "collision",
     "type": "bool",
     "value": true
    }
   ]
  },
  {
   "type": "objectgroup",
   "id": 3,
   "name": "Meta",
   "x": 0,
   "y": 0,
   "opacity": 1,
   "visible": true,
   "draworder": "index",
   "objects": [],
   "properties": [
    {
     "name": "gv2meta",
     "type": "bool",
     "value": true
    }
   ]
  }
 ]
}