{
 "type": "map",
 "version": "1.10",
 "tiledversion": "1.11.0",
 "orientation": "orthogonal",
 "renderorder": "right-down",
 "width": 40,
 "height": 26,
 "tilewidth": 64,
 "tileheight": 64,
 "infinite": false,
 "nextlayerid": 10,
 "nextobjectid": 40,
 "properties": [
  {
   "name": "gv2room",
   "type": "string",
   "value": "Inaka"
  },
  {
   "name": "gv2worldWidth",
   "type": "int",
   "value": 2560
  },
  {
   "name": "gv2worldHeight",
   "type": "int",
   "value": 1664
  }
 ],
 "tilesets": [
  {
   "firstgid": 1,
   "name": "gamev2",
   "tilewidth": 64,
   "tileheight": 64,
   "tilecount": 74,
   "columns": 0,
   "objectalignment": "topleft",
   "grid": {
    "orientation": "orthogonal",
    "width": 64,
    "height": 64
   },
   "tiles": [
    {
     "id": 0,
     "image": "../assets/sprites/blue-lamp-post_0_0.png",
     "imagewidth": 64,
     "imageheight": 64
    },
    {
     "id": 1,
     "image": "../assets/sprites/building-entrance-1_0_0.png",
     "imagewidth": 192,
     "imageheight": 64
    },
    {
     "id": 2,
     "image": "../assets/sprites/building-entrance-2_0_0.png",
     "imagewidth": 192,
     "imageheight": 64
    },
    {
     "id": 3,
     "image": "../assets/sprites/building-entrance-3_0_0.png",
     "imagewidth": 192,
     "imageheight": 64
    },
    {
     "id": 4,
     "image": "../assets/sprites/building-rafter-black_0_0.png",
     "imagewidth": 192,
     "imageheight": 64
    },
    {
     "id": 5,
     "image": "../assets/sprites/building-rafter-blue_0_0.png",
     "imagewidth": 192,
     "imageheight": 64
    },
    {
     "id": 6,
     "image": "../assets/sprites/building-rafter-red_0_0.png",
     "imagewidth": 192,
     "imageheight": 64
    },
    {
     "id": 7,
     "image": "../assets/sprites/building-roof-black_0_0.png",
     "imagewidth": 192,
     "imageheight": 192
    },
    {
     "id": 8,
     "image": "../assets/sprites/building-roof-blue_0_0.png",
     "imagewidth": 192,
     "imageheight": 192
    },
    {
     "id": 9,
     "image": "../assets/sprites/building-roof-red_0_0.png",
     "imagewidth": 192,
     "imageheight": 192
    },
    {
     "id": 10,
     "image": "../assets/sprites/building-tier-black_0_0.png",
     "imagewidth": 192,
     "imageheight": 64
    },
    {
     "id": 11,
     "image": "../assets/sprites/building-tier-blue_0_0.png",
     "imagewidth": 192,
     "imageheight": 64
    },
    {
     "id": 12,
     "image": "../assets/sprites/building-tier-red_0_0.png",
     "imagewidth": 192,
     "imageheight": 64
    },
    {
     "id": 13,
     "image": "../assets/sprites/dirt-outside-autotile_center.png",
     "imagewidth": 64,
     "imageheight": 64
    },
    {
     "id": 14,
     "image": "../assets/sprites/dirt-outside-autotile_corner-ne.png",
     "imagewidth": 64,
     "imageheight": 64
    },
    {
     "id": 15,
     "image": "../assets/sprites/dirt-outside-autotile_corner-nw.png",
     "imagewidth": 64,
     "imageheight": 64
    },
    {
     "id": 16,
     "image": "../assets/sprites/dirt-outside-autotile_corner-se.png",
     "imagewidth": 64,
     "imageheight": 64
    },
    {
     "id": 17,
     "image": "../assets/sprites/dirt-outside-autotile_corner-sw.png",
     "imagewidth": 64,
     "imageheight": 64
    },
    {
     "id": 18,
     "image": "../assets/sprites/dirt-outside-autotile_edge-e.png",
     "imagewidth": 64,
     "imageheight": 64
    },
    {
     "id": 19,
     "image": "../assets/sprites/dirt-outside-autotile_edge-n.png",
     "imagewidth": 64,
     "imageheight": 64
    },
    {
     "id": 20,
     "image": "../assets/sprites/dirt-outside-autotile_edge-s.png",
     "imagewidth": 64,
     "imageheight": 64
    },
    {
     "id": 21,
     "image": "../assets/sprites/dirt-outside-autotile_edge-w.png",
     "imagewidth": 64,
     "imageheight": 64
    },
    {
     "id": 22,
     "image": "../assets/sprites/fence-garden-outside_2_5.png",
     "imagewidth": 64,
     "imageheight": 64
    },
    {
     "id": 23,
     "image": "../assets/sprites/fence-garden-outside_3_5.png",
     "imagewidth": 64,
     "imageheight": 64
    },
    {
     "id": 24,
     "image": "../assets/sprites/fence-garden-outside_4_5.png",
     "imagewidth": 64,
     "imageheight": 64
    },
    {
     "id": 25,
     "image": "../assets/sprites/flowering-grass-autotile_corner-ne.png",
     "imagewidth": 64,
     "imageheight": 64
    },
    {
     "id": 26,
     "image": "../assets/sprites/flowering-grass-autotile_corner-nw.png",
     "imagewidth": 64,
     "imageheight": 64
    },
    {
     "id": 27,
     "image": "../assets/sprites/flowering-grass-autotile_corner-se.png",
     "imagewidth": 64,
     "imageheight": 64
    },
    {
     "id": 28,
     "image": "../assets/sprites/flowering-grass-autotile_corner-sw.png",
     "imagewidth": 64,
     "imageheight": 64
    },
    {
     "id": 29,
     "image": "../assets/sprites/collider-marker.png",
     "imagewidth": 64,
     "imageheight": 64
    },
    {
     "id": 30,
     "image": "../assets/sprites/grass-autotile_center.png",
     "imagewidth": 64,
     "imageheight": 64
    },
    {
     "id": 31,
     "image": "../assets/sprites/gravel-autotile_center.png",
     "imagewidth": 64,
     "imageheight": 64
    },
    {
     "id": 32,
     "image": "../assets/sprites/gravel-autotile_corner-ne.png",
     "imagewidth": 64,
     "imageheight": 64
    },
    {
     "id": 33,
     "image": "../assets/sprites/gravel-autotile_corner-nw.png",
     "imagewidth": 64,
     "imageheight": 64
    },
    {
     "id": 34,
     "image": "../assets/sprites/gravel-autotile_corner-se.png",
     "imagewidth": 64,
     "imageheight": 64
    },
    {
     "id": 35,
     "image": "../assets/sprites/gravel-autotile_corner-sw.png",
     "imagewidth": 64,
     "imageheight": 64
    },
    {
     "id": 36,
     "image": "../assets/sprites/gravel-autotile_edge-e.png",
     "imagewidth": 64,
     "imageheight": 64
    },
    {
     "id": 37,
     "image": "../assets/sprites/gravel-autotile_edge-n.png",
     "imagewidth": 64,
     "imageheight": 64
    },
    {
     "id": 38,
     "image": "../assets/sprites/gravel-autotile_edge-s.png",
     "imagewidth": 64,
     "imageheight": 64
    },
    {
     "id": 39,
     "image": "../assets/sprites/gravel-autotile_edge-w.png",
     "imagewidth": 64,
     "imageheight": 64
    },
    {
     "id": 40,
     "image": "../assets/sprites/ground-plants-1_0_0.png",
     "imagewidth": 64,
     "imageheight": 64
    },
    {
     "id": 41,
     "image": "../assets/sprites/ground-plants-1_0_1.png",
     "imagewidth": 64,
     "imageheight": 64
    },
    {
     "id": 42,
     "image": "../assets/sprites/ground-plants-1_1_0.png",
     "imagewidth": 64,
     "imageheight": 64
    },
    {
     "id": 43,
     "image": "../assets/sprites/ground-plants-1_1_1.png",
     "imagewidth": 64,
     "imageheight": 64
    },
    {
     "id": 44,
     "image": "../assets/sprites/light-concrete-autotile_center.png",
     "imagewidth": 64,
     "imageheight": 64
    },
    {
     "id": 45,
     "image": "../assets/sprites/light-concrete-autotile_corner-ne.png",
     "imagewidth": 64,
     "imageheight": 64
    },
    {
     "id": 46,
     "image": "../assets/sprites/light-concrete-autotile_corner-nw.png",
     "imagewidth": 64,
     "imageheight": 64
    },
    {
     "id": 47,
     "image": "../assets/sprites/light-concrete-autotile_corner-se.png",
     "imagewidth": 64,
     "imageheight": 64
    },
    {
     "id": 48,
     "image": "../assets/sprites/light-concrete-autotile_corner-sw.png",
     "imagewidth": 64,
     "imageheight": 64
    },
    {
     "id": 49,
     "image": "../assets/sprites/light-concrete-autotile_edge-e.png",
     "imagewidth": 64,
     "imageheight": 64
    },
    {
     "id": 50,
     "image": "../assets/sprites/light-concrete-autotile_edge-n.png",
     "imagewidth": 64,
     "imageheight": 64
    },
    {
     "id": 51,
     "image": "../assets/sprites/light-concrete-autotile_edge-s.png",
     "imagewidth": 64,
     "imageheight": 64
    },
    {
     "id": 52,
     "image": "../assets/sprites/light-concrete-autotile_edge-w.png",
     "imagewidth": 64,
     "imageheight": 64
    },
    {
     "id": 53,
     "image": "../assets/sprites/pavers_1_0.png",
     "imagewidth": 64,
     "imageheight": 64
    },
    {
     "id": 54,
     "image": "../assets/sprites/pavers_1_2.png",
     "imagewidth": 64,
     "imageheight": 64
    },
    {
     "id": 55,
     "image": "../assets/sprites/pavers_2_0.png",
     "imagewidth": 64,
     "imageheight": 64
    },
    {
     "id": 56,
     "image": "../assets/sprites/pond-autotile_corner-ne.png",
     "imagewidth": 64,
     "imageheight": 64
    },
    {
     "id": 57,
     "image": "../assets/sprites/pond-autotile_corner-nw.png",
     "imagewidth": 64,
     "imageheight": 64
    },
    {
     "id": 58,
     "image": "../assets/sprites/pond-autotile_corner-se.png",
     "imagewidth": 64,
     "imageheight": 64
    },
    {
     "id": 59,
     "image": "../assets/sprites/pond-autotile_corner-sw.png",
     "imagewidth": 64,
     "imageheight": 64
    },
    {
     "id": 60,
     "image": "../assets/sprites/pond-autotile_edge-n.png",
     "imagewidth": 64,
     "imageheight": 64
    },
    {
     "id": 61,
     "image": "../assets/sprites/pond-autotile_edge-s.png",
     "imagewidth": 64,
     "imageheight": 64
    },
    {
     "id": 62,
     "image": "../assets/sprites/red-vending-machine-bottom_0_0.png",
     "imagewidth": 64,
     "imageheight": 64
    },
    {
     "id": 63,
     "image": "../assets/sprites/red-vending-machine-top_0_0.png",
     "imagewidth": 64,
     "imageheight": 64
    },
    {
     "id": 64,
     "image": "../assets/sprites/sakura-large-base_0_0.png",
     "imagewidth": 64,
     "imageheight": 64
    },
    {
     "id": 65,
     "image": "../assets/sprites/sakura-large-top_0_0.png",
     "imagewidth": 192,
     "imageheight": 128
    },
    {
     "id": 66,
     "image": "../assets/sprites/sakura-small_0_0.png",
     "imagewidth": 64,
     "imageheight": 128
    },
    {
     "id": 67,
     "image": "../assets/sprites/shrub-large-circle_0_0.png",
     "imagewidth": 128,
     "imageheight": 128
    },
    {
     "id": 68,
     "image": "../assets/sprites/shrub-small-circle_0_0.png",
     "imagewidth": 64,
     "imageheight": 64
    },
    {
     "id": 69,
     "image": "../assets/sprites/train-track_0_0.png",
     "imagewidth": 64,
     "imageheight": 64
    },
    {
     "id": 70,
     "image": "../assets/sprites/tree-3-base-shadow_0_0.png",
     "imagewidth": 128,
     "imageheight": 64
    },
    {
     "id": 71,
     "image": "../assets/sprites/tree-3-top_0_0.png",
     "imagewidth": 128,
     "imageheight": 128
    },
    {
     "id": 72,
     "image": "../assets/sprites/white-vending-machine-bottom_0_0.png",
     "imagewidth": 64,
     "imageheight": 64
    },
    {
     "id": 73,
     "image": "../assets/sprites/white-vending-machine-top_0_0.png",
     "imagewidth": 64,
     "imageheight": 64
    }
   ],
   "wangsets": [
    {
     "name": "dirt-outside-autotile",
     "type": "mixed",
     "tile": -1,
     "colors": [
      {
       "name": "dirt-outside-autotile",
       "tile": -1,
       "probability": 1,
       "color": "#74d33b"
      }
     ],
     "wangtiles": [
      {
       "tileid": 13,
       "wangid": [
        1,
        1,
        1,
        1,
        1,
        1,
        1,
        1
       ]
      },
      {
       "tileid": 14,
       "wangid": [
        0,
        0,
        0,
        0,
        1,
        1,
        1,
        0
       ]
      },
      {
       "tileid": 15,
       "wangid": [
        0,
        0,
        1,
        1,
        1,
        0,
        0,
        0
       ]
      },
      {
       "tileid": 16,
       "wangid": [
        1,
        0,
        0,
        0,
        0,
        0,
        1,
        1
       ]
      },
      {
       "tileid": 17,
       "wangid": [
        1,
        1,
        1,
        0,
        0,
        0,
        0,
        0
       ]
      },
      {
       "tileid": 18,
       "wangid": [
        1,
        0,
        0,
        0,
        1,
        1,
        1,
        1
       ]
      },
      {
       "tileid": 19,
       "wangid": [
        0,
        0,
        1,
        1,
        1,
        1,
        1,
        0
       ]
      },
      {
       "tileid": 20,
       "wangid": [
        1,
        1,
        1,
        0,
        0,
        0,
        1,
        1
       ]
      },
      {
       "tileid": 21,
       "wangid": [
        1,
        1,
        1,
        1,
        1,
        0,
        0,
        0
       ]
      }
     ]
    },
    {
     "name": "flowering-grass-autotile",
     "type": "mixed",
     "tile": -1,
     "colors": [
      {
       "name": "flowering-grass-autotile",
       "tile": -1,
       "probability": 1,
       "color": "#d2d819"
      }
     ],
     "wangtiles": [
      {
       "tileid": 25,
       "wangid": [
        0,
        0,
        0,
        0,
        1,
        1,
        1,
        0
       ]
      },
      {
       "tileid": 26,
       "wangid": [
        0,
        0,
        1,
        1,
        1,
        0,
        0,
        0
       ]
      },
      {
       "tileid": 27,
       "wangid": [
        1,
        0,
        0,
        0,
        0,
        0,
        1,
        1
       ]
      },
      {
       "tileid": 28,
       "wangid": [
        1,
        1,
        1,
        0,
        0,
        0,
        0,
        0
       ]
      }
     ]
    },
    {
     "name": "grass-autotile",
     "type": "mixed",
     "tile": -1,
     "colors": [
      {
       "name": "grass-autotile",
       "tile": -1,
       "probability": 1,
       "color": "#dd436f"
      }
     ],
     "wangtiles": [
      {
       "tileid": 30,
       "wangid": [
        1,
        1,
        1,
        1,
        1,
        1,
        1,
        1
       ]
      }
     ]
    },
    {
     "name": "gravel-autotile",
     "type": "mixed",
     "tile": -1,
     "colors": [
      {
       "name": "gravel-autotile",
       "tile": -1,
       "probability": 1,
       "color": "#a1c42a"
      }
     ],
     "wangtiles": [
      {
       "tileid": 31,
       "wangid": [
        1,
        1,
        1,
        1,
        1,
        1,
        1,
        1
       ]
      },
      {
       "tileid": 32,
       "wangid": [
        0,
        0,
        0,
        0,
        1,
        1,
        1,
        0
       ]
      },
      {
       "tileid": 33,
       "wangid": [
        0,
        0,
        1,
        1,
        1,
        0,
        0,
        0
       ]
      },
      {
       "tileid": 34,
       "wangid": [
        1,
        0,
        0,
        0,
        0,
        0,
        1,
        1
       ]
      },
      {
       "tileid": 35,
       "wangid": [
        1,
        1,
        1,
        0,
        0,
        0,
        0,
        0
       ]
      },
      {
       "tileid": 36,
       "wangid": [
        1,
        0,
        0,
        0,
        1,
        1,
        1,
        1
       ]
      },
      {
       "tileid": 37,
       "wangid": [
        0,
        0,
        1,
        1,
        1,
        1,
        1,
        0
       ]
      },
      {
       "tileid": 38,
       "wangid": [
        1,
        1,
        1,
        0,
        0,
        0,
        1,
        1
       ]
      },
      {
       "tileid": 39,
       "wangid": [
        1,
        1,
        1,
        1,
        1,
        0,
        0,
        0
       ]
      }
     ]
    },
    {
     "name": "light-concrete-autotile",
     "type": "mixed",
     "tile": -1,
     "colors": [
      {
       "name": "light-concrete-autotile",
       "tile": -1,
       "probability": 1,
       "color": "#e8cc37"
      }
     ],
     "wangtiles": [
      {
       "tileid": 44,
       "wangid": [
        1,
        1,
        1,
        1,
        1,
        1,
        1,
        1
       ]
      },
      {
       "tileid": 45,
       "wangid": [
        0,
        0,
        0,
        0,
        1,
        1,
        1,
        0
       ]
      },
      {
       "tileid": 46,
       "wangid": [
        0,
        0,
        1,
        1,
        1,
        0,
        0,
        0
       ]
      },
      {
       "tileid": 47,
       "wangid": [
        1,
        0,
        0,
        0,
        0,
        0,
        1,
        1
       ]
      },
      {
       "tileid": 48,
       "wangid": [
        1,
        1,
        1,
        0,
        0,
        0,
        0,
        0
       ]
      },
      {
       "tileid": 49,
       "wangid": [
        1,
        0,
        0,
        0,
        1,
        1,
        1,
        1
       ]
      },
      {
       "tileid": 50,
       "wangid": [
        0,
        0,
        1,
        1,
        1,
        1,
        1,
        0
       ]
      },
      {
       "tileid": 51,
       "wangid": [
        1,
        1,
        1,
        0,
        0,
        0,
        1,
        1
       ]
      },
      {
       "tileid": 52,
       "wangid": [
        1,
        1,
        1,
        1,
        1,
        0,
        0,
        0
       ]
      }
     ]
    },
    {
     "name": "pond-autotile",
     "type": "mixed",
     "tile": -1,
     "colors": [
      {
       "name": "pond-autotile",
       "tile": -1,
       "probability": 1,
       "color": "#f7497e"
      }
     ],
     "wangtiles": [
      {
       "tileid": 56,
       "wangid": [
        0,
        0,
        0,
        0,
        1,
        1,
        1,
        0
       ]
      },
      {
       "tileid": 57,
       "wangid": [
        0,
        0,
        1,
        1,
        1,
        0,
        0,
        0
       ]
      },
      {
       "tileid": 58,
       "wangid": [
        1,
        0,
        0,
        0,
        0,
        0,
        1,
        1
       ]
      },
      {
       "tileid": 59,
       "wangid": [
        1,
        1,
        1,
        0,
        0,
        0,
        0,
        0
       ]
      },
      {
       "tileid": 60,
       "wangid": [
        0,
        0,
        1,
        1,
        1,
        1,
        1,
        0
       ]
      },
      {
       "tileid": 61,
       "wangid": [
        1,
        1,
        1,
        0,
        0,
        0,
        1,
        1
       ]
      }
     ]
    }
   ]
  }
 ],
 "layers": [
  {
   "type": "tilelayer",
   "id": 1,
   "name": "Floor",
   "width": 40,
   "height": 26,
   "x": 0,
   "y": 0,
   "opacity": 1,
   "visible": true,
   "data": [
    31,
    31,
    31,
    31,
    31,
    31,
    31,
    31,
    31,
    31,
    31,
    31,
    31,
    31,
    31,
    31,
    31,
    31,
    31,
    31,
    31,
    31,
    31,
    31,
    31,
    31,
    31,
    31,
    31,
    31,
    31,
    31,
    31,
    31,
    31,
    31,
    31,
    31,
    31,
    31,
    31,
    31,
    31,
    31,
    31,
    31,
    31,
    31,
    31,
    31,
    31,
    31,
    31,
    31,
    31,
    31,
    31,
    31,
    31,
    31,
    31,
    31,
    31,
    31,
    31,
    31,
    31,
    31,
    31,
    31,
    31,
    31,
    31,
    31,
    31,
    31,
    31,
    31,
    31,
    31,
    31,
    31,
    31,
    31,
    31,
    31,
    31,
    31,
    31,
    31,
    31,
    31,
    31,
    31,
    31,
    31,
    31,
    31,
    31,
    31,
    31,
    31,
    31,
    31,
    31,
    31,
    31,
    31,
    31,
    31,
    31,
    31,
    31,
    31,
    31,
    31,
    31,
    31,
    31,
    31,
    34,
    38,
    38,
    38,
    38,
    38,
    38,
    38,
    38,
    38,
    38,
    38,
    38,
    38,
    38,
    38,
    38,
    38,
    38,
    38,
    38,
    38,
    38,
    38,
    38,
    38,
    38,
    38,
    38,
    38,
    38,
    38,
    38,
    38,
    38,
    38,
    38,
    38,
    38,
    33,
    40,
    32,
    32,
    32,
    32,
    32,
    32,
    32,
    32,
    32,
    32,
    32,
    32,
    32,
    32,
    32,
    32,
    32,
    32,
    32,
    32,
    32,
    32,
    32,
    32,
    32,
    32,
    32,
    32,
    32,
    32,
    32,
    32,
    32,
    32,
    32,
    32,
    32,
    32,
    37,
    36,
    39,
    39,
    39,
    39,
    39,
    39,
    39,
    39,
    39,
    39,
    39,
    39,
    39,
    39,
    39,
    39,
    39,
    39,
    39,
    39,
    39,
    39,
    39,
    39,
    39,
    39,
    39,
    39,
    39,
    39,
    39,
    39,
    39,
    39,
    39,
    39,
    39,
    39,
    35,
    31,
    31,
    31,
    31,
    31,
    31,
    31,
    31,
    31,
    31,
    31,
    31,
    47,
    51,
    51,
    51,
    51,
    51,
    51,
    51,
    51,
    51,
    51,
    51,
    51,
    51,
    51,
    46,
    31,
    31,
    31,
    31,
    31,
    31,
    31,
    31,
    31,
    31,
    31,
    31,
    31,
    31,
    31,
    31,
    31,
    31,
    31,
    31,
    31,
    31,
    31,
    31,
    53,
    45,
    45,
    45,
    45,
    45,
    45,
    45,
    45,
    45,
    45,
    45,
    45,
    45,
    45,
    50,
    31,
    31,
    31,
    31,
    31,
    31,
    31,
    31,
    31,
    31,
    31,
    31,
    31,
    31,
    31,
    31,
    31,
    31,
    31,
    31,
    31,
    31,
    31,
    31,
    49,
    52,
    52,
    52,
    52,
    52,
    52,
    52,
    52,
    52,
    52,
    52,
    52,
    52,
    52,
    48,
    31,
    31,
    31,
    31,
    31,
    31,
    31,
    31,
    31,
    31,
    31,
    31,
    31,
    31,
    31,
    31,
    31,
    31,
    31,
    31,
    31,
    31,
    31,
    31,
    31,
    31,
    31,
    31,
    31,
    31,
    31,
    34,
    33,
    31,
    31,
    31,
    31,
    31,
    31,
    31,
    31,
    31,
    31,
    31,
    31,
    31,
    31,
    31,
    31,
    31,
    31,
    31,
    31,
    31,
    31,
    31,
    31,
    31,
    31,
    31,
    31,
    31,
    31,
    31,
    31,
    31,
    31,
    31,
    31,
    31,
    31,
    40,
    37,
    31,
    31,
    31,
    31,
    31,
    31,
    31,
    31,
    31,
    31,
    31,
    31,
    31,
    31,
    31,
    31,
    31,
    31,
    31,
    31,
    31,
    31,
    31,
    31,
    31,
    31,
    31,
    31,
    31,
    31,
    31,
    31,
    31,
    31,
    31,
    31,
    31,
    31,
    40,
    37,
    31,
    27,
    26,
    31,
    31,
    31,
    31,
    31,
    31,
    31,
    31,
    31,
    31,
    31,
    31,
    31,
    31,
    31,
    31,
    31,
    31,
    31,
    31,
    31,
    31,
    31,
    31,
    31,
    31,
    31,
    31,
    31,
    31,
    31,
    31,
    31,
    31,
    31,
    40,
    37,
    31,
    29,
    28,
    31,
    31,
    16,
    20,
    20,
    20,
    20,
    20,
    15,
    31,
    31,
    31,
    31,
    31,
    31,
    31,
    31,
    31,
    31,
    31,
    31,
    31,
    31,
    31,
    31,
    31,
    31,
    31,
    31,
    31,
    31,
    31,
    31,
    31,
    31,
    40,
    37,
    31,
    31,
    31,
    31,
    31,
    22,
    14,
    14,
    14,
    14,
    14,
    19,
    31,
    31,
    31,
    31,
    31,
    31,
    31,
    31,
    31,
    31,
    31,
    31,
    31,
    31,
    31,
    27,
    26,
    31,
    31,
    31,
    31,
    31,
    31,
    31,
    31,
    31,
    40,
    37,
    31,
    31,
    31,
    31,
    31,
    18,
    21,
    21,
    21,
    21,
    21,
    17,
    31,
    31,
    31,
    31,
    31,
    31,
    31,
    31,
    31,
    31,
    31,
    31,
    31,
    31,
    31,
    29,
    28,
    31,
    31,
    31,
    31,
    31,
    31,
    31,
    31,
    31,
    40,
    37,
    31,
    31,
    31,
    31,
    31,
    31,
    31,
    31,
    31,
    31,
    31,
    31,
    31,
    31,
    31,
    31,
    31,
    31,
    31,
    31,
    31,
    31,
    31,
    31,
    31,
    31,
    31,
    31,
    31,
    31,
    31,
    31,
    31,
    31,
    31,
    31,
    31,
    31,
    40,
    37,
    31,
    31,
    31,
    31,
    31,
    31,
    31,
    31,
    31,
    31,
    31,
    31,
    31,
    31,
    31,
    31,
    31,
    31,
    31,
    31,
    31,
    31,
    31,
    31,
    16,
    20,
    20,
    20,
    20,
    20,
    15,
    31,
    31,
    31,
    31,
    31,
    31,
    31,
    40,
    37,
    31,
    31,
    31,
    31,
    31,
    31,
    31,
    31,
    31,
    31,
    31,
    31,
    31,
    31,
    31,
    31,
    31,
    31,
    31,
    31,
    31,
    31,
    31,
    31,
    22,
    14,
    14,
    14,
    14,
    14,
    19,
    31,
    31,
    31,
    31,
    31,
    31,
    31,
    40,
    37,
    31,
    31,
    31,
    31,
    31,
    31,
    31,
    31,
    31,
    31,
    31,
    31,
    31,
    31,
    31,
    31,
    31,
    31,
    31,
    31,
    31,
    31,
    31,
    31,
    18,
    21,
    21,
    21,
    21,
    21,
    17,
    31,
    31,
    31,
    31,
    31,
    31,
    31,
    40,
    37,
    31,
    31,
    31,
    31,
    31,
    31,
    31,
    31,
    31,
    31,
    31,
    31,
    31,
    31,
    31,
    31,
    31,
    31,
    31,
    31,
    31,
    31,
    31,
    31,
    31,
    31,
    31,
    31,
    31,
    31,
    31,
    31,
    31,
    31,
    31,
    31,
    31,
    31,
    40,
    37,
    31,
    31,
    31,
    31,
    31,
    31,
    31,
    31,
    31,
    31,
    31,
    31,
    31,
    31,
    31,
    31,
    31,
    31,
    31,
    31,
    31,
    31,
    31,
    31,
    31,
    31,
    31,
    31,
    31,
    31,
    31,
    31,
    31,
    31,
    31,
    31,
    31,
    31,
    36,
    35,
    31,
    31,
    31,
    31,
    31,
    31,
    31,
    31,
    31,
    31,
    31,
    31,
    31,
    31,
    31,
    31,
    31,
    31,
    31,
    31,
    31,
    31,
    31,
    31,
    31,
    31,
    31,
    31,
    31,
    31,
    31,
    31,
    31,
    31,
    31,
    31,
    31,
    31,
    31,
    31,
    31,
    31,
    31,
    31,
    31,
    31,
    31,
    31,
    31,
    31,
    31,
    31,
    27,
    26,
    31,
    31,
    31,
    31,
    31,
    31,
    31,
    31,
    31,
    31,
    31,
    31,
    31,
    31,
    31,
    31,
    31,
    31,
    31,
    31,
    31,
    31,
    31,
    31,
    31,
    31,
    31,
    31,
    31,
    31,
    31,
    31,
    31,
    31,
    31,
    31,
    31,
    31,
    29,
    28,
    31,
    31,
    31,
    31,
    31,
    31,
    31,
    31,
    31,
    31,
    31,
    31,
    31,
    31,
    31,
    31,
    31,
    31,
    31,
    31,
    31,
    31,
    31,
    31,
    31,
    31,
    31,
    31,
    31,
    31,
    31,
    31,
    31,
    31,
    31,
    31,
    31,
    31,
    31,
    31,
    31,
    31,
    31,
    31,
    31,
    31,
    31,
    31,
    31,
    31,
    31,
    31,
    31,
    31,
    31,
    31,
    31,
    31,
    31,
    31,
    31,
    31,
    31,
    31,
    31,
    31,
    31,
    31,
    31,
    31,
    31,
    31,
    31,
    31,
    31,
    31,
    31,
    31,
    31,
    31,
    31,
    31,
    31,
    31,
    31
   ],
   "properties": [
    {
     "name": "gv2layer",
     "type": "string",
     "value": "Floor"
    },
    {
     "name": "z",
     "type": "int",
     "value": 0
    },
    {
     "name": "collision",
     "type": "bool",
     "value": false
    }
   ]
  },
  {
   "type": "tilelayer",
   "id": 2,
   "name": "Over Floor",
   "width": 40,
   "height": 26,
   "x": 0,
   "y": 0,
   "opacity": 1,
   "visible": true,
   "data": [
    0,
    0,
    0,
    0,
    0,
    0,
    0,
    0,
    0,
    0,
    0,
    0,
    0,
    0,
    0,
    0,
    0,
    0,
    0,
    0,
    0,
    0,
    0,
    0,
    0,
    0,
    0,
    0,
    0,
    0,
    0,
    0,
    0,
    0,
    0,
    0,
    0,
    0,
    0,
    0,
    0,
    0,
    0,
    0,
    0,
    0,
    0,
    0,
    0,
    0,
    0,
    0,
    0,
    0,
    0,
    0,
    0,
    0,
    0,
    0,
    0,
    0,
    0,
    0,
    0,
    0,
    0,
    0,
    0,
    0,
    0,
    0,
    0,
    0,
    0,
    0,
    0,
    0,
    0,
    0,
    0,
    0,
    0,
    0,
    0,
    0,
    0,
    0,
    0,
    0,
    0,
    0,
    0,
    0,
    0,
    0,
    0,
    0,
    0,
    0,
    0,
    0,
    0,
    0,
    0,
    0,
    0,
    0,
    0,
    0,
    0,
    0,
    0,
    0,
    0,
    0,
    0,
    0,
    0,
    0,
    0,
    0,
    0,
    0,
    0,
    0,
    0,
    0,
    0,
    0,
    0,
    0,
    0,
    0,
    0,
    0,
    0,
    0,
    0,
    0,
    0,
    0,
    0,
    0,
    0,
    0,
    0,
    0,
    0,
    0,
    0,
    0,
    0,
    0,
    0,
    0,
    0,
    0,
    0,
    0,
    70,
    70,
    70,
    70,
    70,
    70,
    70,
    70,
    70,
    70,
    70,
    70,
    70,
    70,
    70,
    70,
    70,
    70,
    70,
    70,
    70,
    70,
    70,
    70,
    70,
    70,
    70,
    70,
    70,
    70,
    70,
    70,
    70,
    70,
    70,
    70,
    70,
    70,
    70,
    70,
    0,
    0,
    0,
    0,
    0,
    0,
    0,
    0,
    0,
    0,
    0,
    0,
    0,
    0,
    0,
    0,
    0,
    0,
    0,
    0,
    0,
    0,
    0,
    0,
    0,
    0,
    0,
    0,
    0,
    0,
    0,
    0,
    0,
    0,
    0,
    0,
    0,
    0,
    0,
    0,
    0,
    0,
    0,
    0,
    0,
    0,
    0,
    0,
    0,
    0,
    0,
    0,
    0,
    0,
    0,
    0,
    0,
    0,
    0,
    0,
    0,
    0,
    0,
    0,
    0,
    0,
    0,
    0,
    0,
    0,
    0,
    0,
    0,
    0,
    0,
    0,
    0,
    0,
    0,
    0,
    0,
    0,
    0,
    0,
    0,
    0,
    0,
    0,
    0,
    0,
    0,
    0,
    0,
    0,
    0,
    0,
    0,
    0,
    0,
    0,
    0,
    0,
    0,
    0,
    0,
    0,
    0,
    0,
    0,
    0,
    0,
    0,
    0,
    0,
    0,
    0,
    0,
    0,
    0,
    0,
    0,
    0,
    0,
    0,
    0,
    0,
    0,
    0,
    0,
    0,
    0,
    0,
    0,
    0,
    54,
    0,
    0,
    0,
    56,
    0,
    0,
    0,
    0,
    0,
    55,
    0,
    0,
    0,
    0,
    0,
    0,
    0,
    0,
    0,
    0,
    0,
    0,
    0,
    0,
    0,
    0,
    0,
    0,
    0,
    0,
    0,
    0,
    0,
    0,
    0,
    0,
    0,
    0,
    0,
    0,
    0,
    0,
    0,
    0,
    0,
    0,
    0,
    0,
    0,
    0,
    0,
    0,
    0,
    0,
    0,
    0,
    0,
    0,
    0,
    0,
    0,
    0,
    0,
    0,
    0,
    0,
    0,
    0,
    0,
    0,
    0,
    0,
    0,
    0,
    0,
    0,
    44,
    0,
    42,
    0,
    0,
    0,
    0,
    0,
    0,
    0,
    0,
    0,
    0,
    0,
    0,
    0,
    0,
    0,
    0,
    0,
    0,
    0,
    0,
    0,
    0,
    0,
    0,
    0,
    0,
    0,
    0,
    0,
    0,
    0,
    0,
    0,
    0,
    0,
    0,
    0,
    0,
    0,
    0,
    44,
    0,
    0,
    0,
    0,
    0,
    0,
    0,
    0,
    0,
    0,
    0,
    0,
    0,
    0,
    0,
    0,
    0,
    0,
    0,
    0,
    0,
    0,
    0,
    0,
    0,
    0,
    0,
    0,
    0,
    0,
    0,
    0,
    0,
    0,
    0,
    0,
    0,
    0,
    0,
    0,
    0,
    0,
    0,
    0,
    0,
    0,
    0,
    0,
    0,
    0,
    0,
    0,
    0,
    0,
    0,
    0,
    0,
    0,
    0,
    0,
    0,
    0,
    0,
    0,
    0,
    0,
    0,
    0,
    0,
    0,
    0,
    0,
    0,
    0,
    0,
    0,
    0,
    0,
    0,
    0,
    0,
    0,
    0,
    0,
    0,
    0,
    0,
    0,
    0,
    0,
    0,
    0,
    44,
    41,
    42,
    43,
    44,
    0,
    0,
    0,
    0,
    0,
    0,
    0,
    0,
    0,
    0,
    0,
    0,
    0,
    0,
    0,
    0,
    0,
    0,
    0,
    0,
    0,
    0,
    0,
    0,
    0,
    0,
    0,
    0,
    0,
    0,
    0,
    0,
    0,
    0,
    0,
    0,
    0,
    0,
    0,
    0,
    0,
    0,
    0,
    0,
    0,
    0,
    0,
    0,
    0,
    0,
    0,
    0,
    0,
    0,
    0,
    0,
    0,
    0,
    0,
    0,
    0,
    0,
    0,
    0,
    0,
    0,
    0,
    0,
    0,
    0,
    0,
    0,
    0,
    0,
    0,
    0,
    0,
    0,
    0,
    0,
    0,
    0,
    0,
    0,
    0,
    0,
    0,
    0,
    0,
    0,
    0,
    0,
    0,
    0,
    0,
    0,
    0,
    0,
    0,
    0,
    0,
    0,
    0,
    0,
    0,
    0,
    0,
    0,
    0,
    0,
    0,
    0,
    0,
    0,
    0,
    43,
    0,
    0,
    0,
    42,
    0,
    0,
    41,
    0,
    0,
    0,
    0,
    0,
    0,
    0,
    0,
    0,
    0,
    0,
    0,
    0,
    0,
    0,
    0,
    0,
    0,
    0,
    0,
    0,
    0,
    0,
    0,
    0,
    0,
    0,
    0,
    0,
    0,
    0,
    0,
    0,
    0,
    0,
    41,
    0,
    0,
    0,
    0,
    0,
    0,
    0,
    0,
    0,
    0,
    0,
    0,
    0,
    42,
    0,
    43,
    44,
    41,
    42,
    43,
    0,
    44,
    0,
    0,
    0,
    0,
    0,
    0,
    0,
    0,
    0,
    0,
    0,
    0,
    0,
    0,
    0,
    0,
    0,
    0,
    0,
    0,
    0,
    43,
    0,
    0,
    0,
    0,
    0,
    0,
    0,
    0,
    0,
    0,
    0,
    0,
    0,
    0,
    0,
    0,
    0,
    0,
    0,
    0,
    0,
    0,
    0,
    0,
    0,
    0,
    0,
    0,
    0,
    0,
    0,
    0,
    0,
    0,
    0,
    0,
    0,
    0,
    0,
    0,
    0,
    0,
    0,
    0,
    0,
    0,
    0,
    0,
    0,
    0,
    0,
    0,
    0,
    0,
    0,
    0,
    0,
    0,
    0,
    0,
    0,
    0,
    0,
    0,
    0,
    0,
    0,
    0,
    0,
    0,
    0,
    0,
    0,
    0,
    0,
    0,
    0,
    0,
    0,
    0,
    0,
    0,
    0,
    0,
    0,
    0,
    0,
    0,
    0,
    0,
    0,
    0,
    0,
    0,
    0,
    0,
    0,
    0,
    0,
    0,
    0,
    0,
    0,
    0,
    0,
    0,
    0,
    0,
    0,
    0,
    0,
    0,
    0,
    0,
    0,
    0,
    0,
    0,
    0,
    0,
    0,
    41,
    0,
    0,
    0,
    0,
    0,
    0,
    0,
    0,
    0,
    0,
    0,
    0,
    0,
    0,
    0,
    0,
    0,
    0,
    0,
    0,
    0,
    0,
    0,
    0,
    0,
    0,
    0,
    0,
    0,
    0,
    0,
    0,
    0,
    0,
    0,
    0,
    0,
    0,
    0,
    0,
    0,
    0,
    0,
    0,
    0,
    0,
    0,
    0,
    0,
    0,
    0,
    0,
    0,
    0,
    0,
    0,
    0,
    0,
    0,
    0,
    0,
    0,
    0,
    0,
    0,
    0,
    0,
    0,
    0,
    0,
    0,
    0,
    0,
    0,
    0,
    0,
    0,
    0,
    0,
    0,
    0,
    0,
    0,
    0,
    0,
    0,
    0,
    0,
    0,
    0,
    0,
    0,
    0,
    0,
    0,
    0,
    0,
    0,
    0,
    0,
    0,
    0,
    0,
    0,
    0,
    0,
    0,
    0,
    0,
    0,
    0,
    0,
    0,
    0,
    0,
    0,
    0,
    0,
    0,
    0,
    0,
    0,
    0,
    0,
    0,
    0,
    0,
    0,
    0,
    0,
    0,
    0,
    0,
    0,
    0,
    0,
    0,
    0,
    0,
    0,
    0,
    0,
    0,
    0,
    0,
    0,
    0,
    0,
    0,
    0,
    0,
    0,
    0,
    0,
    0,
    0,
    0,
    0,
    0,
    0,
    0,
    0,
    0
   ],
   "properties": [
    {
     "name": "gv2layer",
     "type": "string",
     "value": "Over Floor"
    },
    {
     "name": "z",
     "type": "int",
     "value": 1
    },
    {
     "name": "collision",
     "type": "bool",
     "value": false
    }
   ]
  },
  {
   "type": "tilelayer",
   "id": 3,
   "name": "Water",
   "width": 40,
   "height": 26,
   "x": 0,
   "y": 0,
   "opacity": 1,
   "visible": true,
   "data": [
    0,
    0,
    0,
    0,
    0,
    0,
    0,
    0,
    0,
    0,
    0,
    0,
    0,
    0,
    0,
    0,
    0,
    0,
    0,
    0,
    0,
    0,
    0,
    0,
    0,
    0,
    0,
    0,
    0,
    0,
    0,
    0,
    0,
    0,
    0,
    0,
    0,
    0,
    0,
    0,
    0,
    0,
    0,
    0,
    0,
    0,
    0,
    0,
    0,
    0,
    0,
    0,
    0,
    0,
    0,
    0,
    0,
    0,
    0,
    0,
    0,
    0,
    0,
    0,
    0,
    0,
    0,
    0,
    0,
    0,
    0,
    0,
    0,
    0,
    0,
    0,
    0,
    0,
    0,
    0,
    0,
    0,
    0,
    0,
    0,
    0,
    0,
    0,
    0,
    0,
    0,
    0,
    0,
    0,
    0,
    0,
    0,
    0,
    0,
    0,
    0,
    0,
    0,
    0,
    0,
    0,
    0,
    0,
    0,
    0,
    0,
    0,
    0,
    0,
    0,
    0,
    0,
    0,
    0,
    0,
    0,
    0,
    0,
    0,
    0,
    0,
    0,
    0,
    0,
    0,
    0,
    0,
    0,
    0,
    0,
    0,
    0,
    0,
    0,
    0,
    0,
    0,
    0,
    0,
    0,
    0,
    0,
    0,
    0,
    0,
    0,
    0,
    0,
    0,
    0,
    0,
    0,
    0,
    0,
    0,
    0,
    0,
    0,
    0,
    0,
    0,
    0,
    0,
    0,
    0,
    0,
    0,
    0,
    0,
    0,
    0,
    0,
    0,
    0,
    0,
    0,
    0,
    0,
    0,
    0,
    0,
    0,
    0,
    0,
    0,
    0,
    0,
    0,
    0,
    0,
    0,
    0,
    0,
    0,
    0,
    0,
    0,
    0,
    0,
    0,
    0,
    0,
    0,
    0,
    0,
    0,
    0,
    0,
    0,
    0,
    0,
    0,
    0,
    0,
    0,
    0,
    0,
    0,
    0,
    0,
    0,
    0,
    0,
    0,
    0,
    0,
    0,
    0,
    0,
    0,
    0,
    0,
    0,
    0,
    0,
    0,
    0,
    0,
    0,
    0,
    0,
    0,
    0,
    0,
    0,
    0,
    0,
    0,
    0,
    0,
    0,
    0,
    0,
    0,
    0,
    0,
    0,
    0,
    0,
    0,
    0,
    0,
    0,
    0,
    0,
    0,
    0,
    0,
    0,
    0,
    0,
    0,
    0,
    0,
    0,
    0,
    0,
    0,
    0,
    0,
    0,
    0,
    0,
    0,
    0,
    0,
    0,
    0,
    0,
    0,
    0,
    0,
    0,
    0,
    0,
    0,
    0,
    0,
    0,
    0,
    0,
    0,
    0,
    0,
    0,
    0,
    0,
    0,
    0,
    0,
    0,
    0,
    0,
    0,
    0,
    0,
    0,
    0,
    0,
    0,
    0,
    0,
    0,
    0,
    0,
    0,
    0,
    0,
    0,
    0,
    0,
    0,
    0,
    0,
    0,
    0,
    0,
    0,
    0,
    0,
    0,
    0,
    0,
    0,
    0,
    0,
    0,
    0,
    0,
    0,
    0,
    0,
    0,
    0,
    0,
    0,
    0,
    0,
    0,
    0,
    0,
    0,
    0,
    0,
    0,
    0,
    0,
    0,
    0,
    0,
    0,
    0,
    0,
    0,
    0,
    0,
    0,
    0,
    0,
    0,
    0,
    0,
    0,
    0,
    0,
    0,
    0,
    0,
    0,
    0,
    0,
    0,
    0,
    0,
    0,
    0,
    0,
    0,
    0,
    0,
    58,
    61,
    61,
    61,
    61,
    57,
    0,
    0,
    0,
    0,
    0,
    0,
    0,
    0,
    0,
    0,
    0,
    0,
    0,
    0,
    0,
    0,
    0,
    0,
    0,
    0,
    0,
    0,
    0,
    0,
    0,
    0,
    0,
    0,
    0,
    0,
    0,
    0,
    0,
    0,
    60,
    62,
    62,
    62,
    62,
    59,
    0,
    0,
    0,
    0,
    0,
    0,
    0,
    0,
    0,
    0,
    0,
    0,
    0,
    0,
    0,
    0,
    0,
    0,
    0,
    0,
    0,
    0,
    0,
    0,
    0,
    0,
    0,
    0,
    0,
    0,
    0,
    0,
    0,
    0,
    0,
    0,
    0,
    0,
    0,
    0,
    0,
    0,
    0,
    0,
    0,
    0,
    0,
    0,
    0,
    0,
    0,
    0,
    0,
    0,
    0,
    0,
    0,
    0,
    0,
    0,
    0,
    0,
    0,
    0,
    0,
    0,
    0,
    0,
    0,
    0,
    0,
    0,
    0,
    0,
    0,
    0,
    0,
    0,
    0,
    0,
    0,
    0,
    0,
    0,
    0,
    0,
    0,
    0,
    0,
    0,
    0,
    0,
    0,
    0,
    0,
    0,
    0,
    0,
    0,
    0,
    0,
    0,
    0,
    0,
    0,
    0,
    0,
    0,
    0,
    0,
    0,
    0,
    0,
    0,
    0,
    0,
    0,
    0,
    0,
    0,
    0,
    0,
    0,
    0,
    0,
    0,
    0,
    0,
    0,
    0,
    0,
    0,
    0,
    0,
    0,
    0,
    0,
    0,
    0,
    0,
    0,
    0,
    0,
    0,
    0,
    0,
    0,
    0,
    0,
    0,
    0,
    0,
    0,
    0,
    0,
    0,
    0,
    0,
    0,
    0,
    0,
    0,
    0,
    0,
    0,
    0,
    0,
    0,
    0,
    0,
    0,
    0,
    0,
    0,
    0,
    0,
    0,
    0,
    0,
    0,
    0,
    0,
    0,
    0,
    0,
    0,
    0,
    0,
    0,
    0,
    0,
    0,
    0,
    0,
    0,
    0,
    0,
    0,
    0,
    0,
    0,
    0,
    0,
    0,
    0,
    0,
    0,
    0,
    0,
    0,
    0,
    0,
    0,
    0,
    0,
    0,
    0,
    0,
    0,
    0,
    0,
    0,
    0,
    0,
    0,
    0,
    0,
    0,
    0,
    0,
    0,
    0,
    0,
    0,
    0,
    0,
    0,
    0,
    0,
    0,
    0,
    0,
    0,
    0,
    0,
    0,
    0,
    0,
    0,
    0,
    0,
    0,
    0,
    0,
    0,
    0,
    0,
    0,
    0,
    0,
    0,
    0,
    0,
    0,
    0,
    0,
    0,
    0,
    0,
    0,
    0,
    0,
    0,
    0,
    0,
    0,
    0,
    0,
    0,
    0,
    0,
    0,
    0,
    0,
    0,
    0,
    0,
    0,
    0,
    0,
    0,
    0,
    0,
    0,
    0,
    0,
    0,
    0,
    0,
    0,
    0,
    0,
    0,
    0,
    0,
    0,
    0,
    0,
    0,
    0,
    0,
    0,
    0,
    0,
    0,
    0,
    0,
    0,
    0,
    0,
    0,
    0,
    0,
    0,
    0,
    0,
    0,
    0,
    0,
    0,
    0,
    0,
    0,
    0,
    0,
    0,
    0,
    0,
    0,
    0,
    0,
    0,
    0,
    0,
    0,
    0,
    0,
    0,
    0,
    0,
    0,
    0,
    0,
    0,
    0,
    0,
    0,
    0,
    0,
    0,
    0,
    0,
    0,
    0,
    0,
    0,
    0,
    0,
    0,
    0,
    0,
    0,
    0,
    0,
    0,
    0,
    0,
    0,
    0,
    0,
    0,
    0,
    0,
    0,
    0,
    0,
    0,
    0,
    0,
    0,
    0,
    0,
    0,
    0,
    0,
    0,
    0,
    0,
    0,
    0,
    0,
    0,
    0,
    0,
    0,
    0,
    0,
    0,
    0,
    0,
    0,
    0,
    0,
    0,
    0,
    0,
    0,
    0,
    0,
    0,
    0,
    0,
    0,
    0,
    0,
    0,
    0,
    0,
    0,
    0,
    0,
    0,
    0,
    0,
    0,
    0,
    0,
    0,
    0,
    0,
    0,
    0,
    0,
    0,
    0,
    0,
    0,
    0,
    0,
    0,
    0,
    0,
    0,
    0,
    0,
    0,
    0,
    0,
    0,
    0,
    0,
    0,
    0,
    0,
    0,
    0,
    0,
    0,
    0,
    0,
    0,
    0,
    0,
    0,
    0,
    0,
    0,
    0,
    0,
    0,
    0,
    0,
    0,
    0,
    0,
    0,
    0,
    0,
    0,
    0,
    0,
    0,
    0,
    0,
    0,
    0,
    0,
    0,
    0,
    0,
    0,
    0,
    0,
    0,
    0,
    0,
    0,
    0,
    0,
    0,
    0,
    0,
    0,
    0,
    0,
    0,
    0,
    0,
    0,
    0,
    0,
    0,
    0,
    0,
    0,
    0,
    0,
    0,
    0,
    0,
    0,
    0,
    0,
    0,
    0,
    0,
    0,
    0,
    0,
    0,
    0,
    0,
    0,
    0,
    0,
    0,
    0,
    0,
    0,
    0,
    0,
    0,
    0,
    0,
    0,
    0,
    0,
    0,
    0,
    0,
    0,
    0,
    0,
    0,
    0,
    0,
    0,
    0,
    0,
    0,
    0,
    0,
    0,
    0,
    0,
    0,
    0,
    0,
    0,
    0,
    0,
    0,
    0,
    0,
    0,
    0,
    0,
    0,
    0
   ],
   "properties": [
    {
     "name": "gv2layer",
     "type": "string",
     "value": "Water"
    },
    {
     "name": "z",
     "type": "int",
     "value": 1
    },
    {
     "name": "collision",
     "type": "bool",
     "value": false
    }
   ]
  },
  {
   "type": "tilelayer",
   "id": 4,
   "name": "Collidables",
   "width": 40,
   "height": 26,
   "x": 0,
   "y": 0,
   "opacity": 1,
   "visible": true,
   "data": [
    0,
    0,
    0,
    0,
    0,
    0,
    0,
    0,
    0,
    0,
    0,
    0,
    0,
    0,
    0,
    0,
    0,
    0,
    0,
    0,
    0,
    0,
    0,
    0,
    0,
    0,
    0,
    0,
    0,
    0,
    0,
    0,
    0,
    0,
    0,
    0,
    0,
    0,
    0,
    0,
    0,
    0,
    0,
    0,
    0,
    0,
    0,
    0,
    0,
    0,
    0,
    0,
    0,
    0,
    0,
    0,
    0,
    0,
    0,
    0,
    0,
    0,
    0,
    0,
    0,
    0,
    0,
    0,
    0,
    0,
    0,
    0,
    0,
    0,
    0,
    0,
    0,
    0,
    0,
    0,
    0,
    23,
    24,
    24,
    24,
    24,
    24,
    24,
    24,
    24,
    24,
    24,
    24,
    24,
    24,
    24,
    24,
    24,
    24,
    24,
    24,
    24,
    24,
    24,
    24,
    24,
    24,
    24,
    24,
    24,
    24,
    24,
    24,
    24,
    24,
    24,
    24,
    24,
    25,
    0,
    69,
    0,
    0,
    0,
    0,
    0,
    0,
    0,
    0,
    0,
    0,
    0,
    0,
    0,
    0,
    0,
    0,
    0,
    0,
    0,
    0,
    0,
    0,
    0,
    0,
    0,
    0,
    0,
    0,
    0,
    0,
    0,
    0,
    0,
    0,
    0,
    0,
    0,
    0,
    69,
    69,
    0,
    0,
    0,
    0,
    0,
    0,
    0,
    0,
    0,
    0,
    0,
    0,
    0,
    0,
    0,
    0,
    0,
    0,
    0,
    0,
    0,
    0,
    0,
    0,
    0,
    0,
    0,
    0,
    0,
    0,
    0,
    0,
    0,
    0,
    0,
    0,
    0,
    0,
    69,
    69,
    0,
    0,
    0,
    0,
    0,
    0,
    0,
    0,
    0,
    0,
    0,
    0,
    0,
    0,
    0,
    0,
    0,
    0,
    0,
    0,
    0,
    0,
    0,
    0,
    0,
    0,
    0,
    0,
    0,
    0,
    0,
    0,
    0,
    0,
    0,
    0,
    0,
    0,
    69,
    0,
    23,
    24,
    24,
    24,
    24,
    24,
    24,
    24,
    24,
    24,
    25,
    0,
    0,
    0,
    0,
    0,
    0,
    0,
    0,
    0,
    0,
    0,
    0,
    0,
    0,
    0,
    0,
    0,
    0,
    0,
    0,
    23,
    24,
    24,
    24,
    24,
    24,
    25,
    0,
    0,
    0,
    0,
    0,
    0,
    0,
    0,
    0,
    0,
    0,
    0,
    0,
    0,
    1,
    0,
    0,
    0,
    0,
    0,
    0,
    0,
    0,
    0,
    0,
    0,
    0,
    1,
    0,
    0,
    0,
    0,
    0,
    0,
    0,
    0,
    0,
    0,
    0,
    0,
    0,
    0,
    0,
    0,
    0,
    0,
    0,
    0,
    0,
    0,
    0,
    0,
    0,
    0,
    0,
    0,
    0,
    0,
    0,
    0,
    0,
    0,
    0,
    0,
    0,
    0,
    0,
    0,
    0,
    0,
    0,
    0,
    0,
    0,
    0,
    0,
    0,
    0,
    0,
    0,
    0,
    0,
    0,
    0,
    0,
    0,
    0,
    0,
    0,
    0,
    0,
    0,
    0,
    0,
    0,
    0,
    0,
    0,
    0,
    0,
    0,
    0,
    0,
    0,
    0,
    0,
    0,
    0,
    0,
    0,
    0,
    0,
    0,
    0,
    0,
    0,
    0,
    0,
    0,
    0,
    0,
    0,
    0,
    0,
    0,
    0,
    0,
    0,
    0,
    0,
    0,
    0,
    0,
    0,
    0,
    0,
    0,
    0,
    0,
    0,
    0,
    0,
    0,
    0,
    0,
    0,
    0,
    0,
    0,
    0,
    0,
    0,
    0,
    0,
    0,
    0,
    0,
    0,
    0,
    0,
    0,
    0,
    0,
    0,
    0,
    0,
    0,
    0,
    0,
    0,
    0,
    0,
    0,
    0,
    0,
    0,
    0,
    0,
    0,
    0,
    0,
    0,
    0,
    0,
    0,
    0,
    0,
    0,
    0,
    0,
    0,
    0,
    0,
    0,
    0,
    0,
    0,
    0,
    0,
    0,
    0,
    0,
    0,
    0,
    0,
    0,
    0,
    0,
    0,
    0,
    0,
    0,
    0,
    0,
    0,
    0,
    0,
    69,
    0,
    0,
    0,
    0,
    0,
    0,
    0,
    0,
    0,
    0,
    0,
    0,
    0,
    0,
    0,
    0,
    0,
    0,
    0,
    0,
    0,
    0,
    0,
    0,
    0,
    0,
    0,
    0,
    0,
    0,
    0,
    0,
    0,
    0,
    0,
    0,
    0,
    0,
    0,
    0,
    0,
    0,
    0,
    0,
    0,
    0,
    0,
    0,
    0,
    0,
    0,
    0,
    0,
    0,
    0,
    0,
    0,
    0,
    0,
    0,
    0,
    0,
    0,
    0,
    0,
    0,
    0,
    0,
    0,
    0,
    0,
    0,
    0,
    0,
    0,
    0,
    0,
    0,
    0,
    0,
    0,
    0,
    0,
    0,
    0,
    0,
    0,
    0,
    0,
    0,
    0,
    0,
    0,
    0,
    0,
    0,
    0,
    0,
    0,
    0,
    0,
    0,
    0,
    0,
    0,
    0,
    0,
    0,
    0,
    0,
    0,
    0,
    0,
    0,
    0,
    0,
    0,
    0,
    0,
    0,
    0,
    0,
    0,
    0,
    0,
    0,
    69,
    0,
    0,
    0,
    0,
    0,
    0,
    0,
    0,
    0,
    0,
    0,
    0,
    0,
    0,
    0,
    0,
    0,
    0,
    0,
    0,
    0,
    0,
    0,
    0,
    0,
    0,
    0,
    0,
    0,
    0,
    0,
    0,
    0,
    0,
    0,
    0,
    0,
    0,
    0,
    0,
    0,
    0,
    0,
    0,
    0,
    0,
    0,
    0,
    0,
    0,
    0,
    0,
    0,
    0,
    0,
    0,
    0,
    0,
    0,
    0,
    0,
    0,
    0,
    0,
    0,
    0,
    0,
    0,
    0,
    0,
    0,
    0,
    0,
    0,
    0,
    0,
    0,
    0,
    0,
    0,
    0,
    0,
    0,
    0,
    0,
    0,
    0,
    0,
    0,
    0,
    0,
    0,
    0,
    0,
    0,
    0,
    0,
    0,
    0,
    0,
    0,
    0,
    0,
    0,
    0,
    0,
    0,
    0,
    0,
    0,
    0,
    0,
    0,
    0,
    0,
    0,
    0,
    0,
    0,
    0,
    0,
    0,
    0,
    0,
    0,
    0,
    0,
    0,
    0,
    0,
    0,
    0,
    0,
    0,
    0,
    0,
    0,
    0,
    0,
    0,
    0,
    0,
    0,
    0,
    0,
    0,
    0,
    0,
    0,
    0,
    0,
    0,
    0,
    0,
    0,
    0,
    0,
    0,
    0,
    0,
    0,
    0,
    0,
    0,
    0,
    0,
    0,
    0,
    0,
    0,
    0,
    0,
    0,
    0,
    0,
    0,
    0,
    0,
    0,
    0,
    0,
    0,
    0,
    0,
    0,
    0,
    0,
    0,
    0,
    0,
    0,
    0,
    0,
    0,
    0,
    0,
    0,
    0,
    0,
    0,
    0,
    0,
    0,
    0,
    0,
    0,
    0,
    0,
    0,
    0,
    0,
    0,
    0,
    0,
    0,
    0,
    0,
    0,
    0,
    0,
    0,
    0,
    0,
    0,
    0,
    0,
    0,
    0,
    0,
    0,
    0,
    0,
    0,
    0,
    0,
    0,
    0,
    0,
    0,
    0,
    0,
    0,
    0,
    0,
    0,
    0,
    0,
    0,
    0,
    0,
    0,
    0,
    0,
    0,
    0,
    0,
    0,
    0,
    0,
    0,
    0,
    0,
    0,
    0,
    0,
    0,
    0,
    0,
    0,
    0,
    0,
    0,
    0,
    0,
    0,
    0,
    0,
    0,
    0,
    0,
    0,
    0,
    0,
    0,
    0,
    0,
    0,
    0,
    0,
    0,
    0,
    0,
    0,
    0,
    0,
    0,
    0,
    0,
    0,
    0,
    0,
    0,
    0,
    0,
    0,
    0,
    0,
    0,
    0,
    0,
    0,
    0,
    0,
    0,
    0,
    0,
    0,
    0,
    0,
    0,
    0,
    0,
    0,
    0,
    0,
    0,
    0,
    0,
    0,
    0,
    0,
    0,
    0,
    0,
    0,
    0,
    0,
    0,
    0,
    0,
    0,
    0,
    0,
    0,
    0,
    0,
    0,
    0,
    0,
    0,
    0,
    0,
    0,
    0,
    0,
    0,
    0,
    0,
    0,
    0,
    0,
    0,
    0,
    0,
    0,
    0,
    0,
    0,
    0,
    0,
    0,
    0,
    0,
    0,
    0,
    0,
    0,
    0,
    0,
    65,
    0,
    0,
    0,
    0,
    65,
    0,
    0,
    0,
    0,
    0,
    65,
    0,
    0,
    0,
    0,
    65,
    0,
    0,
    0,
    0,
    65,
    0,
    0,
    0,
    0,
    65,
    0,
    0,
    0,
    0,
    65,
    0,
    0,
    0,
    0,
    0
   ],
   "properties": [
    {
     "name": "gv2layer",
     "type": "string",
     "value": "Collidables"
    },
    {
     "name": "z",
     "type": "int",
     "value": 5
    },
    {
     "name": "collision",
     "type": "bool",
     "value": false
    }
   ]
  },
  {
   "type": "objectgroup",
   "id": 5,
   "name": "Collidables \u00b7obj",
   "x": 0,
   "y": 0,
   "opacity": 1,
   "visible": true,
   "draworder": "index",
   "objects": [
    {
     "id": 1,
     "gid": 68,
     "name": "shrub-large-circle_0_0",
     "x": 0,
     "y": 768,
     "width": 128,
     "height": 128,
     "visible": true
    },
    {
     "id": 2,
     "gid": 68,
     "name": "shrub-large-circle_0_0",
     "x": 0,
     "y": 960,
     "width": 128,
     "height": 128,
     "visible": true
    },
    {
     "id": 3,
     "gid": 68,
     "name": "shrub-large-circle_0_0",
     "x": 0,
     "y": 1152,
     "width": 128,
     "height": 128,
     "visible": true
    },
    {
     "id": 4,
     "gid": 68,
     "name": "shrub-large-circle_0_0",
     "x": 0,
     "y": 1344,
     "width": 128,
     "height": 128,
     "visible": true
    },
    {
     "id": 5,
     "gid": 68,
     "name": "shrub-large-circle_0_0",
     "x": 0,
     "y": 576,
     "width": 128,
     "height": 128,
     "visible": true
    },
    {
     "id": 6,
     "gid": 7,
     "name": "building-rafter-red_0_0",
     "x": 768,
     "y": 896,
     "width": 192,
     "height": 64,
     "visible": true
    },
    {
     "id": 7,
     "gid": 13,
     "name": "building-tier-red_0_0",
     "x": 768,
     "y": 960,
     "width": 192,
     "height": 64,
     "visible": true
    },
    {
     "id": 8,
     "gid": 4,
     "name": "building-entrance-3_0_0",
     "x": 768,
     "y": 1024,
     "width": 192,
     "height": 64,
     "visible": true
    },
    {
     "id": 9,
     "gid": 6,
     "name": "building-rafter-blue_0_0",
     "x": 1600,
     "y": 1216,
     "width": 192,
     "height": 64,
     "visible": true
    },
    {
     "id": 10,
     "gid": 12,
     "name": "building-tier-blue_0_0",
     "x": 1600,
     "y": 1280,
     "width": 192,
     "height": 64,
     "visible": true
    },
    {
     "id": 11,
     "gid": 2,
     "name": "building-entrance-1_0_0",
     "x": 1600,
     "y": 1344,
     "width": 192,
     "height": 64,
     "visible": true
    },
    {
     "id": 12,
     "gid": 5,
     "name": "building-rafter-black_0_0",
     "x": 1792,
     "y": 448,
     "width": 192,
     "height": 64,
     "visible": true
    },
    {
     "id": 13,
     "gid": 11,
     "name": "building-tier-black_0_0",
     "x": 1792,
     "y": 512,
     "width": 192,
     "height": 64,
     "visible": true
    },
    {
     "id": 14,
     "gid": 3,
     "name": "building-entrance-2_0_0",
     "x": 1792,
     "y": 576,
     "width": 192,
     "height": 64,
     "visible": true
    },
    {
     "id": 15,
     "gid": 71,
     "name": "tree-3-base-shadow_0_0",
     "x": 2176,
     "y": 1408,
     "width": 128,
     "height": 64,
     "visible": true
    },
    {
     "id": 16,
     "gid": 68,
     "name": "shrub-large-circle_0_0",
     "x": 2432,
     "y": 768,
     "width": 128,
     "height": 128,
     "visible": true
    },
    {
     "id": 17,
     "gid": 68,
     "name": "shrub-large-circle_0_0",
     "x": 2432,
     "y": 960,
     "width": 128,
     "height": 128,
     "visible": true
    },
    {
     "id": 18,
     "gid": 68,
     "name": "shrub-large-circle_0_0",
     "x": 2432,
     "y": 1152,
     "width": 128,
     "height": 128,
     "visible": true
    },
    {
     "id": 19,
     "gid": 68,
     "name": "shrub-large-circle_0_0",
     "x": 2432,
     "y": 1344,
     "width": 128,
     "height": 128,
     "visible": true
    },
    {
     "id": 20,
     "gid": 68,
     "name": "shrub-large-circle_0_0",
     "x": 2432,
     "y": 576,
     "width": 128,
     "height": 128,
     "visible": true
    },
    {
     "id": 21,
     "gid": 71,
     "name": "tree-3-base-shadow_0_0",
     "x": 256,
     "y": 960,
     "width": 128,
     "height": 64,
     "visible": true
    }
   ],
   "properties": [
    {
     "name": "gv2layer",
     "type": "string",
     "value": "Collidables"
    },
    {
     "name": "z",
     "type": "int",
     "value": 5
    },
    {
     "name": "collision",
     "type": "bool",
     "value": false
    }
   ]
  },
  {
   "type": "tilelayer",
   "id": 6,
   "name": "Other",
   "width": 40,
   "height": 26,
   "x": 0,
   "y": 0,
   "opacity": 1,
   "visible": true,
   "data": [
    0,
    0,
    0,
    0,
    0,
    0,
    0,
    0,
    0,
    0,
    0,
    0,
    0,
    0,
    0,
    0,
    0,
    0,
    0,
    0,
    0,
    0,
    0,
    0,
    0,
    0,
    0,
    0,
    0,
    0,
    0,
    0,
    0,
    0,
    0,
    0,
    0,
    0,
    0,
    0,
    0,
    0,
    0,
    0,
    0,
    0,
    0,
    0,
    0,
    0,
    0,
    0,
    0,
    0,
    0,
    0,
    0,
    0,
    0,
    0,
    0,
    0,
    0,
    0,
    0,
    0,
    0,
    0,
    0,
    0,
    0,
    0,
    0,
    0,
    0,
    0,
    0,
    0,
    0,
    0,
    0,
    0,
    0,
    0,
    0,
    0,
    0,
    0,
    0,
    0,
    0,
    0,
    0,
    0,
    0,
    0,
    0,
    0,
    0,
    0,
    0,
    0,
    0,
    0,
    0,
    0,
    0,
    0,
    0,
    0,
    0,
    0,
    0,
    0,
    0,
    0,
    0,
    0,
    0,
    0,
    0,
    0,
    0,
    0,
    0,
    0,
    0,
    0,
    0,
    0,
    0,
    0,
    0,
    0,
    0,
    0,
    0,
    0,
    0,
    0,
    0,
    0,
    0,
    0,
    0,
    0,
    0,
    0,
    0,
    0,
    0,
    0,
    0,
    0,
    0,
    0,
    0,
    0,
    0,
    0,
    0,
    0,
    0,
    0,
    0,
    0,
    0,
    0,
    0,
    0,
    0,
    0,
    0,
    0,
    0,
    0,
    0,
    0,
    0,
    0,
    0,
    0,
    0,
    0,
    0,
    0,
    0,
    0,
    0,
    0,
    0,
    0,
    0,
    0,
    0,
    0,
    0,
    0,
    0,
    0,
    0,
    0,
    0,
    0,
    0,
    0,
    0,
    0,
    0,
    0,
    0,
    0,
    0,
    0,
    0,
    0,
    0,
    0,
    0,
    0,
    0,
    0,
    0,
    0,
    0,
    0,
    0,
    0,
    0,
    0,
    0,
    0,
    0,
    0,
    0,
    0,
    0,
    0,
    0,
    0,
    0,
    0,
    0,
    0,
    0,
    0,
    0,
    0,
    0,
    0,
    0,
    0,
    0,
    0,
    0,
    0,
    0,
    0,
    0,
    0,
    74,
    0,
    64,
    0,
    0,
    0,
    0,
    0,
    0,
    0,
    0,
    0,
    0,
    0,
    0,
    0,
    0,
    0,
    0,
    0,
    0,
    0,
    0,
    0,
    0,
    0,
    0,
    0,
    0,
    0,
    0,
    0,
    0,
    0,
    0,
    0,
    0,
    0,
    0,
    0,
    73,
    0,
    63,
    0,
    0,
    0,
    0,
    0,
    0,
    0,
    0,
    0,
    0,
    0,
    0,
    0,
    0,
    0,
    0,
    0,
    0,
    0,
    0,
    0,
    0,
    0,
    0,
    0,
    0,
    0,
    0,
    0,
    0,
    0,
    0,
    0,
    0,
    0,
    0,
    0,
    0,
    0,
    0,
    0,
    0,
    0,
    0,
    0,
    0,
    0,
    0,
    0,
    0,
    0,
    0,
    0,
    0,
    0,
    0,
    0,
    0,
    0,
    0,
    0,
    0,
    0,
    0,
    0,
    0,
    0,
    0,
    0,
    0,
    0,
    0,
    0,
    0,
    0,
    0,
    0,
    0,
    0,
    0,
    0,
    0,
    0,
    0,
    0,
    0,
    0,
    0,
    0,
    0,
    0,
    0,
    0,
    0,
    0,
    0,
    0,
    0,
    0,
    0,
    0,
    0,
    0,
    0,
    0,
    0,
    0,
    0,
    0,
    0,
    0,
    0,
    0,
    0,
    0,
    0,
    0,
    0,
    0,
    0,
    0,
    0,
    0,
    0,
    0,
    0,
    0,
    0,
    0,
    0,
    0,
    0,
    0,
    0,
    0,
    0,
    0,
    0,
    0,
    0,
    0,
    0,
    0,
    0,
    0,
    0,
    0,
    0,
    0,
    0,
    0,
    0,
    0,
    0,
    0,
    0,
    0,
    0,
    0,
    0,
    0,
    0,
    0,
    0,
    0,
    0,
    0,
    0,
    0,
    0,
    0,
    0,
    0,
    0,
    0,
    0,
    0,
    0,
    0,
    0,
    0,
    0,
    0,
    0,
    0,
    0,
    0,
    0,
    0,
    0,
    0,
    0,
    0,
    0,
    0,
    0,
    0,
    0,
    0,
    0,
    0,
    0,
    0,
    0,
    0,
    0,
    0,
    0,
    0,
    0,
    0,
    0,
    0,
    0,
    0,
    0,
    0,
    0,
    0,
    0,
    0,
    0,
    0,
    0,
    0,
    0,
    0,
    0,
    0,
    0,
    0,
    0,
    0,
    0,
    0,
    0,
    0,
    0,
    0,
    0,
    0,
    0,
    0,
    0,
    0,
    0,
    0,
    0,
    0,
    0,
    0,
    0,
    0,
    0,
    0,
    0,
    0,
    0,
    0,
    0,
    0,
    0,
    0,
    0,
    0,
    0,
    0,
    0,
    0,
    0,
    0,
    0,
    0,
    0,
    0,
    0,
    0,
    0,
    0,
    0,
    0,
    0,
    0,
    0,
    0,
    0,
    0,
    0,
    0,
    0,
    0,
    0,
    0,
    0,
    0,
    0,
    0,
    0,
    0,
    0,
    0,
    0,
    0,
    0,
    0,
    0,
    0,
    0,
    0,
    0,
    0,
    0,
    0,
    0,
    0,
    0,
    0,
    0,
    0,
    0,
    0,
    0,
    0,
    0,
    0,
    0,
    0,
    0,
    0,
    0,
    0,
    0,
    0,
    0,
    0,
    0,
    0,
    0,
    0,
    0,
    0,
    0,
    0,
    0,
    0,
    0,
    0,
    0,
    0,
    0,
    0,
    0,
    0,
    0,
    0,
    0,
    0,
    0,
    0,
    0,
    0,
    0,
    0,
    0,
    0,
    0,
    0,
    0,
    0,
    0,
    0,
    0,
    0,
    0,
    0,
    0,
    0,
    0,
    0,
    0,
    0,
    0,
    0,
    0,
    0,
    0,
    0,
    0,
    0,
    0,
    0,
    0,
    0,
    0,
    0,
    0,
    0,
    0,
    0,
    0,
    0,
    0,
    0,
    0,
    0,
    0,
    0,
    0,
    0,
    0,
    0,
    0,
    0,
    0,
    0,
    0,
    0,
    0,
    0,
    0,
    0,
    0,
    0,
    0,
    0,
    0,
    0,
    0,
    0,
    0,
    0,
    0,
    0,
    0,
    0,
    0,
    0,
    0,
    0,
    0,
    0,
    0,
    0,
    0,
    0,
    0,
    0,
    0,
    0,
    0,
    0,
    0,
    0,
    0,
    0,
    0,
    0,
    0,
    0,
    0,
    0,
    0,
    0,
    0,
    0,
    0,
    0,
    0,
    0,
    0,
    0,
    0,
    0,
    0,
    0,
    0,
    0,
    0,
    0,
    0,
    0,
    0,
    0,
    0,
    0,
    0,
    0,
    0,
    0,
    0,
    0,
    0,
    0,
    0,
    0,
    0,
    0,
    0,
    0,
    0,
    0,
    0,
    0,
    0,
    0,
    0,
    0,
    0,
    0,
    0,
    0,
    0,
    0,
    0,
    0,
    0,
    0,
    0,
    0,
    0,
    0,
    0,
    0,
    0,
    0,
    0,
    0,
    0,
    0,
    0,
    0,
    0,
    0,
    0,
    0,
    0,
    0,
    0,
    0,
    0,
    0,
    0,
    0,
    0,
    0,
    0,
    0,
    0,
    0,
    0,
    0,
    0,
    0,
    0,
    0,
    0,
    0,
    0,
    0,
    0,
    0,
    0,
    0,
    0,
    0,
    0,
    0,
    0,
    0,
    0,
    0,
    0,
    0,
    0,
    0,
    0,
    0,
    0,
    0,
    0,
    0,
    0,
    0,
    0,
    0,
    0,
    0,
    0,
    0,
    0,
    0,
    0,
    0,
    0,
    0,
    0,
    0,
    0,
    0,
    0,
    0,
    0,
    0,
    0,
    0,
    0,
    0,
    0,
    0,
    0,
    0,
    0,
    0,
    0,
    0,
    0,
    0,
    0,
    0,
    0,
    0,
    0,
    0,
    0,
    0,
    0,
    0,
    0,
    0,
    0,
    0,
    0,
    0,
    0,
    0,
    0,
    0,
    0,
    0,
    0,
    0,
    0,
    0,
    0,
    0,
    0,
    0,
    0,
    0,
    0,
    0,
    0,
    0,
    0,
    0,
    0,
    0,
    0,
    0,
    0,
    0,
    0,
    0,
    0,
    0,
    0,
    0,
    0,
    0,
    0,
    0,
    0,
    0,
    0,
    0,
    0,
    0,
    0,
    0,
    0,
    0,
    0,
    0,
    0,
    0,
    0,
    0,
    0,
    0,
    0,
    0,
    0,
    0,
    0,
    0,
    0,
    0,
    0,
    0,
    0,
    0,
    0,
    0,
    0,
    0,
    0,
    0,
    0,
    0,
    0,
    0,
    0,
    0,
    0,
    0,
    0,
    0,
    0,
    0,
    0,
    0,
    0,
    0,
    0,
    0,
    0,
    0,
    0,
    0,
    0,
    0,
    0,
    0,
    0,
    0,
    0,
    0
   ],
   "properties": [
    {
     "name": "gv2layer",
     "type": "string",
     "value": "Other"
    },
    {
     "name": "z",
     "type": "int",
     "value": 6
    },
    {
     "name": "collision",
     "type": "bool",
     "value": false
    }
   ]
  },
  {
   "type": "objectgroup",
   "id": 7,
   "name": "Tops \u00b7obj",
   "x": 0,
   "y": 0,
   "opacity": 1,
   "visible": true,
   "draworder": "index",
   "objects": [
    {
     "id": 22,
     "gid": 10,
     "name": "building-roof-red_0_0",
     "x": 768,
     "y": 704,
     "width": 192,
     "height": 192,
     "visible": true
    },
    {
     "id": 23,
     "gid": 66,
     "name": "sakura-large-top_0_0",
     "x": 832,
     "y": 1472,
     "width": 192,
     "height": 128,
     "visible": true
    },
    {
     "id": 24,
     "gid": 66,
     "name": "sakura-large-top_0_0",
     "x": 1152,
     "y": 1472,
     "width": 192,
     "height": 128,
     "visible": true
    },
    {
     "id": 25,
     "gid": 66,
     "name": "sakura-large-top_0_0",
     "x": 128,
     "y": 1472,
     "width": 192,
     "height": 128,
     "visible": true
    },
    {
     "id": 26,
     "gid": 66,
     "name": "sakura-large-top_0_0",
     "x": 1472,
     "y": 1472,
     "width": 192,
     "height": 128,
     "visible": true
    },
    {
     "id": 27,
     "gid": 9,
     "name": "building-roof-blue_0_0",
     "x": 1600,
     "y": 1024,
     "width": 192,
     "height": 192,
     "visible": true
    },
    {
     "id": 28,
     "gid": 66,
     "name": "sakura-large-top_0_0",
     "x": 1792,
     "y": 1472,
     "width": 192,
     "height": 128,
     "visible": true
    },
    {
     "id": 29,
     "gid": 8,
     "name": "building-roof-black_0_0",
     "x": 1792,
     "y": 256,
     "width": 192,
     "height": 192,
     "visible": true
    },
    {
     "id": 30,
     "gid": 67,
     "name": "sakura-small_0_0",
     "x": 2112,
     "y": 640,
     "width": 64,
     "height": 128,
     "visible": true
    },
    {
     "id": 31,
     "gid": 67,
     "name": "sakura-small_0_0",
     "x": 2112,
     "y": 960,
     "width": 64,
     "height": 128,
     "visible": true
    },
    {
     "id": 32,
     "gid": 66,
     "name": "sakura-large-top_0_0",
     "x": 2112,
     "y": 1472,
     "width": 192,
     "height": 128,
     "visible": true
    },
    {
     "id": 33,
     "gid": 72,
     "name": "tree-3-top_0_0",
     "x": 2176,
     "y": 1280,
     "width": 128,
     "height": 128,
     "visible": true
    },
    {
     "id": 34,
     "gid": 67,
     "name": "sakura-small_0_0",
     "x": 2304,
     "y": 768,
     "width": 64,
     "height": 128,
     "visible": true
    },
    {
     "id": 35,
     "gid": 67,
     "name": "sakura-small_0_0",
     "x": 2304,
     "y": 1088,
     "width": 64,
     "height": 128,
     "visible": true
    },
    {
     "id": 36,
     "gid": 72,
     "name": "tree-3-top_0_0",
     "x": 256,
     "y": 832,
     "width": 128,
     "height": 128,
     "visible": true
    },
    {
     "id": 37,
     "gid": 66,
     "name": "sakura-large-top_0_0",
     "x": 448,
     "y": 1472,
     "width": 192,
     "height": 128,
     "visible": true
    }
   ],
   "properties": [
    {
     "name": "gv2layer",
     "type": "string",
     "value": "Tops"
    },
    {
     "name": "z",
     "type": "int",
     "value": 7
    },
    {
     "name": "collision",
     "type": "bool",
     "value": false
    }
   ]
  },
  {
   "type": "tilelayer",
   "id": 8,
   "name": "Colliders",
   "width": 40,
   "height": 26,
   "x": 0,
   "y": 0,
   "opacity": 1,
   "visible": true,
   "data": [
    0,
    0,
    0,
    0,
    0,
    0,
    0,
    0,
    0,
    0,
    0,
    0,
    0,
    0,
    0,
    0,
    0,
    0,
    0,
    0,
    0,
    0,
    0,
    0,
    0,
    0,
    0,
    0,
    0,
    0,
    0,
    0,
    0,
    0,
    0,
    0,
    0,
    0,
    0,
    0,
    0,
    0,
    0,
    0,
    0,
    0,
    0,
    0,
    0,
    0,
    0,
    0,
    0,
    0,
    0,
    0,
    0,
    0,
    0,
    0,
    0,
    0,
    0,
    0,
    0,
    0,
    0,
    0,
    0,
    0,
    0,
    0,
    0,
    0,
    0,
    0,
    0,
    0,
    0,
    0,
    0,
    30,
    30,
    30,
    30,
    30,
    30,
    30,
    30,
    30,
    30,
    30,
    30,
    30,
    30,
    30,
    30,
    30,
    30,
    30,
    30,
    30,
    30,
    30,
    30,
    30,
    30,
    30,
    30,
    30,
    30,
    30,
    30,
    30,
    30,
    30,
    30,
    30,
    30,
    0,
    30,
    0,
    0,
    0,
    0,
    0,
    0,
    0,
    0,
    0,
    0,
    0,
    0,
    0,
    0,
    0,
    0,
    0,
    0,
    0,
    0,
    0,
    0,
    0,
    0,
    0,
    0,
    0,
    0,
    0,
    0,
    0,
    0,
    0,
    0,
    0,
    0,
    0,
    0,
    30,
    30,
    30,
    30,
    30,
    30,
    30,
    30,
    30,
    30,
    30,
    30,
    30,
    30,
    30,
    30,
    30,
    30,
    30,
    30,
    30,
    30,
    30,
    30,
    30,
    30,
    30,
    30,
    30,
    30,
    30,
    30,
    30,
    30,
    30,
    30,
    30,
    30,
    30,
    30,
    30,
    30,
    0,
    0,
    0,
    0,
    0,
    0,
    0,
    0,
    0,
    0,
    0,
    0,
    0,
    0,
    0,
    0,
    0,
    0,
    0,
    0,
    0,
    0,
    0,
    0,
    0,
    0,
    0,
    0,
    0,
    0,
    0,
    0,
    0,
    0,
    0,
    0,
    0,
    0,
    30,
    0,
    30,
    30,
    30,
    30,
    30,
    30,
    30,
    30,
    30,
    30,
    30,
    0,
    0,
    0,
    0,
    0,
    0,
    0,
    0,
    30,
    0,
    30,
    0,
    0,
    0,
    0,
    0,
    0,
    0,
    0,
    0,
    30,
    30,
    30,
    30,
    30,
    30,
    30,
    0,
    0,
    0,
    0,
    0,
    0,
    0,
    0,
    0,
    0,
    0,
    0,
    0,
    0,
    30,
    0,
    0,
    0,
    0,
    0,
    0,
    0,
    0,
    0,
    0,
    0,
    0,
    30,
    0,
    30,
    30,
    30,
    0,
    0,
    0,
    0,
    0,
    0,
    0,
    0,
    0,
    0,
    0,
    0,
    0,
    0,
    0,
    0,
    0,
    0,
    0,
    0,
    0,
    0,
    0,
    0,
    0,
    0,
    0,
    0,
    0,
    0,
    0,
    0,
    0,
    0,
    0,
    0,
    0,
    30,
    30,
    30,
    0,
    0,
    0,
    0,
    0,
    0,
    0,
    0,
    0,
    30,
    30,
    0,
    0,
    0,
    0,
    0,
    0,
    0,
    0,
    0,
    0,
    0,
    0,
    0,
    0,
    0,
    0,
    0,
    0,
    0,
    0,
    0,
    0,
    0,
    0,
    0,
    0,
    30,
    0,
    30,
    0,
    0,
    0,
    0,
    0,
    0,
    0,
    30,
    30,
    30,
    30,
    0,
    0,
    0,
    30,
    30,
    30,
    30,
    30,
    30,
    0,
    0,
    0,
    0,
    0,
    0,
    0,
    0,
    0,
    0,
    0,
    0,
    0,
    0,
    0,
    0,
    0,
    0,
    0,
    0,
    0,
    0,
    0,
    0,
    0,
    0,
    0,
    30,
    30,
    0,
    0,
    0,
    0,
    0,
    30,
    30,
    30,
    30,
    30,
    30,
    0,
    0,
    0,
    0,
    0,
    0,
    0,
    0,
    0,
    0,
    0,
    0,
    0,
    0,
    0,
    0,
    0,
    0,
    0,
    0,
    0,
    0,
    30,
    0,
    0,
    0,
    0,
    0,
    0,
    30,
    30,
    0,
    0,
    0,
    0,
    0,
    0,
    0,
    0,
    0,
    0,
    0,
    0,
    0,
    0,
    30,
    0,
    0,
    0,
    0,
    0,
    0,
    0,
    0,
    0,
    0,
    0,
    0,
    0,
    0,
    0,
    0,
    0,
    0,
    0,
    0,
    0,
    30,
    30,
    30,
    30,
    0,
    0,
    0,
    0,
    0,
    0,
    0,
    0,
    0,
    0,
    0,
    0,
    0,
    0,
    0,
    0,
    0,
    0,
    0,
    0,
    0,
    0,
    0,
    0,
    0,
    0,
    0,
    0,
    0,
    0,
    0,
    0,
    0,
    0,
    30,
    0,
    30,
    30,
    0,
    0,
    0,
    0,
    0,
    0,
    0,
    0,
    0,
    0,
    0,
    0,
    30,
    30,
    30,
    0,
    0,
    0,
    0,
    0,
    0,
    0,
    0,
    0,
    0,
    0,
    0,
    0,
    0,
    0,
    0,
    0,
    0,
    0,
    0,
    0,
    0,
    0,
    0,
    0,
    30,
    30,
    0,
    0,
    30,
    30,
    0,
    0,
    0,
    0,
    0,
    0,
    30,
    30,
    30,
    0,
    0,
    0,
    0,
    0,
    0,
    0,
    0,
    30,
    0,
    0,
    0,
    0,
    0,
    0,
    0,
    0,
    0,
    0,
    0,
    0,
    0,
    0,
    30,
    30,
    30,
    30,
    0,
    0,
    0,
    0,
    0,
    0,
    0,
    0,
    0,
    0,
    30,
    30,
    30,
    0,
    0,
    0,
    0,
    0,
    0,
    0,
    0,
    0,
    0,
    0,
    0,
    0,
    0,
    0,
    0,
    0,
    0,
    30,
    0,
    0,
    0,
    0,
    30,
    30,
    0,
    0,
    0,
    0,
    0,
    0,
    0,
    0,
    0,
    0,
    0,
    0,
    0,
    0,
    0,
    0,
    0,
    0,
    0,
    0,
    0,
    0,
    0,
    0,
    0,
    0,
    0,
    0,
    0,
    0,
    0,
    0,
    0,
    0,
    0,
    0,
    0,
    0,
    0,
    0,
    30,
    30,
    0,
    0,
    0,
    0,
    0,
    0,
    0,
    0,
    0,
    0,
    0,
    0,
    0,
    0,
    0,
    0,
    0,
    0,
    0,
    0,
    0,
    0,
    0,
    0,
    0,
    0,
    0,
    0,
    0,
    0,
    0,
    0,
    0,
    0,
    30,
    0,
    30,
    30,
    30,
    30,
    0,
    0,
    0,
    0,
    0,
    0,
    0,
    0,
    0,
    0,
    0,
    0,
    0,
    0,
    0,
    0,
    0,
    0,
    0,
    0,
    0,
    0,
    0,
    30,
    30,
    30,
    0,
    0,
    0,
    0,
    0,
    0,
    0,
    0,
    0,
    0,
    30,
    30,
    0,
    0,
    0,
    0,
    0,
    0,
    0,
    0,
    0,
    0,
    0,
    0,
    0,
    0,
    0,
    0,
    0,
    0,
    0,
    0,
    0,
    0,
    0,
    0,
    0,
    30,
    30,
    30,
    0,
    0,
    0,
    0,
    0,
    0,
    0,
    0,
    0,
    0,
    0,
    0,
    30,
    30,
    0,
    0,
    0,
    0,
    0,
    0,
    0,
    0,
    0,
    0,
    0,
    0,
    0,
    0,
    0,
    0,
    0,
    0,
    0,
    0,
    0,
    0,
    0,
    30,
    30,
    30,
    0,
    0,
    0,
    0,
    0,
    0,
    0,
    0,
    0,
    0,
    30,
    30,
    30,
    30,
    0,
    0,
    0,
    0,
    0,
    0,
    0,
    0,
    0,
    0,
    0,
    0,
    0,
    0,
    0,
    0,
    0,
    0,
    0,
    0,
    0,
    0,
    0,
    0,
    0,
    0,
    0,
    0,
    0,
    0,
    0,
    0,
    30,
    30,
    0,
    0,
    30,
    30,
    0,
    0,
    0,
    0,
    0,
    0,
    0,
    0,
    0,
    0,
    0,
    0,
    0,
    0,
    0,
    0,
    0,
    0,
    0,
    0,
    0,
    0,
    0,
    0,
    0,
    0,
    0,
    0,
    0,
    0,
    0,
    0,
    0,
    0,
    0,
    0,
    0,
    0,
    0,
    0,
    0,
    0,
    0,
    0,
    0,
    0,
    0,
    0,
    0,
    0,
    0,
    0,
    0,
    0,
    0,
    0,
    0,
    0,
    0,
    0,
    0,
    0,
    0,
    0,
    0,
    0,
    0,
    0,
    0,
    0,
    0,
    0,
    0,
    0,
    0,
    0,
    0,
    0,
    0,
    0,
    0,
    0,
    0,
    30,
    0,
    0,
    0,
    0,
    30,
    0,
    0,
    0,
    0,
    0,
    30,
    0,
    0,
    0,
    0,
    30,
    0,
    0,
    0,
    0,
    30,
    0,
    0,
    0,
    0,
    30,
    0,
    0,
    0,
    0,
    30,
    0,
    0,
    0,
    0,
    0
   ],
   "properties": [
    {
     "name": "gv2layer",
     "type": "string",
     "value": "Colliders"
    },
    {
     "name": "z",
     "type": "int",
     "value": 5
    },
    {
     "name": "collision",
     "type": "bool",
     "value": true
    }
   ]
  },
  {
   "type": "objectgroup",
   "id": 9,
   "name": "Meta",
   "x": 0,
   "y": 0,
   "opacity": 1,
   "visible": true,
   "draworder": "index",
   "objects": [
    {
     "id": 38,
     "name": "transporter",
     "point": true,
     "x": 1888.0,
     "y": 608.0,
     "width": 0,
     "height": 0,
     "visible": true,
     "properties": [
      {
       "name": "kind",
       "type": "string",
       "value": "transporter"
      },
      {
       "name": "targetRoom",
       "type": "string",
       "value": "InakaStation"
      },
      {
       "name": "targetX",
       "type": "int",
       "value": 11
      },
      {
       "name": "targetY",
       "type": "int",
       "value": 11
      },
      {
       "name": "hidden",
       "type": "bool",
       "value": true
      }
     ]
    },
    {
     "id": 39,
     "name": "boundary",
     "x": 0,
     "y": 0,
     "polygon": [
      {
       "x": 0,
       "y": 0
      },
      {
       "x": 2560,
       "y": 0
      },
      {
       "x": 2560,
       "y": 1664
      },
      {
       "x": 0,
       "y": 1664
      }
     ],
     "width": 0,
     "height": 0,
     "visible": true,
     "properties": [
      {
       "name": "kind",
       "type": "string",
       "value": "boundary"
      }
     ]
    }
   ],
   "properties": [
    {
     "name": "gv2meta",
     "type": "bool",
     "value": true
    }
   ]
  }
 ]
}