{
 "type": "map",
 "version": "1.10",
 "tiledversion": "1.11.0",
 "orientation": "orthogonal",
 "renderorder": "right-down",
 "width": 24,
 "height": 15,
 "tilewidth": 64,
 "tileheight": 64,
 "infinite": false,
 "nextlayerid": 9,
 "nextobjectid": 51,
 "properties": [
  {
   "name": "gv2room",
   "type": "string",
   "value": "InakaStation"
  },
  {
   "name": "gv2worldWidth",
   "type": "int",
   "value": 1536
  },
  {
   "name": "gv2worldHeight",
   "type": "int",
   "value": 960
  }
 ],
 "tilesets": [
  {
   "firstgid": 1,
   "name": "gamev2",
   "tilewidth": 64,
   "tileheight": 64,
   "tilecount": 32,
   "columns": 0,
   "objectalignment": "topleft",
   "grid": {
    "orientation": "orthogonal",
    "width": 64,
    "height": 64
   },
   "tiles": [
    {
     "id": 0,
     "image": "../assets/sprites/blue-lamp-post_0_0.png",
     "imagewidth": 64,
     "imageheight": 64
    },
    {
     "id": 1,
     "image": "../assets/sprites/blue-shrine-platform-base_0_0.png",
     "imagewidth": 128,
     "imageheight": 128
    },
    {
     "id": 2,
     "image": "../assets/sprites/castle-wall-siding_0_0.png",
     "imagewidth": 64,
     "imageheight": 128
    },
    {
     "id": 3,
     "image": "../assets/sprites/collider-marker.png",
     "imagewidth": 64,
     "imageheight": 64
    },
    {
     "id": 4,
     "image": "../assets/sprites/gravel-autotile_corner-ne.png",
     "imagewidth": 64,
     "imageheight": 64
    },
    {
     "id": 5,
     "image": "../assets/sprites/gravel-autotile_corner-nw.png",
     "imagewidth": 64,
     "imageheight": 64
    },
    {
     "id": 6,
     "image": "../assets/sprites/gravel-autotile_corner-se.png",
     "imagewidth": 64,
     "imageheight": 64
    },
    {
     "id": 7,
     "image": "../assets/sprites/gravel-autotile_corner-sw.png",
     "imagewidth": 64,
     "imageheight": 64
    },
    {
     "id": 8,
     "image": "../assets/sprites/gravel-autotile_edge-n.png",
     "imagewidth": 64,
     "imageheight": 64
    },
    {
     "id": 9,
     "image": "../assets/sprites/gravel-autotile_edge-s.png",
     "imagewidth": 64,
     "imageheight": 64
    },
    {
     "id": 10,
     "image": "../assets/sprites/light-concrete-autotile_center.png",
     "imagewidth": 64,
     "imageheight": 64
    },
    {
     "id": 11,
     "image": "../assets/sprites/light-concrete-autotile_corner-ne.png",
     "imagewidth": 64,
     "imageheight": 64
    },
    {
     "id": 12,
     "image": "../assets/sprites/light-concrete-autotile_corner-nw.png",
     "imagewidth": 64,
     "imageheight": 64
    },
    {
     "id": 13,
     "image": "../assets/sprites/light-concrete-autotile_corner-se.png",
     "imagewidth": 64,
     "imageheight": 64
    },
    {
     "id": 14,
     "image": "../assets/sprites/light-concrete-autotile_corner-sw.png",
     "imagewidth": 64,
     "imageheight": 64
    },
    {
     "id": 15,
     "image": "../assets/sprites/light-concrete-autotile_edge-e.png",
     "imagewidth": 64,
     "imageheight": 64
    },
    {
     "id": 16,
     "image": "../assets/sprites/light-concrete-autotile_edge-n.png",
     "imagewidth": 64,
     "imageheight": 64
    },
    {
     "id": 17,
     "image": "../assets/sprites/light-concrete-autotile_edge-s.png",
     "imagewidth": 64,
     "imageheight": 64
    },
    {
     "id": 18,
     "image": "../assets/sprites/light-concrete-autotile_edge-w.png",
     "imagewidth": 64,
     "imageheight": 64
    },
    {
     "id": 19,
     "image": "../assets/sprites/pavers_0_2.png",
     "imagewidth": 64,
     "imageheight": 64
    },
    {
     "id": 20,
     "image": "../assets/sprites/pavers_1_0.png",
     "imagewidth": 64,
     "imageheight": 64
    },
    {
     "id": 21,
     "image": "../assets/sprites/pavers_1_2.png",
     "imagewidth": 64,
     "imageheight": 64
    },
    {
     "id": 22,
     "image": "../assets/sprites/pavers_2_0.png",
     "imagewidth": 64,
     "imageheight": 64
    },
    {
     "id": 23,
     "image": "../assets/sprites/pavers_2_1.png",
     "imagewidth": 64,
     "imageheight": 64
    },
    {
     "id": 24,
     "image": "../assets/sprites/pavers_2_2.png",
     "imagewidth": 64,
     "imageheight": 64
    },
    {
     "id": 25,
     "image": "../assets/sprites/red-lanterns_4_1.png",
     "imagewidth": 64,
     "imageheight": 64
    },
    {
     "id": 26,
     "image": "../assets/sprites/red-lanterns_6_3.png",
     "imagewidth": 64,
     "imageheight": 64
    },
    {
     "id": 27,
     "image": "../assets/sprites/red-vending-machine-bottom_0_0.png",
     "imagewidth": 64,
     "imageheight": 64
    },
    {
     "id": 28,
     "image": "../assets/sprites/red-vending-machine-top_0_0.png",
     "imagewidth": 64,
     "imageheight": 64
    },
    {
     "id": 29,
     "image": "../assets/sprites/train-track_0_0.png",
     "imagewidth": 64,
     "imageheight": 64
    },
    {
     "id": 30,
     "image": "../assets/sprites/white-vending-machine-bottom_0_0.png",
     "imagewidth": 64,
     "imageheight": 64
    },
    {
     "id": 31,
     "image": "../assets/sprites/white-vending-machine-top_0_0.png",
     "imagewidth": 64,
     "imageheight": 64
    }
   ],
   "wangsets": [
    {
     "name": "gravel-autotile",
     "type": "mixed",
     "tile": -1,
     "colors": [
      {
       "name": "gravel-autotile",
       "tile": -1,
       "probability": 1,
       "color": "#a1c42a"
      }
     ],
     "wangtiles": [
      {
       "tileid": 4,
       "wangid": [
        0,
        0,
        0,
        0,
        1,
        1,
        1,
        0
       ]
      },
      {
       "tileid": 5,
       "wangid": [
        0,
        0,
        1,
        1,
        1,
        0,
        0,
        0
       ]
      },
      {
       "tileid": 6,
       "wangid": [
        1,
        0,
        0,
        0,
        0,
        0,
        1,
        1
       ]
      },
      {
       "tileid": 7,
       "wangid": [
        1,
        1,
        1,
        0,
        0,
        0,
        0,
        0
       ]
      },
      {
       "tileid": 8,
       "wangid": [
        0,
        0,
        1,
        1,
        1,
        1,
        1,
        0
       ]
      },
      {
       "tileid": 9,
       "wangid": [
        1,
        1,
        1,
        0,
        0,
        0,
        1,
        1
       ]
      }
     ]
    },
    {
     "name": "light-concrete-autotile",
     "type": "mixed",
     "tile": -1,
     "colors": [
      {
       "name": "light-concrete-autotile",
       "tile": -1,
       "probability": 1,
       "color": "#e8cc37"
      }
     ],
     "wangtiles": [
      {
       "tileid": 10,
       "wangid": [
        1,
        1,
        1,
        1,
        1,
        1,
        1,
        1
       ]
      },
      {
       "tileid": 11,
       "wangid": [
        0,
        0,
        0,
        0,
        1,
        1,
        1,
        0
       ]
      },
      {
       "tileid": 12,
       "wangid": [
        0,
        0,
        1,
        1,
        1,
        0,
        0,
        0
       ]
      },
      {
       "tileid": 13,
       "wangid": [
        1,
        0,
        0,
        0,
        0,
        0,
        1,
        1
       ]
      },
      {
       "tileid": 14,
       "wangid": [
        1,
        1,
        1,
        0,
        0,
        0,
        0,
        0
       ]
      },
      {
       "tileid": 15,
       "wangid": [
        1,
        0,
        0,
        0,
        1,
        1,
        1,
        1
       ]
      },
      {
       "tileid": 16,
       "wangid": [
        0,
        0,
        1,
        1,
        1,
        1,
        1,
        0
       ]
      },
      {
       "tileid": 17,
       "wangid": [
        1,
        1,
        1,
        0,
        0,
        0,
        1,
        1
       ]
      },
      {
       "tileid": 18,
       "wangid": [
        1,
        1,
        1,
        1,
        1,
        0,
        0,
        0
       ]
      }
     ]
    }
   ]
  }
 ],
 "layers": [
  {
   "type": "tilelayer",
   "id": 1,
   "name": "Floor",
   "width": 24,
   "height": 15,
   "x": 0,
   "y": 0,
   "opacity": 1,
   "visible": true,
   "data": [
    13,
    17,
    17,
    17,
    17,
    17,
    17,
    17,
    17,
    17,
    17,
    17,
    17,
    17,
    17,
    17,
    17,
    17,
    17,
    17,
    17,
    17,
    17,
    12,
    19,
    11,
    11,
    11,
    11,
    11,
    11,
    11,
    11,
    11,
    11,
    11,
    11,
    11,
    11,
    11,
    11,
    11,
    11,
    11,
    11,
    11,
    11,
    16,
    6,
    9,
    9,
    9,
    9,
    9,
    9,
    9,
    9,
    9,
    9,
    9,
    9,
    9,
    9,
    9,
    9,
    9,
    9,
    9,
    9,
    9,
    9,
    5,
    8,
    10,
    10,
    10,
    10,
    10,
    10,
    10,
    10,
    10,
    10,
    10,
    10,
    10,
    10,
    10,
    10,
    10,
    10,
    10,
    10,
    10,
    10,
    7,
    19,
    11,
    11,
    11,
    11,
    11,
    11,
    11,
    11,
    11,
    11,
    11,
    11,
    11,
    11,
    11,
    11,
    11,
    11,
    11,
    11,
    11,
    11,
    16,
    19,
    11,
    11,
    11,
    11,
    11,
    11,
    11,
    11,
    11,
    11,
    11,
    11,
    11,
    11,
    11,
    11,
    11,
    11,
    11,
    11,
    11,
    11,
    16,
    19,
    11,
    11,
    11,
    11,
    11,
    11,
    11,
    11,
    11,
    11,
    11,
    11,
    11,
    11,
    11,
    11,
    11,
    11,
    11,
    11,
    11,
    11,
    16,
    19,
    11,
    11,
    11,
    11,
    11,
    11,
    11,
    11,
    11,
    11,
    11,
    11,
    11,
    11,
    11,
    11,
    11,
    11,
    11,
    11,
    11,
    11,
    16,
    19,
    11,
    11,
    11,
    11,
    11,
    11,
    11,
    11,
    11,
    11,
    11,
    11,
    11,
    11,
    11,
    11,
    11,
    11,
    11,
    11,
    11,
    11,
    16,
    19,
    11,
    11,
    11,
    11,
    11,
    11,
    11,
    11,
    11,
    11,
    11,
    11,
    11,
    11,
    11,
    11,
    11,
    11,
    11,
    11,
    11,
    11,
    16,
    19,
    11,
    11,
    11,
    11,
    11,
    11,
    11,
    11,
    11,
    11,
    11,
    11,
    11,
    11,
    11,
    11,
    11,
    11,
    11,
    11,
    11,
    11,
    16,
    19,
    11,
    11,
    11,
    11,
    11,
    11,
    11,
    11,
    11,
    11,
    11,
    11,
    11,
    11,
    11,
    11,
    11,
    11,
    11,
    11,
    11,
    11,
    16,
    19,
    11,
    11,
    11,
    11,
    11,
    11,
    11,
    11,
    11,
    11,
    11,
    11,
    11,
    11,
    11,
    11,
    11,
    11,
    11,
    11,
    11,
    11,
    16,
    19,
    11,
    11,
    11,
    11,
    11,
    11,
    11,
    11,
    11,
    11,
    11,
    11,
    11,
    11,
    11,
    11,
    11,
    11,
    11,
    11,
    11,
    11,
    16,
    15,
    18,
    18,
    18,
    18,
    18,
    18,
    18,
    18,
    18,
    18,
    18,
    18,
    18,
    18,
    18,
    18,
    18,
    18,
    18,
    18,
    18,
    18,
    14
   ],
   "properties": [
    {
     "name": "gv2layer",
     "type": "string",
     "value": "Floor"
    },
    {
     "name": "z",
     "type": "int",
     "value": 0
    },
    {
     "name": "collision",
     "type": "bool",
     "value": false
    }
   ]
  },
  {
   "type": "tilelayer",
   "id": 2,
   "name": "Over Floor",
   "width": 24,
   "height": 15,
   "x": 0,
   "y": 0,
   "opacity": 1,
   "visible": true,
   "data": [
    0,
    0,
    0,
    0,
    0,
    0,
    0,
    0,
    0,
    0,
    0,
    0,
    0,
    0,
    0,
    0,
    0,
    0,
    0,
    0,
    0,
    0,
    0,
    0,
    0,
    0,
    0,
    0,
    0,
    0,
    0,
    0,
    0,
    0,
    0,
    0,
    0,
    0,
    0,
    0,
    0,
    0,
    0,
    0,
    0,
    0,
    0,
    0,
    30,
    30,
    30,
    30,
    30,
    30,
    30,
    30,
    30,
    30,
    30,
    30,
    30,
    30,
    30,
    30,
    30,
    30,
    30,
    30,
    30,
    30,
    30,
    30,
    30,
    30,
    30,
    30,
    30,
    30,
    30,
    30,
    30,
    30,
    30,
    30,
    30,
    30,
    30,
    30,
    30,
    30,
    30,
    30,
    30,
    30,
    30,
    30,
    0,
    0,
    0,
    0,
    0,
    0,
    0,
    0,
    0,
    0,
    0,
    0,
    0,
    0,
    0,
    0,
    0,
    0,
    0,
    0,
    0,
    0,
    0,
    0,
    0,
    0,
    0,
    0,
    0,
    0,
    0,
    0,
    0,
    0,
    0,
    0,
    0,
    0,
    0,
    0,
    0,
    0,
    0,
    0,
    0,
    0,
    0,
    0,
    0,
    0,
    0,
    0,
    0,
    0,
    0,
    0,
    0,
    0,
    0,
    0,
    0,
    0,
    0,
    0,
    0,
    0,
    0,
    0,
    0,
    0,
    0,
    0,
    0,
    0,
    0,
    0,
    0,
    0,
    0,
    21,
    0,
    0,
    0,
    0,
    0,
    0,
    0,
    0,
    23,
    0,
    0,
    0,
    0,
    0,
    0,
    0,
    0,
    0,
    0,
    0,
    0,
    0,
    0,
    0,
    0,
    0,
    0,
    0,
    0,
    0,
    0,
    0,
    0,
    0,
    0,
    0,
    0,
    0,
    0,
    0,
    0,
    0,
    0,
    0,
    0,
    0,
    0,
    0,
    0,
    0,
    0,
    0,
    0,
    0,
    0,
    0,
    0,
    0,
    0,
    0,
    0,
    0,
    0,
    0,
    0,
    0,
    0,
    0,
    0,
    0,
    0,
    0,
    0,
    0,
    22,
    0,
    0,
    24,
    0,
    0,
    0,
    0,
    0,
    0,
    0,
    0,
    0,
    0,
    0,
    0,
    0,
    0,
    0,
    0,
    0,
    0,
    0,
    0,
    0,
    0,
    0,
    0,
    0,
    0,
    0,
    0,
    0,
    0,
    0,
    0,
    0,
    0,
    0,
    0,
    0,
    0,
    0,
    20,
    0,
    0,
    0,
    21,
    0,
    0,
    0,
    0,
    23,
    0,
    0,
    0,
    25,
    0,
    0,
    0,
    0,
    0,
    0,
    0,
    0,
    0,
    0,
    0,
    0,
    0,
    0,
    0,
    0,
    0,
    0,
    0,
    0,
    0,
    0,
    0,
    0,
    0,
    0,
    0,
    0,
    0,
    0,
    0,
    0,
    0,
    0,
    0,
    0,
    0,
    0,
    0,
    0,
    21,
    23,
    0,
    0,
    0,
    0,
    0,
    0,
    0,
    0,
    0,
    0,
    0
   ],
   "properties": [
    {
     "name": "gv2layer",
     "type": "string",
     "value": "Over Floor"
    },
    {
     "name": "z",
     "type": "int",
     "value": 1
    },
    {
     "name": "collision",
     "type": "bool",
     "value": false
    }
   ]
  },
  {
   "type": "tilelayer",
   "id": 3,
   "name": "Collidables",
   "width": 24,
   "height": 15,
   "x": 0,
   "y": 0,
   "opacity": 1,
   "visible": true,
   "data": [
    0,
    0,
    0,
    0,
    0,
    0,
    0,
    0,
    0,
    0,
    0,
    0,
    0,
    0,
    0,
    0,
    0,
    0,
    0,
    0,
    0,
    0,
    0,
    0,
    0,
    0,
    0,
    0,
    0,
    0,
    0,
    0,
    0,
    0,
    0,
    0,
    0,
    0,
    0,
    0,
    0,
    0,
    0,
    0,
    0,
    0,
    0,
    0,
    0,
    0,
    0,
    0,
    0,
    0,
    0,
    0,
    0,
    0,
    0,
    0,
    0,
    0,
    0,
    0,
    0,
    0,
    0,
    0,
    0,
    0,
    0,
    0,
    0,
    0,
    0,
    0,
    0,
    0,
    0,
    0,
    0,
    0,
    0,
    0,
    0,
    0,
    0,
    0,
    0,
    0,
    0,
    0,
    0,
    0,
    0,
    0,
    0,
    0,
    0,
    0,
    1,
    0,
    0,
    0,
    0,
    0,
    0,
    0,
    0,
    0,
    0,
    0,
    0,
    0,
    0,
    1,
    0,
    0,
    0,
    0,
    0,
    0,
    0,
    0,
    0,
    0,
    0,
    0,
    0,
    0,
    0,
    0,
    0,
    0,
    0,
    0,
    0,
    0,
    0,
    0,
    0,
    0,
    0,
    0,
    0,
    0,
    0,
    0,
    0,
    0,
    0,
    0,
    0,
    0,
    0,
    0,
    0,
    0,
    0,
    0,
    0,
    0,
    0,
    0,
    0,
    0,
    0,
    0,
    0,
    0,
    0,
    0,
    0,
    0,
    0,
    0,
    0,
    0,
    0,
    0,
    0,
    0,
    0,
    0,
    0,
    0,
    0,
    0,
    0,
    0,
    0,
    0,
    0,
    0,
    0,
    0,
    0,
    0,
    0,
    0,
    0,
    0,
    0,
    0,
    0,
    0,
    0,
    0,
    0,
    0,
    0,
    0,
    0,
    0,
    0,
    0,
    0,
    0,
    0,
    0,
    0,
    0,
    0,
    0,
    0,
    0,
    0,
    0,
    0,
    0,
    0,
    0,
    0,
    0,
    0,
    0,
    0,
    0,
    0,
    0,
    0,
    0,
    0,
    0,
    0,
    0,
    0,
    0,
    0,
    0,
    0,
    0,
    0,
    0,
    0,
    0,
    0,
    0,
    0,
    0,
    0,
    0,
    0,
    0,
    0,
    0,
    0,
    0,
    0,
    0,
    26,
    0,
    0,
    0,
    0,
    0,
    0,
    0,
    0,
    0,
    0,
    26,
    0,
    0,
    0,
    0,
    0,
    0,
    0,
    0,
    0,
    0,
    0,
    0,
    0,
    0,
    0,
    0,
    0,
    0,
    0,
    0,
    0,
    0,
    0,
    0,
    0,
    0,
    0,
    0,
    0,
    0,
    0,
    0,
    0,
    0,
    0,
    0,
    0,
    0,
    0,
    0,
    0,
    0,
    0,
    0,
    0,
    0,
    0,
    0,
    0,
    0,
    0,
    0,
    0,
    0,
    0,
    0,
    0,
    0,
    0,
    0,
    0,
    0,
    0,
    0,
    0,
    0,
    0,
    0,
    0,
    0,
    0,
    0,
    0,
    0,
    0,
    0,
    0,
    0
   ],
   "properties": [
    {
     "name": "gv2layer",
     "type": "string",
     "value": "Collidables"
    },
    {
     "name": "z",
     "type": "int",
     "value": 5
    },
    {
     "name": "collision",
     "type": "bool",
     "value": false
    }
   ]
  },
  {
   "type": "objectgroup",
   "id": 4,
   "name": "Collidables \u00b7obj",
   "x": 0,
   "y": 0,
   "opacity": 1,
   "visible": true,
   "draworder": "index",
   "objects": [
    {
     "id": 1,
     "gid": 3,
     "name": "castle-wall-siding_0_0",
     "x": 0,
     "y": 0,
     "width": 64,
     "height": 128,
     "visible": true
    },
    {
     "id": 2,
     "gid": 3,
     "name": "castle-wall-siding_0_0",
     "x": 0,
     "y": 832,
     "width": 64,
     "height": 128,
     "visible": true
    },
    {
     "id": 3,
     "gid": 3,
     "name": "castle-wall-siding_0_0",
     "x": 64,
     "y": 0,
     "width": 64,
     "height": 128,
     "visible": true
    },
    {
     "id": 4,
     "gid": 3,
     "name": "castle-wall-siding_0_0",
     "x": 64,
     "y": 832,
     "width": 64,
     "height": 128,
     "visible": true
    },
    {
     "id": 5,
     "gid": 3,
     "name": "castle-wall-siding_0_0",
     "x": 640,
     "y": 0,
     "width": 64,
     "height": 128,
     "visible": true
    },
    {
     "id": 6,
     "gid": 3,
     "name": "castle-wall-siding_0_0",
     "x": 640,
     "y": 832,
     "width": 64,
     "height": 128,
     "visible": true
    },
    {
     "id": 7,
     "gid": 3,
     "name": "castle-wall-siding_0_0",
     "x": 704,
     "y": 0,
     "width": 64,
     "height": 128,
     "visible": true
    },
    {
     "id": 8,
     "gid": 3,
     "name": "castle-wall-siding_0_0",
     "x": 768,
     "y": 0,
     "width": 64,
     "height": 128,
     "visible": true
    },
    {
     "id": 9,
     "gid": 3,
     "name": "castle-wall-siding_0_0",
     "x": 832,
     "y": 0,
     "width": 64,
     "height": 128,
     "visible": true
    },
    {
     "id": 10,
     "gid": 3,
     "name": "castle-wall-siding_0_0",
     "x": 832,
     "y": 832,
     "width": 64,
     "height": 128,
     "visible": true
    },
    {
     "id": 11,
     "gid": 3,
     "name": "castle-wall-siding_0_0",
     "x": 896,
     "y": 0,
     "width": 64,
     "height": 128,
     "visible": true
    },
    {
     "id": 12,
     "gid": 3,
     "name": "castle-wall-siding_0_0",
     "x": 896,
     "y": 832,
     "width": 64,
     "height": 128,
     "visible": true
    },
    {
     "id": 13,
     "gid": 3,
     "name": "castle-wall-siding_0_0",
     "x": 960,
     "y": 0,
     "width": 64,
     "height": 128,
     "visible": true
    },
    {
     "id": 14,
     "gid": 3,
     "name": "castle-wall-siding_0_0",
     "x": 960,
     "y": 832,
     "width": 64,
     "height": 128,
     "visible": true
    },
    {
     "id": 15,
     "gid": 3,
     "name": "castle-wall-siding_0_0",
     "x": 1024,
     "y": 0,
     "width": 64,
     "height": 128,
     "visible": true
    },
    {
     "id": 16,
     "gid": 3,
     "name": "castle-wall-siding_0_0",
     "x": 1024,
     "y": 832,
     "width": 64,
     "height": 128,
     "visible": true
    },
    {
     "id": 17,
     "gid": 3,
     "name": "castle-wall-siding_0_0",
     "x": 1088,
     "y": 0,
     "width": 64,
     "height": 128,
     "visible": true
    },
    {
     "id": 18,
     "gid": 3,
     "name": "castle-wall-siding_0_0",
     "x": 1088,
     "y": 832,
     "width": 64,
     "height": 128,
     "visible": true
    },
    {
     "id": 19,
     "gid": 3,
     "name": "castle-wall-siding_0_0",
     "x": 1152,
     "y": 0,
     "width": 64,
     "height": 128,
     "visible": true
    },
    {
     "id": 20,
     "gid": 3,
     "name": "castle-wall-siding_0_0",
     "x": 1152,
     "y": 832,
     "width": 64,
     "height": 128,
     "visible": true
    },
    {
     "id": 21,
     "gid": 3,
     "name": "castle-wall-siding_0_0",
     "x": 1216,
     "y": 0,
     "width": 64,
     "height": 128,
     "visible": true
    },
    {
     "id": 22,
     "gid": 3,
     "name": "castle-wall-siding_0_0",
     "x": 1216,
     "y": 832,
     "width": 64,
     "height": 128,
     "visible": true
    },
    {
     "id": 23,
     "gid": 3,
     "name": "castle-wall-siding_0_0",
     "x": 128,
     "y": 0,
     "width": 64,
     "height": 128,
     "visible": true
    },
    {
     "id": 24,
     "gid": 3,
     "name": "castle-wall-siding_0_0",
     "x": 128,
     "y": 832,
     "width": 64,
     "height": 128,
     "visible": true
    },
    {
     "id": 25,
     "gid": 2,
     "name": "blue-shrine-platform-base_0_0",
     "x": 128,
     "y": 576,
     "width": 128,
     "height": 128,
     "visible": true
    },
    {
     "id": 26,
     "gid": 3,
     "name": "castle-wall-siding_0_0",
     "x": 1280,
     "y": 0,
     "width": 64,
     "height": 128,
     "visible": true
    },
    {
     "id": 27,
     "gid": 3,
     "name": "castle-wall-siding_0_0",
     "x": 1280,
     "y": 832,
     "width": 64,
     "height": 128,
     "visible": true
    },
    {
     "id": 28,
     "gid": 3,
     "name": "castle-wall-siding_0_0",
     "x": 1344,
     "y": 0,
     "width": 64,
     "height": 128,
     "visible": true
    },
    {
     "id": 29,
     "gid": 3,
     "name": "castle-wall-siding_0_0",
     "x": 1344,
     "y": 832,
     "width": 64,
     "height": 128,
     "visible": true
    },
    {
     "id": 30,
     "gid": 3,
     "name": "castle-wall-siding_0_0",
     "x": 1408,
     "y": 0,
     "width": 64,
     "height": 128,
     "visible": true
    },
    {
     "id": 31,
     "gid": 3,
     "name": "castle-wall-siding_0_0",
     "x": 1408,
     "y": 832,
     "width": 64,
     "height": 128,
     "visible": true
    },
    {
     "id": 32,
     "gid": 3,
     "name": "castle-wall-siding_0_0",
     "x": 1472,
     "y": 0,
     "width": 64,
     "height": 128,
     "visible": true
    },
    {
     "id": 33,
     "gid": 3,
     "name": "castle-wall-siding_0_0",
     "x": 1472,
     "y": 832,
     "width": 64,
     "height": 128,
     "visible": true
    },
    {
     "id": 34,
     "gid": 3,
     "name": "castle-wall-siding_0_0",
     "x": 192,
     "y": 0,
     "width": 64,
     "height": 128,
     "visible": true
    },
    {
     "id": 35,
     "gid": 3,
     "name": "castle-wall-siding_0_0",
     "x": 192,
     "y": 832,
     "width": 64,
     "height": 128,
     "visible": true
    },
    {
     "id": 36,
     "gid": 3,
     "name": "castle-wall-siding_0_0",
     "x": 256,
     "y": 0,
     "width": 64,
     "height": 128,
     "visible": true
    },
    {
     "id": 37,
     "gid": 3,
     "name": "castle-wall-siding_0_0",
     "x": 256,
     "y": 832,
     "width": 64,
     "height": 128,
     "visible": true
    },
    {
     "id": 38,
     "gid": 3,
     "name": "castle-wall-siding_0_0",
     "x": 320,
     "y": 0,
     "width": 64,
     "height": 128,
     "visible": true
    },
    {
     "id": 39,
     "gid": 3,
     "name": "castle-wall-siding_0_0",
     "x": 320,
     "y": 832,
     "width": 64,
     "height": 128,
     "visible": true
    },
    {
     "id": 40,
     "gid": 3,
     "name": "castle-wall-siding_0_0",
     "x": 384,
     "y": 0,
     "width": 64,
     "height": 128,
     "visible": true
    },
    {
     "id": 41,
     "gid": 3,
     "name": "castle-wall-siding_0_0",
     "x": 384,
     "y": 832,
     "width": 64,
     "height": 128,
     "visible": true
    },
    {
     "id": 42,
     "gid": 3,
     "name": "castle-wall-siding_0_0",
     "x": 448,
     "y": 0,
     "width": 64,
     "height": 128,
     "visible": true
    },
    {
     "id": 43,
     "gid": 3,
     "name": "castle-wall-siding_0_0",
     "x": 448,
     "y": 832,
     "width": 64,
     "height": 128,
     "visible": true
    },
    {
     "id": 44,
     "gid": 3,
     "name": "castle-wall-siding_0_0",
     "x": 512,
     "y": 0,
     "width": 64,
     "height": 128,
     "visible": true
    },
    {
     "id": 45,
     "gid": 3,
     "name": "castle-wall-siding_0_0",
     "x": 512,
     "y": 832,
     "width": 64,
     "height": 128,
     "visible": true
    },
    {
     "id": 46,
     "gid": 3,
     "name": "castle-wall-siding_0_0",
     "x": 576,
     "y": 0,
     "width": 64,
     "height": 128,
     "visible": true
    },
    {
     "id": 47,
     "gid": 3,
     "name": "castle-wall-siding_0_0",
     "x": 576,
     "y": 832,
     "width": 64,
     "height": 128,
     "visible": true
    }
   ],
   "properties": [
    {
     "name": "gv2layer",
     "type": "string",
     "value": "Collidables"
    },
    {
     "name": "z",
     "type": "int",
     "value": 5
    },
    {
     "name": "collision",
     "type": "bool",
     "value": false
    }
   ]
  },
  {
   "type": "tilelayer",
   "id": 5,
   "name": "Other",
   "width": 24,
   "height": 15,
   "x": 0,
   "y": 0,
   "opacity": 1,
   "visible": true,
   "data": [
    0,
    0,
    0,
    0,
    0,
    0,
    0,
    0,
    0,
    0,
    0,
    0,
    0,
    0,
    0,
    0,
    0,
    0,
    0,
    0,
    0,
    0,
    0,
    0,
    0,
    0,
    0,
    0,
    0,
    0,
    0,
    0,
    0,
    0,
    0,
    0,
    0,
    0,
    0,
    0,
    0,
    0,
    0,
    0,
    0,
    0,
    0,
    0,
    0,
    0,
    0,
    0,
    0,
    0,
    0,
    0,
    0,
    0,
    0,
    0,
    0,
    0,
    0,
    0,
    0,
    0,
    0,
    0,
    0,
    0,
    0,
    0,
    0,
    0,
    0,
    0,
    0,
    0,
    0,
    0,
    0,
    0,
    0,
    0,
    0,
    0,
    0,
    0,
    0,
    0,
    0,
    0,
    0,
    0,
    0,
    0,
    0,
    0,
    0,
    0,
    0,
    0,
    0,
    0,
    0,
    0,
    0,
    0,
    0,
    0,
    0,
    0,
    0,
    0,
    0,
    0,
    0,
    0,
    0,
    0,
    0,
    0,
    0,
    0,
    0,
    0,
    0,
    0,
    0,
    0,
    0,
    0,
    0,
    0,
    0,
    0,
    0,
    0,
    0,
    0,
    0,
    0,
    0,
    0,
    0,
    0,
    32,
    0,
    0,
    0,
    0,
    0,
    0,
    0,
    0,
    0,
    0,
    0,
    0,
    0,
    0,
    0,
    0,
    0,
    0,
    29,
    0,
    0,
    0,
    0,
    31,
    0,
    0,
    0,
    0,
    0,
    0,
    0,
    0,
    0,
    0,
    0,
    0,
    0,
    0,
    0,
    0,
    0,
    0,
    28,
    0,
    0,
    0,
    0,
    0,
    0,
    0,
    0,
    0,
    0,
    0,
    0,
    0,
    0,
    0,
    0,
    0,
    0,
    0,
    0,
    0,
    0,
    0,
    0,
    0,
    0,
    0,
    0,
    0,
    0,
    0,
    0,
    0,
    0,
    0,
    0,
    0,
    0,
    0,
    0,
    0,
    0,
    0,
    0,
    0,
    0,
    0,
    0,
    0,
    0,
    0,
    0,
    0,
    0,
    0,
    0,
    0,
    0,
    0,
    0,
    0,
    0,
    0,
    0,
    0,
    0,
    0,
    0,
    0,
    0,
    0,
    0,
    0,
    0,
    0,
    0,
    0,
    0,
    0,
    0,
    0,
    0,
    0,
    0,
    0,
    0,
    0,
    0,
    0,
    0,
    0,
    0,
    0,
    0,
    0,
    0,
    0,
    0,
    0,
    0,
    0,
    0,
    0,
    0,
    0,
    0,
    0,
    0,
    0,
    0,
    0,
    0,
    0,
    0,
    0,
    0,
    0,
    0,
    0,
    0,
    0,
    0,
    0,
    0,
    0,
    0,
    0,
    0,
    0,
    0,
    0,
    0,
    0,
    0,
    0,
    0,
    0,
    0,
    0,
    0,
    0,
    0,
    0,
    0,
    0,
    0,
    0,
    0,
    0,
    0,
    0,
    0,
    0,
    0,
    0,
    0,
    0,
    0,
    0,
    0,
    0,
    0,
    0,
    0,
    0,
    0,
    0,
    0,
    0,
    0
   ],
   "properties": [
    {
     "name": "gv2layer",
     "type": "string",
     "value": "Other"
    },
    {
     "name": "z",
     "type": "int",
     "value": 6
    },
    {
     "name": "collision",
     "type": "bool",
     "value": false
    }
   ]
  },
  {
   "type": "tilelayer",
   "id": 6,
   "name": "Tops",
   "width": 24,
   "height": 15,
   "x": 0,
   "y": 0,
   "opacity": 1,
   "visible": true,
   "data": [
    0,
    0,
    0,
    0,
    0,
    0,
    0,
    0,
    0,
    0,
    0,
    0,
    0,
    0,
    0,
    0,
    0,
    0,
    0,
    0,
    0,
    0,
    0,
    0,
    0,
    0,
    0,
    0,
    0,
    0,
    0,
    0,
    0,
    0,
    0,
    0,
    0,
    0,
    0,
    0,
    0,
    0,
    0,
    0,
    0,
    0,
    0,
    0,
    0,
    0,
    0,
    0,
    0,
    0,
    0,
    0,
    0,
    0,
    0,
    0,
    0,
    0,
    0,
    0,
    0,
    0,
    0,
    0,
    0,
    0,
    0,
    0,
    0,
    0,
    0,
    0,
    0,
    0,
    0,
    0,
    0,
    0,
    0,
    0,
    0,
    0,
    0,
    0,
    0,
    0,
    0,
    0,
    0,
    0,
    0,
    0,
    0,
    0,
    0,
    0,
    0,
    0,
    0,
    0,
    0,
    0,
    0,
    0,
    0,
    0,
    0,
    0,
    0,
    0,
    0,
    0,
    0,
    0,
    0,
    0,
    0,
    0,
    0,
    0,
    0,
    0,
    0,
    0,
    0,
    0,
    0,
    0,
    0,
    0,
    0,
    0,
    0,
    0,
    0,
    0,
    0,
    0,
    0,
    0,
    0,
    0,
    0,
    0,
    0,
    0,
    0,
    0,
    0,
    0,
    0,
    0,
    0,
    0,
    0,
    0,
    0,
    0,
    0,
    0,
    0,
    0,
    0,
    0,
    0,
    0,
    0,
    0,
    0,
    0,
    0,
    0,
    0,
    0,
    0,
    0,
    0,
    0,
    0,
    0,
    0,
    0,
    0,
    0,
    0,
    0,
    0,
    0,
    0,
    0,
    0,
    0,
    0,
    0,
    0,
    0,
    0,
    0,
    0,
    0,
    0,
    0,
    0,
    0,
    0,
    0,
    0,
    0,
    0,
    0,
    0,
    0,
    0,
    0,
    0,
    0,
    0,
    0,
    0,
    0,
    0,
    0,
    0,
    0,
    0,
    0,
    0,
    0,
    0,
    0,
    0,
    0,
    0,
    0,
    0,
    0,
    0,
    0,
    0,
    0,
    0,
    0,
    27,
    0,
    0,
    0,
    0,
    0,
    0,
    0,
    0,
    0,
    0,
    27,
    0,
    0,
    0,
    0,
    0,
    0,
    0,
    0,
    0,
    0,
    0,
    0,
    0,
    0,
    0,
    0,
    0,
    0,
    0,
    0,
    0,
    0,
    0,
    0,
    0,
    0,
    0,
    0,
    0,
    0,
    0,
    0,
    0,
    0,
    0,
    0,
    0,
    0,
    0,
    0,
    0,
    0,
    0,
    0,
    0,
    0,
    0,
    0,
    0,
    0,
    0,
    0,
    0,
    0,
    0,
    0,
    0,
    0,
    0,
    0,
    0,
    0,
    0,
    0,
    0,
    0,
    0,
    0,
    0,
    0,
    0,
    0,
    0,
    0,
    0,
    0,
    0,
    0,
    0,
    0,
    0,
    0,
    0,
    0,
    0,
    0,
    0,
    0,
    0,
    0,
    0,
    0,
    0,
    0,
    0,
    0,
    0,
    0,
    0,
    0,
    0,
    0
   ],
   "properties": [
    {
     "name": "gv2layer",
     "type": "string",
     "value": "Tops"
    },
    {
     "name": "z",
     "type": "int",
     "value": 7
    },
    {
     "name": "collision",
     "type": "bool",
     "value": false
    }
   ]
  },
  {
   "type": "tilelayer",
   "id": 7,
   "name": "Colliders",
   "width": 24,
   "height": 15,
   "x": 0,
   "y": 0,
   "opacity": 1,
   "visible": true,
   "data": [
    4,
    4,
    4,
    4,
    4,
    4,
    4,
    4,
    4,
    4,
    4,
    4,
    4,
    4,
    4,
    4,
    4,
    4,
    4,
    4,
    4,
    4,
    4,
    4,
    4,
    4,
    4,
    4,
    4,
    4,
    4,
    4,
    4,
    4,
    4,
    4,
    4,
    4,
    4,
    4,
    4,
    4,
    4,
    4,
    4,
    4,
    4,
    4,
    4,
    4,
    4,
    4,
    4,
    4,
    4,
    4,
    4,
    4,
    4,
    4,
    4,
    4,
    4,
    4,
    4,
    4,
    4,
    4,
    4,
    4,
    4,
    4,
    4,
    4,
    4,
    4,
    4,
    4,
    4,
    4,
    0,
    4,
    4,
    4,
    4,
    4,
    4,
    0,
    4,
    4,
    4,
    4,
    4,
    4,
    4,
    4,
    0,
    0,
    0,
    0,
    4,
    0,
    0,
    0,
    0,
    0,
    0,
    0,
    0,
    0,
    0,
    0,
    0,
    0,
    0,
    4,
    0,
    0,
    0,
    0,
    0,
    0,
    0,
    0,
    0,
    0,
    0,
    0,
    0,
    0,
    0,
    0,
    0,
    0,
    0,
    0,
    0,
    0,
    0,
    0,
    0,
    0,
    0,
    0,
    0,
    0,
    4,
    0,
    0,
    0,
    0,
    0,
    0,
    0,
    0,
    0,
    0,
    0,
    0,
    0,
    0,
    0,
    0,
    0,
    0,
    4,
    0,
    0,
    0,
    0,
    0,
    0,
    0,
    0,
    0,
    0,
    0,
    0,
    0,
    0,
    0,
    0,
    0,
    0,
    0,
    0,
    0,
    0,
    0,
    0,
    0,
    0,
    0,
    0,
    0,
    0,
    0,
    0,
    0,
    0,
    0,
    0,
    0,
    0,
    0,
    0,
    0,
    0,
    0,
    0,
    0,
    0,
    0,
    0,
    0,
    0,
    0,
    0,
    4,
    4,
    0,
    0,
    0,
    0,
    0,
    0,
    0,
    0,
    0,
    0,
    0,
    0,
    0,
    0,
    0,
    0,
    0,
    0,
    0,
    0,
    0,
    0,
    4,
    4,
    0,
    0,
    0,
    0,
    0,
    0,
    0,
    0,
    0,
    0,
    0,
    0,
    0,
    0,
    0,
    0,
    0,
    0,
    0,
    0,
    0,
    0,
    0,
    0,
    0,
    0,
    4,
    0,
    0,
    0,
    0,
    0,
    0,
    0,
    0,
    0,
    0,
    4,
    0,
    0,
    0,
    0,
    0,
    0,
    0,
    0,
    0,
    0,
    0,
    0,
    0,
    0,
    0,
    0,
    0,
    0,
    0,
    0,
    0,
    0,
    0,
    0,
    0,
    0,
    0,
    0,
    0,
    0,
    4,
    4,
    4,
    4,
    4,
    4,
    4,
    4,
    4,
    4,
    4,
    0,
    0,
    4,
    4,
    4,
    4,
    4,
    4,
    4,
    4,
    4,
    4,
    4,
    4,
    4,
    4,
    4,
    4,
    4,
    4,
    4,
    4,
    4,
    4,
    0,
    0,
    4,
    4,
    4,
    4,
    4,
    4,
    4,
    4,
    4,
    4,
    4
   ],
   "properties": [
    {
     "name": "gv2layer",
     "type": "string",
     "value": "Colliders"
    },
    {
     "name": "z",
     "type": "int",
     "value": 5
    },
    {
     "name": "collision",
     "type": "bool",
     "value": true
    }
   ]
  },
  {
   "type": "objectgroup",
   "id": 8,
   "name": "Meta",
   "x": 0,
   "y": 0,
   "opacity": 1,
   "visible": true,
   "draworder": "index",
   "objects": [
    {
     "id": 48,
     "name": "transporter",
     "point": true,
     "x": 736.0,
     "y": 928.0,
     "width": 0,
     "height": 0,
     "visible": true,
     "properties": [
      {
       "name": "kind",
       "type": "string",
       "value": "transporter"
      },
      {
       "name": "targetRoom",
       "type": "string",
       "value": "Inaka"
      },
      {
       "name": "targetX",
       "type": "int",
       "value": 29
      },
      {
       "name": "targetY",
       "type": "int",
       "value": 10
      },
      {
       "name": "hidden",
       "type": "bool",
       "value": true
      }
     ]
    },
    {
     "id": 49,
     "name": "transporter",
     "point": true,
     "x": 800.0,
     "y": 928.0,
     "width": 0,
     "height": 0,
     "visible": true,
     "properties": [
      {
       "name": "kind",
       "type": "string",
       "value": "transporter"
      },
      {
       "name": "targetRoom",
       "type": "string",
       "value": "Inaka"
      },
      {
       "name": "targetX",
       "type": "int",
       "value": 29
      },
      {
       "name": "targetY",
       "type": "int",
       "value": 10
      },
      {
       "name": "hidden",
       "type": "bool",
       "value": true
      }
     ]
    },
    {
     "id": 50,
     "name": "boundary",
     "x": 0,
     "y": 0,
     "polygon": [
      {
       "x": 0,
       "y": 0
      },
      {
       "x": 1536,
       "y": 0
      },
      {
       "x": 1536,
       "y": 960
      },
      {
       "x": 0,
       "y": 960
      }
     ],
     "width": 0,
     "height": 0,
     "visible": true,
     "properties": [
      {
       "name": "kind",
       "type": "string",
       "value": "boundary"
      }
     ]
    }
   ],
   "properties": [
    {
     "name": "gv2meta",
     "type": "bool",
     "value": true
    }
   ]
  }
 ]
}