{
 "type": "map",
 "version": "1.10",
 "tiledversion": "1.11.0",
 "orientation": "orthogonal",
 "renderorder": "right-down",
 "width": 20,
 "height": 15,
 "tilewidth": 64,
 "tileheight": 64,
 "infinite": false,
 "nextlayerid": 9,
 "nextobjectid": 5,
 "properties": [
  {
   "name": "gv2room",
   "type": "string",
   "value": "KonbiniMarket6"
  },
  {
   "name": "gv2worldWidth",
   "type": "int",
   "value": 1280
  },
  {
   "name": "gv2worldHeight",
   "type": "int",
   "value": 960
  }
 ],
 "tilesets": [
  {
   "firstgid": 1,
   "name": "gamev2",
   "tilewidth": 64,
   "tileheight": 64,
   "tilecount": 14,
   "columns": 0,
   "objectalignment": "topleft",
   "grid": {
    "orientation": "orthogonal",
    "width": 64,
    "height": 64
   },
   "tiles": [
    {
     "id": 0,
     "image": "../assets/sprites/collider-marker.png",
     "imagewidth": 64,
     "imageheight": 64
    },
    {
     "id": 1,
     "image": "../assets/sprites/office-cabinet_0_0.png",
     "imagewidth": 64,
     "imageheight": 64
    },
    {
     "id": 2,
     "image": "../assets/sprites/office-clock_0_0.png",
     "imagewidth": 64,
     "imageheight": 64
    },
    {
     "id": 3,
     "image": "../assets/sprites/office-counter2_0_0.png",
     "imagewidth": 128,
     "imageheight": 64
    },
    {
     "id": 4,
     "image": "../assets/sprites/office-plant-a_0_0.png",
     "imagewidth": 64,
     "imageheight": 64
    },
    {
     "id": 5,
     "image": "../assets/sprites/office-poster-chart_0_0.png",
     "imagewidth": 64,
     "imageheight": 64
    },
    {
     "id": 6,
     "image": "../assets/sprites/office-poster-menu_0_0.png",
     "imagewidth": 64,
     "imageheight": 64
    },
    {
     "id": 7,
     "image": "../assets/sprites/office-register_0_0.png",
     "imagewidth": 64,
     "imageheight": 64
    },
    {
     "id": 8,
     "image": "../assets/sprites/office-shelf-drinks_0_0.png",
     "imagewidth": 64,
     "imageheight": 64
    },
    {
     "id": 9,
     "image": "../assets/sprites/office-void-autotile_center.png",
     "imagewidth": 64,
     "imageheight": 64
    },
    {
     "id": 10,
     "image": "../assets/sprites/office-wall-white_0_0.png",
     "imagewidth": 64,
     "imageheight": 64
    },
    {
     "id": 11,
     "image": "../assets/sprites/office-warm-autotile_center.png",
     "imagewidth": 64,
     "imageheight": 64
    },
    {
     "id": 12,
     "image": "../assets/sprites/pavers_1_0.png",
     "imagewidth": 64,
     "imageheight": 64
    },
    {
     "id": 13,
     "image": "../assets/sprites/pavers_2_0.png",
     "imagewidth": 64,
     "imageheight": 64
    }
   ],
   "wangsets": [
    {
     "name": "office-void-autotile",
     "type": "mixed",
     "tile": -1,
     "colors": [
      {
       "name": "office-void-autotile",
       "tile": -1,
       "probability": 1,
       "color": "#9d47d9"
      }
     ],
     "wangtiles": [
      {
       "tileid": 9,
       "wangid": [
        1,
        1,
        1,
        1,
        1,
        1,
        1,
        1
       ]
      }
     ]
    },
    {
     "name": "office-warm-autotile",
     "type": "mixed",
     "tile": -1,
     "colors": [
      {
       "name": "office-warm-autotile",
       "tile": -1,
       "probability": 1,
       "color": "#1da5cf"
      }
     ],
     "wangtiles": [
      {
       "tileid": 11,
       "wangid": [
        1,
        1,
        1,
        1,
        1,
        1,
        1,
        1
       ]
      }
     ]
    }
   ]
  }
 ],
 "layers": [
  {
   "type": "tilelayer",
   "id": 1,
   "name": "Floor",
   "width": 20,
   "height": 15,
   "x": 0,
   "y": 0,
   "opacity": 1,
   "visible": true,
   "data": [
    10,
    10,
    10,
    10,
    10,
    10,
    10,
    10,
    10,
    10,
    10,
    10,
    10,
    10,
    10,
    10,
    10,
    10,
    10,
    10,
    10,
    10,
    10,
    10,
    10,
    10,
    10,
    10,
    10,
    10,
    10,
    10,
    10,
    10,
    10,
    10,
    10,
    10,
    10,
    10,
    10,
    10,
    10,
    10,
    10,
    10,
    10,
    10,
    10,
    10,
    10,
    10,
    10,
    10,
    10,
    10,
    10,
    10,
    10,
    10,
    10,
    10,
    10,
    10,
    10,
    10,
    10,
    10,
    10,
    10,
    10,
    10,
    10,
    10,
    10,
    10,
    10,
    10,
    10,
    10,
    10,
    10,
    10,
    10,
    10,
    12,
    12,
    12,
    12,
    12,
    12,
    12,
    12,
    12,
    10,
    10,
    10,
    10,
    10,
    10,
    10,
    10,
    10,
    10,
    10,
    12,
    12,
    12,
    12,
    12,
    12,
    12,
    12,
    12,
    10,
    10,
    10,
    10,
    10,
    10,
    10,
    10,
    10,
    10,
    10,
    12,
    12,
    12,
    12,
    12,
    12,
    12,
    12,
    12,
    10,
    10,
    10,
    10,
    10,
    10,
    10,
    10,
    10,
    10,
    10,
    12,
    12,
    12,
    12,
    12,
    12,
    12,
    12,
    12,
    10,
    10,
    10,
    10,
    10,
    10,
    10,
    10,
    10,
    10,
    10,
    12,
    12,
    12,
    12,
    12,
    12,
    12,
    12,
    12,
    10,
    10,
    10,
    10,
    10,
    10,
    10,
    10,
    10,
    10,
    10,
    12,
    12,
    12,
    12,
    12,
    12,
    12,
    12,
    12,
    10,
    10,
    10,
    10,
    10,
    10,
    10,
    10,
    10,
    10,
    10,
    10,
    10,
    10,
    12,
    12,
    10,
    10,
    10,
    10,
    10,
    10,
    10,
    10,
    10,
    10,
    10,
    10,
    10,
    10,
    10,
    10,
    10,
    10,
    10,
    10,
    10,
    10,
    10,
    10,
    10,
    10,
    10,
    10,
    10,
    10,
    10,
    10,
    10,
    10,
    10,
    10,
    10,
    10,
    10,
    10,
    10,
    10,
    10,
    10,
    10,
    10,
    10,
    10,
    10,
    10,
    10,
    10,
    10,
    10,
    10,
    10,
    10,
    10,
    10,
    10,
    10,
    10,
    10,
    10,
    10,
    10,
    10,
    10,
    10,
    10,
    10,
    10,
    10,
    10,
    10,
    10,
    10,
    10,
    10,
    10,
    10,
    10,
    10,
    10,
    10,
    10,
    10,
    10,
    10,
    10
   ],
   "properties": [
    {
     "name": "gv2layer",
     "type": "string",
     "value": "Floor"
    },
    {
     "name": "z",
     "type": "int",
     "value": 0
    },
    {
     "name": "collision",
     "type": "bool",
     "value": false
    }
   ]
  },
  {
   "type": "tilelayer",
   "id": 2,
   "name": "Over Floor",
   "width": 20,
   "height": 15,
   "x": 0,
   "y": 0,
   "opacity": 1,
   "visible": true,
   "data": [
    0,
    0,
    0,
    0,
    0,
    0,
    0,
    0,
    0,
    0,
    0,
    0,
    0,
    0,
    0,
    0,
    0,
    0,
    0,
    0,
    0,
    0,
    0,
    0,
    0,
    0,
    0,
    0,
    0,
    0,
    0,
    0,
    0,
    0,
    0,
    0,
    0,
    0,
    0,
    0,
    0,
    0,
    0,
    0,
    0,
    0,
    0,
    0,
    0,
    0,
    0,
    0,
    0,
    0,
    0,
    0,
    0,
    0,
    0,
    0,
    0,
    0,
    0,
    0,
    0,
    0,
    0,
    0,
    0,
    0,
    0,
    0,
    0,
    0,
    0,
    0,
    0,
    0,
    0,
    0,
    0,
    0,
    0,
    0,
    0,
    0,
    0,
    0,
    0,
    0,
    0,
    0,
    0,
    0,
    0,
    0,
    0,
    0,
    0,
    0,
    0,
    0,
    0,
    0,
    0,
    0,
    0,
    0,
    0,
    0,
    0,
    0,
    0,
    0,
    0,
    0,
    0,
    0,
    0,
    0,
    0,
    0,
    0,
    0,
    0,
    0,
    0,
    0,
    0,
    0,
    0,
    0,
    0,
    0,
    0,
    0,
    0,
    0,
    0,
    0,
    0,
    0,
    0,
    0,
    0,
    0,
    0,
    0,
    0,
    0,
    0,
    0,
    0,
    0,
    0,
    0,
    0,
    0,
    0,
    0,
    0,
    0,
    0,
    0,
    0,
    0,
    0,
    0,
    0,
    0,
    0,
    0,
    0,
    0,
    0,
    0,
    0,
    0,
    0,
    0,
    0,
    0,
    0,
    0,
    0,
    0,
    0,
    0,
    0,
    0,
    0,
    0,
    0,
    0,
    0,
    0,
    0,
    0,
    0,
    0,
    0,
    0,
    0,
    0,
    0,
    0,
    0,
    0,
    13,
    14,
    0,
    0,
    0,
    0,
    0,
    0,
    0,
    0,
    0,
    0,
    0,
    0,
    0,
    0,
    0,
    0,
    0,
    0,
    0,
    0,
    0,
    0,
    0,
    0,
    0,
    0,
    0,
    0,
    0,
    0,
    0,
    0,
    0,
    0,
    0,
    0,
    0,
    0,
    0,
    0,
    0,
    0,
    0,
    0,
    0,
    0,
    0,
    0,
    0,
    0,
    0,
    0,
    0,
    0,
    0,
    0,
    0,
    0,
    0,
    0,
    0,
    0,
    0,
    0,
    0,
    0,
    0,
    0,
    0,
    0,
    0,
    0,
    0,
    0,
    0,
    0,
    0,
    0,
    0,
    0,
    0,
    0,
    0,
    0,
    0,
    0,
    0,
    0,
    0,
    0
   ],
   "properties": [
    {
     "name": "gv2layer",
     "type": "string",
     "value": "Over Floor"
    },
    {
     "name": "z",
     "type": "int",
     "value": 1
    },
    {
     "name": "collision",
     "type": "bool",
     "value": false
    }
   ]
  },
  {
   "type": "tilelayer",
   "id": 3,
   "name": "Collidables",
   "width": 20,
   "height": 15,
   "x": 0,
   "y": 0,
   "opacity": 1,
   "visible": true,
   "data": [
    0,
    0,
    0,
    0,
    0,
    0,
    0,
    0,
    0,
    0,
    0,
    0,
    0,
    0,
    0,
    0,
    0,
    0,
    0,
    0,
    0,
    0,
    0,
    0,
    0,
    0,
    0,
    0,
    0,
    0,
    0,
    0,
    0,
    0,
    0,
    0,
    0,
    0,
    0,
    0,
    0,
    0,
    0,
    0,
    0,
    0,
    0,
    0,
    0,
    0,
    0,
    0,
    0,
    0,
    0,
    0,
    0,
    0,
    0,
    0,
    0,
    0,
    0,
    0,
    0,
    11,
    11,
    11,
    11,
    11,
    11,
    11,
    11,
    11,
    0,
    0,
    0,
    0,
    0,
    0,
    0,
    0,
    0,
    0,
    0,
    0,
    0,
    0,
    0,
    0,
    0,
    2,
    2,
    0,
    0,
    0,
    0,
    0,
    0,
    0,
    0,
    0,
    0,
    0,
    0,
    0,
    0,
    0,
    0,
    0,
    0,
    0,
    0,
    0,
    0,
    0,
    0,
    0,
    0,
    0,
    0,
    0,
    0,
    0,
    0,
    0,
    9,
    9,
    9,
    9,
    9,
    9,
    9,
    0,
    0,
    0,
    0,
    0,
    0,
    0,
    0,
    0,
    0,
    0,
    0,
    0,
    0,
    0,
    0,
    0,
    0,
    0,
    0,
    0,
    0,
    0,
    0,
    0,
    0,
    0,
    0,
    0,
    0,
    0,
    0,
    0,
    0,
    0,
    0,
    0,
    0,
    0,
    0,
    0,
    0,
    0,
    0,
    0,
    0,
    0,
    0,
    0,
    0,
    0,
    0,
    5,
    0,
    0,
    0,
    0,
    0,
    0,
    0,
    0,
    0,
    0,
    0,
    0,
    0,
    0,
    0,
    0,
    0,
    0,
    0,
    0,
    0,
    0,
    0,
    0,
    0,
    0,
    0,
    0,
    0,
    0,
    0,
    0,
    0,
    0,
    0,
    0,
    0,
    0,
    0,
    0,
    0,
    0,
    0,
    0,
    0,
    0,
    0,
    0,
    0,
    0,
    0,
    0,
    0,
    0,
    0,
    0,
    0,
    0,
    0,
    0,
    0,
    0,
    0,
    0,
    0,
    0,
    0,
    0,
    0,
    0,
    0,
    0,
    0,
    0,
    0,
    0,
    0,
    0,
    0,
    0,
    0,
    0,
    0,
    0,
    0,
    0,
    0,
    0,
    0,
    0,
    0,
    0,
    0,
    0,
    0,
    0,
    0,
    0,
    0,
    0,
    0,
    0,
    0,
    0,
    0,
    0,
    0,
    0,
    0,
    0,
    0,
    0,
    0,
    0
   ],
   "properties": [
    {
     "name": "gv2layer",
     "type": "string",
     "value": "Collidables"
    },
    {
     "name": "z",
     "type": "int",
     "value": 5
    },
    {
     "name": "collision",
     "type": "bool",
     "value": false
    }
   ]
  },
  {
   "type": "objectgroup",
   "id": 4,
   "name": "Collidables \u00b7obj",
   "x": 0,
   "y": 0,
   "opacity": 1,
   "visible": true,
   "draworder": "index",
   "objects": [
    {
     "id": 1,
     "gid": 4,
     "name": "office-counter2_0_0",
     "x": 768,
     "y": 576,
     "width": 128,
     "height": 64,
     "visible": true
    }
   ],
   "properties": [
    {
     "name": "gv2layer",
     "type": "string",
     "value": "Collidables"
    },
    {
     "name": "z",
     "type": "int",
     "value": 5
    },
    {
     "name": "collision",
     "type": "bool",
     "value": false
    }
   ]
  },
  {
   "type": "tilelayer",
   "id": 5,
   "name": "Other",
   "width": 20,
   "height": 15,
   "x": 0,
   "y": 0,
   "opacity": 1,
   "visible": true,
   "data": [
    0,
    0,
    0,
    0,
    0,
    0,
    0,
    0,
    0,
    0,
    0,
    0,
    0,
    0,
    0,
    0,
    0,
    0,
    0,
    0,
    0,
    0,
    0,
    0,
    0,
    0,
    0,
    0,
    0,
    0,
    0,
    0,
    0,
    0,
    0,
    0,
    0,
    0,
    0,
    0,
    0,
    0,
    0,
    0,
    0,
    0,
    0,
    0,
    0,
    0,
    0,
    0,
    0,
    0,
    0,
    0,
    0,
    0,
    0,
    0,
    0,
    0,
    0,
    0,
    0,
    3,
    6,
    0,
    7,
    0,
    7,
    0,
    0,
    0,
    0,
    0,
    0,
    0,
    0,
    0,
    0,
    0,
    0,
    0,
    0,
    0,
    0,
    0,
    0,
    0,
    0,
    0,
    0,
    0,
    0,
    0,
    0,
    0,
    0,
    0,
    0,
    0,
    0,
    0,
    0,
    0,
    0,
    0,
    0,
    0,
    0,
    0,
    0,
    0,
    0,
    0,
    0,
    0,
    0,
    0,
    0,
    0,
    0,
    0,
    0,
    0,
    0,
    0,
    0,
    0,
    0,
    0,
    0,
    0,
    0,
    0,
    0,
    0,
    0,
    0,
    0,
    0,
    0,
    0,
    0,
    0,
    0,
    0,
    0,
    0,
    0,
    0,
    0,
    0,
    0,
    0,
    0,
    0,
    0,
    0,
    0,
    0,
    0,
    0,
    0,
    0,
    0,
    0,
    0,
    0,
    0,
    0,
    0,
    0,
    0,
    0,
    0,
    0,
    0,
    0,
    0,
    0,
    0,
    0,
    0,
    0,
    0,
    0,
    0,
    0,
    0,
    0,
    0,
    0,
    0,
    0,
    0,
    0,
    0,
    0,
    0,
    0,
    0,
    0,
    0,
    0,
    0,
    0,
    0,
    0,
    0,
    0,
    0,
    0,
    0,
    0,
    0,
    0,
    0,
    0,
    0,
    0,
    0,
    0,
    0,
    0,
    0,
    0,
    0,
    0,
    0,
    0,
    0,
    0,
    0,
    0,
    0,
    0,
    0,
    0,
    0,
    0,
    0,
    0,
    0,
    0,
    0,
    0,
    0,
    0,
    0,
    0,
    0,
    0,
    0,
    0,
    0,
    0,
    0,
    0,
    0,
    0,
    0,
    0,
    0,
    0,
    0,
    0,
    0,
    0,
    0,
    0,
    0,
    0,
    0,
    0,
    0,
    0,
    0,
    0,
    0,
    0,
    0,
    0,
    0,
    0,
    0,
    0,
    0,
    0,
    0,
    0,
    0,
    0,
    0,
    0,
    0,
    0,
    0,
    0
   ],
   "properties": [
    {
     "name": "gv2layer",
     "type": "string",
     "value": "Other"
    },
    {
     "name": "z",
     "type": "int",
     "value": 6
    },
    {
     "name": "collision",
     "type": "bool",
     "value": false
    }
   ]
  },
  {
   "type": "tilelayer",
   "id": 6,
   "name": "Tops",
   "width": 20,
   "height": 15,
   "x": 0,
   "y": 0,
   "opacity": 1,
   "visible": true,
   "data": [
    0,
    0,
    0,
    0,
    0,
    0,
    0,
    0,
    0,
    0,
    0,
    0,
    0,
    0,
    0,
    0,
    0,
    0,
    0,
    0,
    0,
    0,
    0,
    0,
    0,
    0,
    0,
    0,
    0,
    0,
    0,
    0,
    0,
    0,
    0,
    0,
    0,
    0,
    0,
    0,
    0,
    0,
    0,
    0,
    0,
    0,
    0,
    0,
    0,
    0,
    0,
    0,
    0,
    0,
    0,
    0,
    0,
    0,
    0,
    0,
    0,
    0,
    0,
    0,
    0,
    0,
    0,
    0,
    0,
    0,
    0,
    0,
    0,
    0,
    0,
    0,
    0,
    0,
    0,
    0,
    0,
    0,
    0,
    0,
    0,
    0,
    0,
    0,
    0,
    0,
    0,
    0,
    0,
    0,
    0,
    0,
    0,
    0,
    0,
    0,
    0,
    0,
    0,
    0,
    0,
    0,
    0,
    0,
    0,
    0,
    0,
    0,
    0,
    0,
    0,
    0,
    0,
    0,
    0,
    0,
    0,
    0,
    0,
    0,
    0,
    0,
    0,
    0,
    0,
    0,
    0,
    0,
    0,
    0,
    0,
    0,
    0,
    0,
    0,
    0,
    0,
    0,
    0,
    0,
    0,
    0,
    0,
    0,
    0,
    0,
    0,
    0,
    0,
    0,
    0,
    0,
    0,
    0,
    0,
    0,
    0,
    0,
    0,
    0,
    0,
    0,
    0,
    0,
    0,
    0,
    0,
    0,
    0,
    0,
    0,
    0,
    0,
    0,
    0,
    0,
    0,
    0,
    0,
    0,
    0,
    0,
    0,
    0,
    0,
    0,
    0,
    0,
    8,
    0,
    0,
    0,
    0,
    0,
    0,
    0,
    0,
    0,
    0,
    0,
    0,
    0,
    0,
    0,
    0,
    0,
    0,
    0,
    0,
    0,
    0,
    0,
    0,
    0,
    0,
    0,
    0,
    0,
    0,
    0,
    0,
    0,
    0,
    0,
    0,
    0,
    0,
    0,
    0,
    0,
    0,
    0,
    0,
    0,
    0,
    0,
    0,
    0,
    0,
    0,
    0,
    0,
    0,
    0,
    0,
    0,
    0,
    0,
    0,
    0,
    0,
    0,
    0,
    0,
    0,
    0,
    0,
    0,
    0,
    0,
    0,
    0,
    0,
    0,
    0,
    0,
    0,
    0,
    0,
    0,
    0,
    0,
    0,
    0,
    0,
    0,
    0,
    0,
    0,
    0,
    0,
    0,
    0,
    0,
    0,
    0,
    0,
    0,
    0,
    0,
    0,
    0,
    0,
    0,
    0,
    0
   ],
   "properties": [
    {
     "name": "gv2layer",
     "type": "string",
     "value": "Tops"
    },
    {
     "name": "z",
     "type": "int",
     "value": 7
    },
    {
     "name": "collision",
     "type": "bool",
     "value": false
    }
   ]
  },
  {
   "type": "tilelayer",
   "id": 7,
   "name": "Colliders",
   "width": 20,
   "height": 15,
   "x": 0,
   "y": 0,
   "opacity": 1,
   "visible": true,
   "data": [
    0,
    0,
    0,
    0,
    0,
    0,
    0,
    0,
    0,
    0,
    0,
    0,
    0,
    0,
    0,
    0,
    0,
    0,
    0,
    0,
    0,
    0,
    0,
    0,
    0,
    0,
    0,
    0,
    0,
    0,
    0,
    0,
    0,
    0,
    0,
    0,
    0,
    0,
    0,
    0,
    0,
    0,
    0,
    0,
    0,
    0,
    0,
    0,
    0,
    0,
    0,
    0,
    0,
    0,
    0,
    0,
    0,
    0,
    0,
    0,
    0,
    0,
    0,
    0,
    0,
    1,
    1,
    1,
    1,
    1,
    1,
    1,
    1,
    1,
    0,
    0,
    0,
    0,
    0,
    0,
    0,
    0,
    0,
    0,
    0,
    0,
    0,
    0,
    0,
    0,
    0,
    1,
    1,
    0,
    0,
    0,
    0,
    0,
    0,
    0,
    0,
    0,
    0,
    0,
    0,
    0,
    0,
    0,
    0,
    0,
    0,
    0,
    0,
    0,
    0,
    0,
    0,
    0,
    0,
    0,
    0,
    0,
    0,
    0,
    0,
    0,
    1,
    1,
    1,
    1,
    1,
    1,
    1,
    0,
    0,
    0,
    0,
    0,
    0,
    0,
    0,
    0,
    0,
    0,
    0,
    0,
    0,
    0,
    0,
    0,
    0,
    0,
    0,
    0,
    0,
    0,
    0,
    0,
    0,
    0,
    0,
    0,
    0,
    0,
    0,
    0,
    0,
    0,
    0,
    0,
    0,
    0,
    0,
    0,
    0,
    0,
    0,
    0,
    0,
    0,
    0,
    0,
    0,
    0,
    0,
    1,
    0,
    0,
    0,
    0,
    0,
    0,
    1,
    1,
    0,
    0,
    0,
    0,
    0,
    0,
    0,
    0,
    0,
    0,
    0,
    0,
    0,
    0,
    0,
    0,
    0,
    0,
    0,
    0,
    0,
    0,
    0,
    0,
    0,
    0,
    0,
    0,
    0,
    0,
    0,
    0,
    0,
    0,
    0,
    0,
    0,
    0,
    0,
    0,
    0,
    0,
    0,
    0,
    0,
    0,
    0,
    0,
    0,
    0,
    0,
    0,
    0,
    0,
    0,
    0,
    0,
    0,
    0,
    0,
    0,
    0,
    0,
    0,
    0,
    0,
    0,
    0,
    0,
    0,
    0,
    0,
    0,
    0,
    0,
    0,
    0,
    0,
    0,
    0,
    0,
    0,
    0,
    0,
    0,
    0,
    0,
    0,
    0,
    0,
    0,
    0,
    0,
    0,
    0,
    0,
    0,
    0,
    0,
    0,
    0,
    0,
    0,
    0,
    0,
    0
   ],
   "properties": [
    {
     "name": "gv2layer",
     "type": "string",
     "value": "Colliders"
    },
    {
     "name": "z",
     "type": "int",
     "value": 5
    },
    {
     "name": "collision",
     "type": "bool",
     "value": true
    }
   ]
  },
  {
   "type": "objectgroup",
   "id": 8,
   "name": "Meta",
   "x": 0,
   "y": 0,
   "opacity": 1,
   "visible": true,
   "draworder": "index",
   "objects": [
    {
     "id": 2,
     "name": "transporter",
     "point": true,
     "x": 544.0,
     "y": 672.0,
     "width": 0,
     "height": 0,
     "visible": true,
     "properties": [
      {
       "name": "kind",
       "type": "string",
       "value": "transporter"
      },
      {
       "name": "targetRoom",
       "type": "string",
       "value": "Market"
      },
      {
       "name": "targetX",
       "type": "int",
       "value": 48
      },
      {
       "name": "targetY",
       "type": "int",
       "value": 35
      },
      {
       "name": "hidden",
       "type": "bool",
       "value": true
      }
     ]
    },
    {
     "id": 3,
     "name": "transporter",
     "point": true,
     "x": 608.0,
     "y": 672.0,
     "width": 0,
     "height": 0,
     "visible": true,
     "properties": [
      {
       "name": "kind",
       "type": "string",
       "value": "transporter"
      },
      {
       "name": "targetRoom",
       "type": "string",
       "value": "Market"
      },
      {
       "name": "targetX",
       "type": "int",
       "value": 48
      },
      {
       "name": "targetY",
       "type": "int",
       "value": 35
      },
      {
       "name": "hidden",
       "type": "bool",
       "value": true
      }
     ]
    },
    {
     "id": 4,
     "name": "boundary",
     "x": 320,
     "y": 256,
     "polygon": [
      {
       "x": 0,
       "y": 0
      },
      {
       "x": 576,
       "y": 0
      },
      {
       "x": 576,
       "y": 384
      },
      {
       "x": 320,
       "y": 384
      },
      {
       "x": 320,
       "y": 448
      },
      {
       "x": 192,
       "y": 448
      },
      {
       "x": 192,
       "y": 384
      },
      {
       "x": 0,
       "y": 384
      }
     ],
     "width": 0,
     "height": 0,
     "visible": true,
     "properties": [
      {
       "name": "kind",
       "type": "string",
       "value": "boundary"
      }
     ]
    }
   ],
   "properties": [
    {
     "name": "gv2meta",
     "type": "bool",
     "value": true
    }
   ]
  }
 ]
}