{
 "type": "map",
 "version": "1.10",
 "tiledversion": "1.11.0",
 "orientation": "orthogonal",
 "renderorder": "right-down",
 "width": 48,
 "height": 34,
 "tilewidth": 64,
 "tileheight": 64,
 "infinite": false,
 "nextlayerid": 11,
 "nextobjectid": 87,
 "properties": [
  {
   "name": "gv2room",
   "type": "string",
   "value": "Machi"
  },
  {
   "name": "gv2worldWidth",
   "type": "int",
   "value": 3072
  },
  {
   "name": "gv2worldHeight",
   "type": "int",
   "value": 2176
  }
 ],
 "tilesets": [
  {
   "firstgid": 1,
   "name": "gamev2",
   "tilewidth": 64,
   "tileheight": 64,
   "tilecount": 92,
   "columns": 0,
   "objectalignment": "topleft",
   "grid": {
    "orientation": "orthogonal",
    "width": 64,
    "height": 64
   },
   "tiles": [
    {
     "id": 0,
     "image": "../assets/sprites/7-11-sign-left_0_0.png",
     "imagewidth": 64,
     "imageheight": 128
    },
    {
     "id": 1,
     "image": "../assets/sprites/bell-blue-baseless_0_0.png",
     "imagewidth": 128,
     "imageheight": 128
    },
    {
     "id": 2,
     "image": "../assets/sprites/blue-bell-top_0_0.png",
     "imagewidth": 128,
     "imageheight": 128
    },
    {
     "id": 3,
     "image": "../assets/sprites/blue-lamp-post_0_0.png",
     "imagewidth": 64,
     "imageheight": 64
    },
    {
     "id": 4,
     "image": "../assets/sprites/building-entrance-1_0_0.png",
     "imagewidth": 192,
     "imageheight": 64
    },
    {
     "id": 5,
     "image": "../assets/sprites/building-entrance-2_0_0.png",
     "imagewidth": 192,
     "imageheight": 64
    },
    {
     "id": 6,
     "image": "../assets/sprites/building-entrance-3_0_0.png",
     "imagewidth": 192,
     "imageheight": 64
    },
    {
     "id": 7,
     "image": "../assets/sprites/building-rafter-black_0_0.png",
     "imagewidth": 192,
     "imageheight": 64
    },
    {
     "id": 8,
     "image": "../assets/sprites/building-rafter-blue_0_0.png",
     "imagewidth": 192,
     "imageheight": 64
    },
    {
     "id": 9,
     "image": "../assets/sprites/building-rafter-red_0_0.png",
     "imagewidth": 192,
     "imageheight": 64
    },
    {
     "id": 10,
     "image": "../assets/sprites/building-roof-black_0_0.png",
     "imagewidth": 192,
     "imageheight": 192
    },
    {
     "id": 11,
     "image": "../assets/sprites/building-roof-blue_0_0.png",
     "imagewidth": 192,
     "imageheight": 192
    },
    {
     "id": 12,
     "image": "../assets/sprites/building-roof-red_0_0.png",
     "imagewidth": 192,
     "imageheight": 192
    },
    {
     "id": 13,
     "image": "../assets/sprites/building-tier-black_0_0.png",
     "imagewidth": 192,
     "imageheight": 64
    },
    {
     "id": 14,
     "image": "../assets/sprites/building-tier-blue_0_0.png",
     "imagewidth": 192,
     "imageheight": 64
    },
    {
     "id": 15,
     "image": "../assets/sprites/building-tier-red_0_0.png",
     "imagewidth": 192,
     "imageheight": 64
    },
    {
     "id": 16,
     "image": "../assets/sprites/castle-stairs_0_0.png",
     "imagewidth": 64,
     "imageheight": 64
    },
    {
     "id": 17,
     "image": "../assets/sprites/fence-garden-outside_2_5.png",
     "imagewidth": 64,
     "imageheight": 64
    },
    {
     "id": 18,
     "image": "../assets/sprites/fence-garden-outside_3_5.png",
     "imagewidth": 64,
     "imageheight": 64
    },
    {
     "id": 19,
     "image": "../assets/sprites/fence-garden-outside_4_5.png",
     "imagewidth": 64,
     "imageheight": 64
    },
    {
     "id": 20,
     "image": "../assets/sprites/flat-grey-brick-autotile_center.png",
     "imagewidth": 64,
     "imageheight": 64
    },
    {
     "id": 21,
     "image": "../assets/sprites/flat-grey-brick-autotile_corner-ne.png",
     "imagewidth": 64,
     "imageheight": 64
    },
    {
     "id": 22,
     "image": "../assets/sprites/flat-grey-brick-autotile_corner-nw.png",
     "imagewidth": 64,
     "imageheight": 64
    },
    {
     "id": 23,
     "image": "../assets/sprites/flat-grey-brick-autotile_corner-se.png",
     "imagewidth": 64,
     "imageheight": 64
    },
    {
     "id": 24,
     "image": "../assets/sprites/flat-grey-brick-autotile_corner-sw.png",
     "imagewidth": 64,
     "imageheight": 64
    },
    {
     "id": 25,
     "image": "../assets/sprites/flat-grey-brick-autotile_edge-e.png",
     "imagewidth": 64,
     "imageheight": 64
    },
    {
     "id": 26,
     "image": "../assets/sprites/flat-grey-brick-autotile_edge-n.png",
     "imagewidth": 64,
     "imageheight": 64
    },
    {
     "id": 27,
     "image": "../assets/sprites/flat-grey-brick-autotile_edge-s.png",
     "imagewidth": 64,
     "imageheight": 64
    },
    {
     "id": 28,
     "image": "../assets/sprites/flat-grey-brick-autotile_edge-w.png",
     "imagewidth": 64,
     "imageheight": 64
    },
    {
     "id": 29,
     "image": "../assets/sprites/flowering-grass-autotile_corner-ne.png",
     "imagewidth": 64,
     "imageheight": 64
    },
    {
     "id": 30,
     "image": "../assets/sprites/flowering-grass-autotile_corner-nw.png",
     "imagewidth": 64,
     "imageheight": 64
    },
    {
     "id": 31,
     "image": "../assets/sprites/flowering-grass-autotile_corner-se.png",
     "imagewidth": 64,
     "imageheight": 64
    },
    {
     "id": 32,
     "image": "../assets/sprites/flowering-grass-autotile_corner-sw.png",
     "imagewidth": 64,
     "imageheight": 64
    },
    {
     "id": 33,
     "image": "../assets/sprites/fox-statue-base-1_0_0.png",
     "imagewidth": 64,
     "imageheight": 128
    },
    {
     "id": 34,
     "image": "../assets/sprites/collider-marker.png",
     "imagewidth": 64,
     "imageheight": 64
    },
    {
     "id": 35,
     "image": "../assets/sprites/grass-autotile_center.png",
     "imagewidth": 64,
     "imageheight": 64
    },
    {
     "id": 36,
     "image": "../assets/sprites/gravel-autotile_corner-ne.png",
     "imagewidth": 64,
     "imageheight": 64
    },
    {
     "id": 37,
     "image": "../assets/sprites/gravel-autotile_corner-nw.png",
     "imagewidth": 64,
     "imageheight": 64
    },
    {
     "id": 38,
     "image": "../assets/sprites/gravel-autotile_corner-se.png",
     "imagewidth": 64,
     "imageheight": 64
    },
    {
     "id": 39,
     "image": "../assets/sprites/gravel-autotile_corner-sw.png",
     "imagewidth": 64,
     "imageheight": 64
    },
    {
     "id": 40,
     "image": "../assets/sprites/gravel-autotile_edge-n.png",
     "imagewidth": 64,
     "imageheight": 64
    },
    {
     "id": 41,
     "image": "../assets/sprites/gravel-autotile_edge-s.png",
     "imagewidth": 64,
     "imageheight": 64
    },
    {
     "id": 42,
     "image": "../assets/sprites/grey-brick-autotile_corner-ne.png",
     "imagewidth": 64,
     "imageheight": 64
    },
    {
     "id": 43,
     "image": "../assets/sprites/grey-brick-autotile_corner-nw.png",
     "imagewidth": 64,
     "imageheight": 64
    },
    {
     "id": 44,
     "image": "../assets/sprites/grey-brick-autotile_corner-se.png",
     "imagewidth": 64,
     "imageheight": 64
    },
    {
     "id": 45,
     "image": "../assets/sprites/grey-brick-autotile_corner-sw.png",
     "imagewidth": 64,
     "imageheight": 64
    },
    {
     "id": 46,
     "image": "../assets/sprites/grey-brick-autotile_edge-n.png",
     "imagewidth": 64,
     "imageheight": 64
    },
    {
     "id": 47,
     "image": "../assets/sprites/grey-brick-autotile_edge-s.png",
     "imagewidth": 64,
     "imageheight": 64
    },
    {
     "id": 48,
     "image": "../assets/sprites/ground-plants-1_0_0.png",
     "imagewidth": 64,
     "imageheight": 64
    },
    {
     "id": 49,
     "image": "../assets/sprites/ground-plants-1_0_1.png",
     "imagewidth": 64,
     "imageheight": 64
    },
    {
     "id": 50,
     "image": "../assets/sprites/ground-plants-1_1_0.png",
     "imagewidth": 64,
     "imageheight": 64
    },
    {
     "id": 51,
     "image": "../assets/sprites/ground-plants-1_1_1.png",
     "imagewidth": 64,
     "imageheight": 64
    },
    {
     "id": 52,
     "image": "../assets/sprites/light-concrete-autotile_center.png",
     "imagewidth": 64,
     "imageheight": 64
    },
    {
     "id": 53,
     "image": "../assets/sprites/light-concrete-autotile_corner-ne.png",
     "imagewidth": 64,
     "imageheight": 64
    },
    {
     "id": 54,
     "image": "../assets/sprites/light-concrete-autotile_corner-nw.png",
     "imagewidth": 64,
     "imageheight": 64
    },
    {
     "id": 55,
     "image": "../assets/sprites/light-concrete-autotile_corner-se.png",
     "imagewidth": 64,
     "imageheight": 64
    },
    {
     "id": 56,
     "image": "../assets/sprites/light-concrete-autotile_corner-sw.png",
     "imagewidth": 64,
     "imageheight": 64
    },
    {
     "id": 57,
     "image": "../assets/sprites/light-concrete-autotile_edge-e.png",
     "imagewidth": 64,
     "imageheight": 64
    },
    {
     "id": 58,
     "image": "../assets/sprites/light-concrete-autotile_edge-n.png",
     "imagewidth": 64,
     "imageheight": 64
    },
    {
     "id": 59,
     "image": "../assets/sprites/light-concrete-autotile_edge-s.png",
     "imagewidth": 64,
     "imageheight": 64
    },
    {
     "id": 60,
     "image": "../assets/sprites/light-concrete-autotile_edge-w.png",
     "imagewidth": 64,
     "imageheight": 64
    },
    {
     "id": 61,
     "image": "../assets/sprites/pavers_0_2.png",
     "imagewidth": 64,
     "imageheight": 64
    },
    {
     "id": 62,
     "image": "../assets/sprites/pavers_1_0.png",
     "imagewidth": 64,
     "imageheight": 64
    },
    {
     "id": 63,
     "image": "../assets/sprites/pavers_1_2.png",
     "imagewidth": 64,
     "imageheight": 64
    },
    {
     "id": 64,
     "image": "../assets/sprites/pavers_2_0.png",
     "imagewidth": 64,
     "imageheight": 64
    },
    {
     "id": 65,
     "image": "../assets/sprites/pavers_2_1.png",
     "imagewidth": 64,
     "imageheight": 64
    },
    {
     "id": 66,
     "image": "../assets/sprites/pavers_2_2.png",
     "imagewidth": 64,
     "imageheight": 64
    },
    {
     "id": 67,
     "image": "../assets/sprites/pond-autotile_corner-ne.png",
     "imagewidth": 64,
     "imageheight": 64
    },
    {
     "id": 68,
     "image": "../assets/sprites/pond-autotile_corner-nw.png",
     "imagewidth": 64,
     "imageheight": 64
    },
    {
     "id": 69,
     "image": "../assets/sprites/pond-autotile_corner-se.png",
     "imagewidth": 64,
     "imageheight": 64
    },
    {
     "id": 70,
     "image": "../assets/sprites/pond-autotile_corner-sw.png",
     "imagewidth": 64,
     "imageheight": 64
    },
    {
     "id": 71,
     "image": "../assets/sprites/pond-autotile_edge-n.png",
     "imagewidth": 64,
     "imageheight": 64
    },
    {
     "id": 72,
     "image": "../assets/sprites/pond-autotile_edge-s.png",
     "imagewidth": 64,
     "imageheight": 64
    },
    {
     "id": 73,
     "image": "../assets/sprites/red-lanterns_4_1.png",
     "imagewidth": 64,
     "imageheight": 64
    },
    {
     "id": 74,
     "image": "../assets/sprites/red-lanterns_6_3.png",
     "imagewidth": 64,
     "imageheight": 64
    },
    {
     "id": 75,
     "image": "../assets/sprites/red-pagoda-small-base_0_0.png",
     "imagewidth": 128,
     "imageheight": 192
    },
    {
     "id": 76,
     "image": "../assets/sprites/red-pagoda-small-top_0_0.png",
     "imagewidth": 128,
     "imageheight": 192
    },
    {
     "id": 77,
     "image": "../assets/sprites/red-vending-machine-bottom_0_0.png",
     "imagewidth": 64,
     "imageheight": 64
    },
    {
     "id": 78,
     "image": "../assets/sprites/red-vending-machine-top_0_0.png",
     "imagewidth": 64,
     "imageheight": 64
    },
    {
     "id": 79,
     "image": "../assets/sprites/sakura-large-base_0_0.png",
     "imagewidth": 64,
     "imageheight": 64
    },
    {
     "id": 80,
     "image": "../assets/sprites/sakura-large-top_0_0.png",
     "imagewidth": 192,
     "imageheight": 128
    },
    {
     "id": 81,
     "image": "../assets/sprites/sakura-small_0_0.png",
     "imagewidth": 64,
     "imageheight": 128
    },
    {
     "id": 82,
     "image": "../assets/sprites/seven-eleven_0_0.png",
     "imagewidth": 192,
     "imageheight": 256
    },
    {
     "id": 83,
     "image": "../assets/sprites/shrine-building_0_0.png",
     "imagewidth": 192,
     "imageheight": 384
    },
    {
     "id": 84,
     "image": "../assets/sprites/shrub-large-circle_0_0.png",
     "imagewidth": 128,
     "imageheight": 128
    },
    {
     "id": 85,
     "image": "../assets/sprites/shrub-small-circle_0_0.png",
     "imagewidth": 64,
     "imageheight": 64
    },
    {
     "id": 86,
     "image": "../assets/sprites/torii-red-feet_0_0.png",
     "imagewidth": 256,
     "imageheight": 128
    },
    {
     "id": 87,
     "image": "../assets/sprites/torii-red-top_0_0.png",
     "imagewidth": 384,
     "imageheight": 192
    },
    {
     "id": 88,
     "image": "../assets/sprites/tree-3-base-shadow_0_0.png",
     "imagewidth": 128,
     "imageheight": 64
    },
    {
     "id": 89,
     "image": "../assets/sprites/tree-3-top_0_0.png",
     "imagewidth": 128,
     "imageheight": 128
    },
    {
     "id": 90,
     "image": "../assets/sprites/white-vending-machine-bottom_0_0.png",
     "imagewidth": 64,
     "imageheight": 64
    },
    {
     "id": 91,
     "image": "../assets/sprites/white-vending-machine-top_0_0.png",
     "imagewidth": 64,
     "imageheight": 64
    }
   ],
   "wangsets": [
    {
     "name": "flat-grey-brick-autotile",
     "type": "mixed",
     "tile": -1,
     "colors": [
      {
       "name": "flat-grey-brick-autotile",
       "tile": -1,
       "probability": 1,
       "color": "#25b46d"
      }
     ],
     "wangtiles": [
      {
       "tileid": 20,
       "wangid": [
        1,
        1,
        1,
        1,
        1,
        1,
        1,
        1
       ]
      },
      {
       "tileid": 21,
       "wangid": [
        0,
        0,
        0,
        0,
        1,
        1,
        1,
        0
       ]
      },
      {
       "tileid": 22,
       "wangid": [
        0,
        0,
        1,
        1,
        1,
        0,
        0,
        0
       ]
      },
      {
       "tileid": 23,
       "wangid": [
        1,
        0,
        0,
        0,
        0,
        0,
        1,
        1
       ]
      },
      {
       "tileid": 24,
       "wangid": [
        1,
        1,
        1,
        0,
        0,
        0,
        0,
        0
       ]
      },
      {
       "tileid": 25,
       "wangid": [
        1,
        0,
        0,
        0,
        1,
        1,
        1,
        1
       ]
      },
      {
       "tileid": 26,
       "wangid": [
        0,
        0,
        1,
        1,
        1,
        1,
        1,
        0
       ]
      },
      {
       "tileid": 27,
       "wangid": [
        1,
        1,
        1,
        0,
        0,
        0,
        1,
        1
       ]
      },
      {
       "tileid": 28,
       "wangid": [
        1,
        1,
        1,
        1,
        1,
        0,
        0,
        0
       ]
      }
     ]
    },
    {
     "name": "flowering-grass-autotile",
     "type": "mixed",
     "tile": -1,
     "colors": [
      {
       "name": "flowering-grass-autotile",
       "tile": -1,
       "probability": 1,
       "color": "#d2d819"
      }
     ],
     "wangtiles": [
      {
       "tileid": 29,
       "wangid": [
        0,
        0,
        0,
        0,
        1,
        1,
        1,
        0
       ]
      },
      {
       "tileid": 30,
       "wangid": [
        0,
        0,
        1,
        1,
        1,
        0,
        0,
        0
       ]
      },
      {
       "tileid": 31,
       "wangid": [
        1,
        0,
        0,
        0,
        0,
        0,
        1,
        1
       ]
      },
      {
       "tileid": 32,
       "wangid": [
        1,
        1,
        1,
        0,
        0,
        0,
        0,
        0
       ]
      }
     ]
    },
    {
     "name": "grass-autotile",
     "type": "mixed",
     "tile": -1,
     "colors": [
      {
       "name": "grass-autotile",
       "tile": -1,
       "probability": 1,
       "color": "#dd436f"
      }
     ],
     "wangtiles": [
      {
       "tileid": 35,
       "wangid": [
        1,
        1,
        1,
        1,
        1,
        1,
        1,
        1
       ]
      }
     ]
    },
    {
     "name": "gravel-autotile",
     "type": "mixed",
     "tile": -1,
     "colors": [
      {
       "name": "gravel-autotile",
       "tile": -1,
       "probability": 1,
       "color": "#a1c42a"
      }
     ],
     "wangtiles": [
      {
       "tileid": 36,
       "wangid": [
        0,
        0,
        0,
        0,
        1,
        1,
        1,
        0
       ]
      },
      {
       "tileid": 37,
       "wangid": [
        0,
        0,
        1,
        1,
        1,
        0,
        0,
        0
       ]
      },
      {
       "tileid": 38,
       "wangid": [
        1,
        0,
        0,
        0,
        0,
        0,
        1,
        1
       ]
      },
      {
       "tileid": 39,
       "wangid": [
        1,
        1,
        1,
        0,
        0,
        0,
        0,
        0
       ]
      },
      {
       "tileid": 40,
       "wangid": [
        0,
        0,
        1,
        1,
        1,
        1,
        1,
        0
       ]
      },
      {
       "tileid": 41,
       "wangid": [
        1,
        1,
        1,
        0,
        0,
        0,
        1,
        1
       ]
      }
     ]
    },
    {
     "name": "grey-brick-autotile",
     "type": "mixed",
     "tile": -1,
     "colors": [
      {
       "name": "grey-brick-autotile",
       "tile": -1,
       "probability": 1,
       "color": "#c5c059"
      }
     ],
     "wangtiles": [
      {
       "tileid": 42,
       "wangid": [
        0,
        0,
        0,
        0,
        1,
        1,
        1,
        0
       ]
      },
      {
       "tileid": 43,
       "wangid": [
        0,
        0,
        1,
        1,
        1,
        0,
        0,
        0
       ]
      },
      {
       "tileid": 44,
       "wangid": [
        1,
        0,
        0,
        0,
        0,
        0,
        1,
        1
       ]
      },
      {
       "tileid": 45,
       "wangid": [
        1,
        1,
        1,
        0,
        0,
        0,
        0,
        0
       ]
      },
      {
       "tileid": 46,
       "wangid": [
        0,
        0,
        1,
        1,
        1,
        1,
        1,
        0
       ]
      },
      {
       "tileid": 47,
       "wangid": [
        1,
        1,
        1,
        0,
        0,
        0,
        1,
        1
       ]
      }
     ]
    },
    {
     "name": "light-concrete-autotile",
     "type": "mixed",
     "tile": -1,
     "colors": [
      {
       "name": "light-concrete-autotile",
       "tile": -1,
       "probability": 1,
       "color": "#e8cc37"
      }
     ],
     "wangtiles": [
      {
       "tileid": 52,
       "wangid": [
        1,
        1,
        1,
        1,
        1,
        1,
        1,
        1
       ]
      },
      {
       "tileid": 53,
       "wangid": [
        0,
        0,
        0,
        0,
        1,
        1,
        1,
        0
       ]
      },
      {
       "tileid": 54,
       "wangid": [
        0,
        0,
        1,
        1,
        1,
        0,
        0,
        0
       ]
      },
      {
       "tileid": 55,
       "wangid": [
        1,
        0,
        0,
        0,
        0,
        0,
        1,
        1
       ]
      },
      {
       "tileid": 56,
       "wangid": [
        1,
        1,
        1,
        0,
        0,
        0,
        0,
        0
       ]
      },
      {
       "tileid": 57,
       "wangid": [
        1,
        0,
        0,
        0,
        1,
        1,
        1,
        1
       ]
      },
      {
       "tileid": 58,
       "wangid": [
        0,
        0,
        1,
        1,
        1,
        1,
        1,
        0
       ]
      },
      {
       "tileid": 59,
       "wangid": [
        1,
        1,
        1,
        0,
        0,
        0,
        1,
        1
       ]
      },
      {
       "tileid": 60,
       "wangid": [
        1,
        1,
        1,
        1,
        1,
        0,
        0,
        0
       ]
      }
     ]
    },
    {
     "name": "pond-autotile",
     "type": "mixed",
     "tile": -1,
     "colors": [
      {
       "name": "pond-autotile",
       "tile": -1,
       "probability": 1,
       "color": "#f7497e"
      }
     ],
     "wangtiles": [
      {
       "tileid": 67,
       "wangid": [
        0,
        0,
        0,
        0,
        1,
        1,
        1,
        0
       ]
      },
      {
       "tileid": 68,
       "wangid": [
        0,
        0,
        1,
        1,
        1,
        0,
        0,
        0
       ]
      },
      {
       "tileid": 69,
       "wangid": [
        1,
        0,
        0,
        0,
        0,
        0,
        1,
        1
       ]
      },
      {
       "tileid": 70,
       "wangid": [
        1,
        1,
        1,
        0,
        0,
        0,
        0,
        0
       ]
      },
      {
       "tileid": 71,
       "wangid": [
        0,
        0,
        1,
        1,
        1,
        1,
        1,
        0
       ]
      },
      {
       "tileid": 72,
       "wangid": [
        1,
        1,
        1,
        0,
        0,
        0,
        1,
        1
       ]
      }
     ]
    }
   ]
  }
 ],
 "layers": [
  {
   "type": "tilelayer",
   "id": 1,
   "name": "Floor",
   "width": 48,
   "height": 34,
   "x": 0,
   "y": 0,
   "opacity": 1,
   "visible": true,
   "data": [
    36,
    36,
    36,
    36,
    36,
    36,
    36,
    36,
    36,
    36,
    36,
    36,
    36,
    36,
    36,
    36,
    36,
    36,
    36,
    36,
    36,
    36,
    36,
    36,
    36,
    36,
    36,
    36,
    36,
    36,
    36,
    36,
    36,
    36,
    36,
    36,
    36,
    36,
    36,
    36,
    36,
    36,
    36,
    36,
    36,
    36,
    36,
    36,
    36,
    36,
    36,
    36,
    36,
    36,
    36,
    36,
    36,
    36,
    36,
    36,
    36,
    36,
    36,
    36,
    36,
    36,
    36,
    36,
    36,
    36,
    36,
    36,
    36,
    36,
    36,
    36,
    36,
    36,
    36,
    36,
    36,
    36,
    36,
    36,
    36,
    36,
    36,
    36,
    36,
    36,
    36,
    36,
    36,
    36,
    36,
    36,
    36,
    36,
    36,
    36,
    36,
    36,
    36,
    36,
    36,
    36,
    36,
    36,
    36,
    36,
    36,
    36,
    36,
    36,
    36,
    36,
    23,
    27,
    27,
    27,
    27,
    27,
    27,
    27,
    27,
    22,
    36,
    36,
    36,
    36,
    36,
    36,
    36,
    36,
    36,
    36,
    36,
    36,
    36,
    36,
    36,
    36,
    36,
    36,
    36,
    36,
    36,
    36,
    36,
    36,
    36,
    36,
    36,
    36,
    36,
    36,
    36,
    36,
    36,
    36,
    36,
    36,
    36,
    36,
    29,
    21,
    21,
    21,
    21,
    21,
    21,
    21,
    21,
    26,
    36,
    36,
    36,
    36,
    36,
    36,
    36,
    36,
    36,
    36,
    36,
    36,
    36,
    36,
    36,
    36,
    36,
    36,
    36,
    36,
    36,
    36,
    36,
    36,
    36,
    36,
    36,
    36,
    36,
    36,
    36,
    36,
    36,
    36,
    36,
    36,
    36,
    36,
    29,
    21,
    21,
    21,
    21,
    21,
    21,
    21,
    21,
    26,
    36,
    36,
    36,
    36,
    36,
    36,
    36,
    36,
    36,
    36,
    36,
    36,
    36,
    36,
    36,
    36,
    36,
    36,
    36,
    36,
    36,
    36,
    36,
    36,
    36,
    36,
    36,
    36,
    36,
    36,
    36,
    36,
    36,
    36,
    36,
    36,
    36,
    36,
    29,
    21,
    21,
    21,
    21,
    21,
    21,
    21,
    21,
    26,
    36,
    36,
    36,
    36,
    36,
    36,
    36,
    36,
    36,
    36,
    36,
    36,
    36,
    36,
    36,
    36,
    36,
    36,
    36,
    36,
    36,
    36,
    36,
    36,
    36,
    36,
    36,
    36,
    36,
    36,
    36,
    36,
    31,
    30,
    36,
    36,
    36,
    36,
    29,
    21,
    21,
    21,
    21,
    21,
    21,
    21,
    21,
    26,
    36,
    36,
    36,
    36,
    36,
    36,
    36,
    36,
    36,
    36,
    36,
    36,
    36,
    36,
    36,
    36,
    36,
    36,
    36,
    36,
    36,
    36,
    36,
    36,
    36,
    36,
    36,
    36,
    36,
    36,
    36,
    36,
    33,
    32,
    36,
    36,
    36,
    36,
    29,
    21,
    21,
    21,
    21,
    21,
    21,
    21,
    21,
    26,
    36,
    36,
    36,
    36,
    36,
    36,
    36,
    36,
    36,
    36,
    36,
    36,
    36,
    36,
    36,
    36,
    36,
    36,
    36,
    36,
    36,
    36,
    36,
    36,
    36,
    36,
    36,
    36,
    36,
    36,
    36,
    36,
    36,
    36,
    36,
    36,
    36,
    36,
    25,
    28,
    21,
    21,
    21,
    21,
    28,
    28,
    28,
    24,
    36,
    36,
    36,
    36,
    36,
    36,
    36,
    36,
    36,
    36,
    36,
    36,
    36,
    31,
    30,
    36,
    36,
    36,
    36,
    36,
    36,
    36,
    36,
    36,
    36,
    36,
    36,
    36,
    36,
    36,
    36,
    36,
    36,
    36,
    36,
    36,
    36,
    36,
    36,
    36,
    29,
    21,
    21,
    26,
    36,
    36,
    36,
    36,
    36,
    36,
    36,
    36,
    36,
    36,
    36,
    36,
    36,
    36,
    36,
    36,
    36,
    33,
    32,
    36,
    36,
    36,
    36,
    36,
    36,
    36,
    36,
    36,
    36,
    36,
    36,
    36,
    36,
    36,
    36,
    36,
    36,
    36,
    36,
    36,
    36,
    36,
    36,
    36,
    29,
    21,
    21,
    26,
    36,
    36,
    36,
    36,
    36,
    36,
    36,
    36,
    36,
    36,
    36,
    36,
    36,
    36,
    36,
    36,
    36,
    36,
    36,
    36,
    36,
    36,
    36,
    36,
    36,
    36,
    36,
    36,
    36,
    36,
    36,
    36,
    36,
    36,
    36,
    36,
    36,
    36,
    36,
    36,
    36,
    36,
    36,
    36,
    29,
    21,
    21,
    26,
    36,
    36,
    36,
    36,
    36,
    36,
    36,
    36,
    36,
    36,
    36,
    36,
    36,
    36,
    36,
    36,
    36,
    36,
    36,
    36,
    36,
    36,
    36,
    36,
    36,
    36,
    36,
    36,
    36,
    36,
    36,
    36,
    36,
    36,
    36,
    36,
    36,
    36,
    36,
    36,
    36,
    36,
    36,
    36,
    29,
    21,
    21,
    26,
    36,
    36,
    36,
    36,
    36,
    36,
    36,
    36,
    36,
    36,
    36,
    36,
    36,
    36,
    36,
    36,
    36,
    36,
    36,
    36,
    36,
    36,
    36,
    36,
    36,
    36,
    36,
    36,
    36,
    36,
    36,
    36,
    36,
    36,
    36,
    36,
    36,
    36,
    36,
    36,
    36,
    36,
    36,
    36,
    29,
    21,
    21,
    26,
    36,
    36,
    36,
    36,
    36,
    36,
    36,
    36,
    36,
    36,
    36,
    36,
    36,
    36,
    36,
    36,
    36,
    36,
    36,
    36,
    36,
    36,
    36,
    36,
    36,
    36,
    36,
    36,
    36,
    36,
    36,
    36,
    36,
    36,
    36,
    36,
    36,
    36,
    36,
    36,
    36,
    36,
    36,
    36,
    25,
    28,
    28,
    24,
    36,
    36,
    36,
    36,
    36,
    36,
    36,
    36,
    36,
    36,
    36,
    36,
    36,
    36,
    36,
    36,
    36,
    36,
    36,
    36,
    36,
    36,
    36,
    36,
    36,
    44,
    47,
    47,
    47,
    47,
    47,
    47,
    47,
    47,
    47,
    47,
    47,
    47,
    47,
    47,
    47,
    47,
    47,
    47,
    47,
    47,
    47,
    47,
    47,
    47,
    47,
    47,
    47,
    47,
    47,
    47,
    47,
    47,
    47,
    47,
    47,
    47,
    47,
    47,
    47,
    47,
    47,
    43,
    36,
    36,
    36,
    36,
    36,
    46,
    48,
    48,
    48,
    48,
    48,
    48,
    48,
    48,
    48,
    48,
    48,
    48,
    48,
    48,
    48,
    48,
    48,
    48,
    48,
    48,
    48,
    48,
    48,
    48,
    48,
    48,
    48,
    48,
    48,
    48,
    48,
    48,
    48,
    48,
    48,
    48,
    48,
    48,
    48,
    48,
    48,
    45,
    36,
    36,
    36,
    36,
    36,
    36,
    36,
    36,
    36,
    36,
    36,
    36,
    36,
    36,
    36,
    36,
    36,
    36,
    36,
    36,
    36,
    36,
    36,
    36,
    36,
    21,
    21,
    36,
    36,
    36,
    36,
    36,
    36,
    36,
    36,
    36,
    36,
    36,
    36,
    36,
    36,
    36,
    36,
    36,
    36,
    36,
    36,
    36,
    36,
    36,
    36,
    36,
    36,
    36,
    36,
    36,
    36,
    36,
    36,
    36,
    36,
    36,
    36,
    36,
    36,
    36,
    36,
    36,
    36,
    55,
    59,
    59,
    59,
    59,
    59,
    59,
    59,
    59,
    59,
    59,
    54,
    36,
    36,
    36,
    36,
    36,
    36,
    36,
    36,
    36,
    36,
    36,
    36,
    36,
    36,
    36,
    36,
    36,
    36,
    36,
    36,
    36,
    36,
    36,
    36,
    36,
    36,
    36,
    36,
    36,
    36,
    36,
    36,
    36,
    36,
    36,
    36,
    61,
    53,
    53,
    53,
    53,
    53,
    53,
    53,
    53,
    53,
    53,
    58,
    36,
    36,
    36,
    36,
    36,
    36,
    36,
    36,
    36,
    36,
    36,
    36,
    36,
    36,
    36,
    36,
    36,
    36,
    36,
    36,
    36,
    36,
    36,
    36,
    36,
    36,
    36,
    36,
    36,
    36,
    36,
    36,
    36,
    36,
    36,
    36,
    61,
    53,
    53,
    53,
    53,
    53,
    53,
    53,
    53,
    53,
    53,
    58,
    38,
    41,
    41,
    41,
    41,
    41,
    41,
    41,
    41,
    41,
    41,
    41,
    41,
    41,
    41,
    41,
    37,
    36,
    36,
    36,
    36,
    36,
    36,
    36,
    36,
    36,
    36,
    36,
    36,
    36,
    36,
    36,
    36,
    36,
    36,
    36,
    61,
    53,
    53,
    53,
    53,
    53,
    53,
    53,
    53,
    53,
    53,
    58,
    40,
    42,
    42,
    42,
    42,
    42,
    42,
    42,
    42,
    42,
    42,
    42,
    42,
    42,
    42,
    42,
    39,
    36,
    36,
    36,
    36,
    38,
    41,
    41,
    41,
    41,
    41,
    41,
    41,
    41,
    41,
    41,
    41,
    41,
    41,
    37,
    61,
    53,
    53,
    53,
    53,
    53,
    53,
    53,
    53,
    53,
    53,
    58,
    36,
    36,
    36,
    36,
    36,
    36,
    36,
    36,
    36,
    36,
    36,
    36,
    36,
    36,
    36,
    36,
    36,
    36,
    36,
    36,
    36,
    40,
    42,
    42,
    42,
    42,
    42,
    42,
    42,
    42,
    42,
    42,
    42,
    42,
    42,
    39,
    61,
    53,
    53,
    53,
    53,
    53,
    53,
    53,
    53,
    53,
    53,
    58,
    36,
    36,
    36,
    36,
    36,
    36,
    36,
    36,
    36,
    36,
    36,
    36,
    36,
    36,
    36,
    36,
    36,
    36,
    36,
    36,
    36,
    36,
    36,
    36,
    36,
    36,
    36,
    36,
    36,
    36,
    36,
    36,
    36,
    36,
    36,
    36,
    57,
    60,
    60,
    60,
    60,
    60,
    60,
    60,
    60,
    60,
    60,
    56,
    36,
    36,
    36,
    36,
    36,
    36,
    36,
    36,
    36,
    36,
    36,
    36,
    36,
    36,
    36,
    36,
    36,
    36,
    36,
    36,
    36,
    36,
    36,
    36,
    36,
    36,
    36,
    36,
    36,
    36,
    36,
    36,
    36,
    36,
    36,
    36,
    36,
    36,
    36,
    36,
    36,
    36,
    36,
    36,
    36,
    36,
    36,
    36,
    36,
    36,
    36,
    31,
    30,
    36,
    36,
    36,
    36,
    36,
    36,
    36,
    36,
    36,
    36,
    36,
    36,
    36,
    36,
    36,
    36,
    36,
    31,
    30,
    36,
    36,
    36,
    36,
    36,
    36,
    36,
    36,
    31,
    30,
    36,
    36,
    36,
    36,
    36,
    36,
    36,
    36,
    36,
    36,
    36,
    36,
    36,
    36,
    36,
    36,
    36,
    33,
    32,
    36,
    36,
    36,
    36,
    36,
    36,
    36,
    36,
    36,
    36,
    36,
    36,
    36,
    36,
    36,
    36,
    36,
    33,
    32,
    36,
    36,
    36,
    36,
    36,
    36,
    36,
    36,
    33,
    32,
    36,
    36,
    36,
    36,
    36,
    36,
    36,
    36,
    36,
    36,
    36,
    36,
    36,
    36,
    36,
    36,
    36,
    36,
    36,
    36,
    36,
    36,
    36,
    36,
    36,
    36,
    36,
    36,
    36,
    36,
    36,
    36,
    36,
    36,
    36,
    36,
    36,
    36,
    36,
    36,
    36,
    36,
    36,
    36,
    36,
    36,
    36,
    36,
    36,
    36,
    36,
    36,
    36,
    36,
    36,
    36,
    36,
    36,
    36,
    36,
    36,
    36,
    36,
    36,
    36,
    36,
    36,
    36,
    36,
    36,
    36,
    36,
    36,
    36,
    36,
    36,
    36,
    36,
    36,
    36,
    36,
    36,
    36,
    36,
    36,
    36,
    36,
    36,
    36,
    36,
    36,
    36,
    36,
    36,
    36,
    36,
    36,
    36,
    36,
    36,
    36,
    36,
    36,
    36,
    36,
    36,
    36,
    36,
    36,
    36,
    36,
    36,
    36,
    36,
    36,
    36,
    36,
    36,
    36,
    36,
    36,
    36,
    36,
    36,
    36,
    36,
    36,
    36,
    36,
    36,
    36,
    36,
    36,
    36,
    36,
    36,
    36,
    36,
    36,
    36,
    36,
    36,
    36,
    36,
    36,
    36,
    36,
    36,
    36,
    36,
    36,
    36,
    36,
    36,
    36,
    36,
    36,
    36,
    36,
    36,
    36,
    36,
    36,
    36,
    36,
    36,
    36,
    36,
    36,
    36,
    36,
    36,
    36,
    36,
    36,
    36,
    36,
    36,
    36,
    36,
    36,
    36,
    36,
    36,
    36,
    36,
    36,
    36,
    36,
    36,
    36,
    36,
    36,
    36,
    36,
    36,
    36,
    36,
    36,
    36,
    36,
    36,
    36,
    36,
    36,
    36,
    36,
    36,
    36,
    36,
    36,
    36,
    36,
    36,
    36,
    36,
    36,
    36,
    36,
    36,
    36,
    36,
    36,
    36,
    36,
    36,
    36,
    36,
    36,
    36,
    36,
    36,
    36,
    36,
    36,
    36,
    36,
    36,
    36,
    36,
    36,
    36,
    36,
    36,
    36,
    36,
    36,
    36,
    36,
    36,
    36,
    36,
    36,
    36,
    36,
    36,
    36,
    36,
    36,
    36,
    36,
    36,
    36,
    36,
    36,
    36,
    36,
    36,
    36,
    36,
    36,
    36,
    36,
    36,
    36,
    36,
    36,
    36,
    36,
    36,
    36,
    36,
    36,
    36,
    36,
    36,
    36,
    36,
    36,
    36,
    36,
    36,
    36,
    36,
    36,
    36,
    36,
    36,
    36,
    36,
    36,
    36,
    36,
    36,
    36,
    36,
    36,
    36,
    36,
    36,
    36,
    36,
    36,
    36,
    36,
    36,
    36,
    36,
    36
   ],
   "properties": [
    {
     "name": "gv2layer",
     "type": "string",
     "value": "Floor"
    },
    {
     "name": "z",
     "type": "int",
     "value": 0
    },
    {
     "name": "collision",
     "type": "bool",
     "value": false
    }
   ]
  },
  {
   "type": "tilelayer",
   "id": 2,
   "name": "Over Floor",
   "width": 48,
   "height": 34,
   "x": 0,
   "y": 0,
   "opacity": 1,
   "visible": true,
   "data": [
    0,
    0,
    0,
    0,
    0,
    0,
    0,
    0,
    0,
    0,
    0,
    0,
    0,
    0,
    0,
    0,
    0,
    0,
    0,
    0,
    0,
    0,
    0,
    0,
    0,
    0,
    0,
    0,
    0,
    0,
    0,
    0,
    0,
    0,
    0,
    0,
    0,
    0,
    0,
    0,
    0,
    0,
    0,
    0,
    0,
    0,
    0,
    0,
    0,
    0,
    0,
    0,
    0,
    0,
    0,
    0,
    0,
    0,
    0,
    0,
    0,
    0,
    0,
    0,
    0,
    0,
    0,
    0,
    0,
    0,
    0,
    0,
    0,
    0,
    0,
    0,
    0,
    0,
    0,
    0,
    0,
    0,
    0,
    0,
    0,
    0,
    0,
    0,
    0,
    0,
    0,
    0,
    0,
    0,
    0,
    0,
    0,
    0,
    0,
    0,
    0,
    0,
    0,
    0,
    0,
    0,
    0,
    0,
    0,
    0,
    0,
    0,
    0,
    0,
    0,
    0,
    0,
    0,
    0,
    0,
    0,
    0,
    0,
    0,
    0,
    0,
    0,
    0,
    0,
    0,
    0,
    0,
    0,
    0,
    0,
    0,
    0,
    0,
    0,
    0,
    0,
    0,
    0,
    0,
    0,
    0,
    0,
    0,
    0,
    0,
    0,
    0,
    0,
    0,
    0,
    0,
    0,
    0,
    0,
    0,
    0,
    0,
    0,
    0,
    0,
    0,
    0,
    0,
    0,
    0,
    0,
    0,
    0,
    0,
    0,
    0,
    0,
    0,
    0,
    0,
    0,
    0,
    0,
    0,
    0,
    0,
    0,
    0,
    0,
    0,
    0,
    0,
    0,
    0,
    0,
    0,
    0,
    0,
    0,
    0,
    0,
    0,
    0,
    0,
    0,
    0,
    0,
    0,
    0,
    0,
    0,
    0,
    0,
    0,
    0,
    0,
    0,
    0,
    0,
    0,
    0,
    0,
    0,
    0,
    0,
    0,
    0,
    0,
    0,
    0,
    0,
    0,
    0,
    0,
    0,
    0,
    0,
    0,
    0,
    0,
    0,
    0,
    0,
    0,
    0,
    0,
    0,
    0,
    0,
    0,
    0,
    52,
    0,
    0,
    0,
    0,
    0,
    0,
    0,
    0,
    0,
    0,
    0,
    0,
    0,
    0,
    0,
    0,
    0,
    0,
    0,
    0,
    0,
    49,
    0,
    0,
    0,
    0,
    0,
    0,
    0,
    0,
    0,
    0,
    0,
    0,
    0,
    0,
    0,
    0,
    0,
    0,
    49,
    0,
    0,
    0,
    0,
    0,
    0,
    0,
    0,
    0,
    0,
    0,
    0,
    0,
    0,
    0,
    0,
    0,
    0,
    0,
    0,
    0,
    0,
    0,
    0,
    0,
    0,
    0,
    0,
    0,
    0,
    0,
    0,
    0,
    0,
    0,
    0,
    0,
    0,
    0,
    0,
    0,
    0,
    0,
    0,
    0,
    0,
    0,
    0,
    0,
    0,
    0,
    0,
    0,
    0,
    0,
    0,
    0,
    0,
    0,
    0,
    0,
    0,
    0,
    0,
    0,
    0,
    0,
    0,
    0,
    0,
    0,
    0,
    0,
    0,
    0,
    0,
    0,
    0,
    0,
    0,
    0,
    0,
    0,
    0,
    0,
    0,
    0,
    0,
    0,
    0,
    0,
    0,
    0,
    0,
    0,
    0,
    0,
    0,
    0,
    0,
    0,
    0,
    0,
    0,
    0,
    0,
    0,
    0,
    0,
    0,
    50,
    0,
    0,
    0,
    0,
    0,
    0,
    0,
    0,
    0,
    0,
    51,
    0,
    0,
    0,
    0,
    0,
    0,
    0,
    0,
    0,
    0,
    0,
    0,
    0,
    0,
    0,
    0,
    0,
    0,
    0,
    0,
    0,
    0,
    0,
    0,
    0,
    0,
    0,
    0,
    0,
    0,
    51,
    0,
    0,
    0,
    0,
    0,
    0,
    0,
    0,
    0,
    17,
    17,
    0,
    0,
    0,
    0,
    0,
    0,
    0,
    0,
    0,
    0,
    0,
    0,
    0,
    0,
    0,
    0,
    0,
    50,
    0,
    0,
    0,
    0,
    0,
    0,
    0,
    0,
    0,
    0,
    0,
    0,
    0,
    0,
    0,
    0,
    0,
    0,
    0,
    0,
    0,
    0,
    0,
    0,
    0,
    0,
    0,
    0,
    0,
    0,
    0,
    0,
    0,
    0,
    0,
    0,
    0,
    0,
    0,
    0,
    0,
    0,
    0,
    0,
    0,
    0,
    0,
    0,
    0,
    0,
    0,
    0,
    0,
    0,
    0,
    0,
    0,
    0,
    0,
    0,
    0,
    0,
    0,
    0,
    0,
    0,
    0,
    0,
    0,
    0,
    0,
    0,
    0,
    0,
    0,
    0,
    0,
    0,
    0,
    0,
    0,
    0,
    0,
    0,
    0,
    0,
    0,
    0,
    0,
    0,
    0,
    0,
    0,
    0,
    0,
    0,
    0,
    0,
    0,
    0,
    0,
    0,
    0,
    0,
    0,
    0,
    0,
    0,
    0,
    0,
    0,
    0,
    0,
    0,
    0,
    0,
    0,
    0,
    0,
    0,
    0,
    0,
    0,
    0,
    0,
    0,
    0,
    0,
    0,
    0,
    0,
    0,
    0,
    0,
    0,
    0,
    0,
    0,
    0,
    0,
    0,
    0,
    0,
    0,
    0,
    0,
    0,
    0,
    0,
    0,
    0,
    0,
    0,
    0,
    0,
    0,
    0,
    0,
    0,
    0,
    0,
    0,
    0,
    0,
    0,
    0,
    0,
    0,
    0,
    0,
    0,
    0,
    0,
    0,
    0,
    0,
    0,
    0,
    0,
    0,
    0,
    0,
    0,
    0,
    0,
    0,
    0,
    0,
    0,
    0,
    0,
    0,
    0,
    0,
    0,
    0,
    0,
    0,
    0,
    0,
    0,
    0,
    0,
    0,
    0,
    0,
    0,
    0,
    0,
    0,
    0,
    0,
    0,
    0,
    0,
    0,
    0,
    0,
    0,
    0,
    0,
    0,
    0,
    0,
    0,
    0,
    0,
    0,
    0,
    0,
    0,
    0,
    0,
    0,
    0,
    0,
    0,
    0,
    0,
    0,
    0,
    0,
    0,
    0,
    0,
    0,
    0,
    0,
    0,
    0,
    0,
    0,
    0,
    0,
    0,
    0,
    0,
    0,
    0,
    0,
    0,
    0,
    0,
    0,
    0,
    0,
    0,
    0,
    0,
    0,
    0,
    0,
    0,
    0,
    0,
    0,
    0,
    0,
    0,
    0,
    0,
    0,
    0,
    0,
    0,
    0,
    0,
    0,
    0,
    0,
    0,
    0,
    0,
    0,
    0,
    0,
    0,
    0,
    0,
    0,
    0,
    0,
    0,
    0,
    0,
    0,
    0,
    0,
    0,
    0,
    0,
    0,
    0,
    0,
    0,
    0,
    0,
    0,
    0,
    0,
    0,
    0,
    0,
    0,
    0,
    0,
    0,
    0,
    0,
    0,
    0,
    0,
    0,
    0,
    0,
    0,
    0,
    0,
    0,
    0,
    0,
    0,
    0,
    0,
    0,
    0,
    0,
    0,
    0,
    0,
    0,
    0,
    0,
    0,
    0,
    0,
    0,
    0,
    0,
    0,
    0,
    0,
    0,
    0,
    0,
    0,
    0,
    0,
    0,
    50,
    0,
    51,
    0,
    0,
    0,
    0,
    0,
    0,
    0,
    51,
    0,
    49,
    0,
    0,
    0,
    0,
    0,
    0,
    0,
    0,
    0,
    0,
    0,
    0,
    51,
    0,
    0,
    0,
    0,
    0,
    0,
    0,
    0,
    0,
    0,
    0,
    0,
    0,
    0,
    0,
    0,
    49,
    0,
    0,
    0,
    0,
    52,
    0,
    0,
    0,
    0,
    0,
    0,
    0,
    50,
    0,
    0,
    0,
    52,
    0,
    0,
    0,
    0,
    0,
    0,
    0,
    0,
    0,
    0,
    0,
    0,
    0,
    0,
    0,
    0,
    0,
    0,
    0,
    0,
    0,
    0,
    0,
    0,
    0,
    0,
    0,
    0,
    0,
    63,
    0,
    0,
    0,
    0,
    0,
    0,
    65,
    0,
    0,
    0,
    0,
    0,
    0,
    0,
    0,
    0,
    0,
    0,
    0,
    0,
    0,
    0,
    0,
    0,
    0,
    0,
    0,
    0,
    0,
    0,
    0,
    0,
    0,
    49,
    0,
    0,
    0,
    0,
    0,
    0,
    0,
    0,
    0,
    0,
    0,
    0,
    0,
    0,
    0,
    0,
    0,
    0,
    0,
    0,
    0,
    0,
    0,
    0,
    0,
    0,
    0,
    0,
    0,
    0,
    0,
    0,
    0,
    0,
    0,
    0,
    0,
    0,
    0,
    0,
    0,
    0,
    0,
    0,
    0,
    0,
    0,
    0,
    0,
    0,
    0,
    0,
    0,
    0,
    0,
    0,
    0,
    0,
    0,
    0,
    51,
    0,
    62,
    0,
    0,
    0,
    0,
    67,
    0,
    0,
    0,
    0,
    0,
    0,
    0,
    0,
    0,
    0,
    0,
    0,
    0,
    0,
    0,
    0,
    0,
    0,
    0,
    0,
    0,
    0,
    0,
    0,
    0,
    0,
    49,
    0,
    0,
    0,
    0,
    0,
    51,
    0,
    0,
    0,
    0,
    0,
    0,
    0,
    0,
    0,
    0,
    0,
    0,
    0,
    0,
    0,
    0,
    50,
    0,
    0,
    0,
    0,
    0,
    0,
    0,
    0,
    0,
    0,
    0,
    0,
    0,
    0,
    0,
    0,
    0,
    0,
    0,
    0,
    0,
    0,
    0,
    0,
    0,
    0,
    0,
    50,
    0,
    0,
    0,
    0,
    0,
    52,
    0,
    0,
    0,
    0,
    0,
    64,
    0,
    0,
    0,
    0,
    0,
    0,
    66,
    0,
    0,
    0,
    0,
    0,
    0,
    0,
    0,
    0,
    0,
    0,
    0,
    0,
    0,
    0,
    0,
    0,
    0,
    0,
    0,
    0,
    0,
    0,
    0,
    0,
    0,
    0,
    0,
    0,
    0,
    0,
    0,
    0,
    0,
    0,
    0,
    0,
    0,
    0,
    0,
    0,
    0,
    63,
    0,
    0,
    65,
    0,
    0,
    0,
    0,
    0,
    0,
    0,
    0,
    0,
    0,
    0,
    0,
    0,
    0,
    0,
    0,
    0,
    0,
    0,
    0,
    0,
    0,
    0,
    0,
    0,
    0,
    0,
    0,
    51,
    0,
    0,
    0,
    0,
    0,
    0,
    0,
    0,
    0,
    0,
    0,
    0,
    0,
    0,
    0,
    0,
    0,
    0,
    0,
    0,
    0,
    0,
    0,
    0,
    0,
    0,
    0,
    0,
    0,
    0,
    0,
    0,
    0,
    0,
    0,
    0,
    0,
    0,
    0,
    0,
    0,
    0,
    0,
    0,
    0,
    0,
    0,
    50,
    0,
    0,
    0,
    0,
    0,
    0,
    0,
    0,
    0,
    49,
    0,
    0,
    0,
    0,
    0,
    0,
    0,
    0,
    0,
    0,
    0,
    0,
    0,
    0,
    0,
    0,
    0,
    0,
    0,
    0,
    0,
    0,
    0,
    0,
    0,
    0,
    0,
    0,
    0,
    0,
    0,
    0,
    0,
    0,
    0,
    0,
    0,
    0,
    0,
    0,
    0,
    0,
    0,
    0,
    0,
    0,
    0,
    0,
    0,
    0,
    0,
    0,
    0,
    0,
    0,
    0,
    0,
    0,
    0,
    0,
    0,
    0,
    0,
    0,
    0,
    0,
    0,
    0,
    0,
    0,
    0,
    0,
    0,
    0,
    0,
    0,
    0,
    0,
    0,
    0,
    0,
    0,
    0,
    0,
    0,
    0,
    0,
    0,
    0,
    0,
    0,
    0,
    0,
    0,
    0,
    0,
    0,
    0,
    0,
    0,
    0,
    0,
    0,
    0,
    0,
    0,
    0,
    0,
    0,
    0,
    0,
    0,
    0,
    0,
    0,
    0,
    0,
    0,
    0,
    0,
    0,
    0,
    0,
    0,
    0,
    0,
    0,
    0,
    0,
    0,
    0,
    0,
    0,
    0,
    0,
    0,
    0,
    0,
    0,
    0,
    0,
    0,
    0,
    0,
    0,
    0,
    0,
    0,
    0,
    0,
    0,
    0,
    0,
    0,
    0,
    0,
    0,
    0,
    0,
    0,
    0,
    0,
    0,
    0,
    0,
    0,
    0,
    0,
    0,
    0,
    0,
    0,
    0,
    0,
    0,
    0,
    0,
    0,
    0,
    0,
    0,
    0,
    0,
    0,
    0,
    0,
    0,
    0,
    0,
    0,
    0,
    0,
    0,
    0,
    0,
    0,
    0,
    0,
    0,
    0,
    0,
    0,
    0,
    0,
    0,
    0,
    0,
    0,
    0,
    0,
    0,
    0,
    0,
    0,
    0,
    0,
    0,
    0,
    0,
    0,
    0,
    0,
    0,
    0,
    0,
    0,
    0,
    0,
    0,
    0,
    0,
    0,
    0,
    0,
    0,
    0,
    0,
    0,
    0,
    0,
    0,
    0,
    0,
    0,
    0,
    0,
    0,
    0,
    0,
    0,
    0,
    0,
    0,
    0,
    0,
    0,
    0,
    0,
    0,
    0,
    0,
    0,
    0,
    0,
    0,
    0,
    0,
    0,
    0,
    0,
    0,
    0,
    0,
    0,
    0,
    0,
    0,
    0,
    0,
    0,
    0,
    0,
    0,
    0,
    0,
    0,
    0,
    0,
    0,
    0,
    0,
    0,
    0,
    0,
    0,
    0,
    0,
    0,
    0,
    0,
    0,
    0,
    0,
    0,
    0,
    0,
    0,
    0,
    0,
    0,
    0,
    0,
    0,
    0,
    0,
    0,
    0,
    0,
    0,
    0,
    0,
    0,
    0,
    0,
    0,
    0,
    0,
    0,
    0,
    0,
    0,
    0,
    0,
    0,
    0,
    0,
    0,
    0,
    0,
    0,
    0,
    0,
    0,
    0,
    0,
    0,
    0,
    0,
    0,
    0,
    0,
    0,
    0,
    0,
    0,
    0,
    0,
    0,
    0,
    0,
    0,
    0,
    0,
    0,
    0,
    0
   ],
   "properties": [
    {
     "name": "gv2layer",
     "type": "string",
     "value": "Over Floor"
    },
    {
     "name": "z",
     "type": "int",
     "value": 1
    },
    {
     "name": "collision",
     "type": "bool",
     "value": false
    }
   ]
  },
  {
   "type": "tilelayer",
   "id": 3,
   "name": "Water",
   "width": 48,
   "height": 34,
   "x": 0,
   "y": 0,
   "opacity": 1,
   "visible": true,
   "data": [
    0,
    0,
    0,
    0,
    0,
    0,
    0,
    0,
    0,
    0,
    0,
    0,
    0,
    0,
    0,
    0,
    0,
    0,
    0,
    0,
    0,
    0,
    0,
    0,
    0,
    0,
    0,
    0,
    0,
    0,
    0,
    0,
    0,
    0,
    0,
    0,
    0,
    0,
    0,
    0,
    0,
    0,
    0,
    0,
    0,
    0,
    0,
    0,
    0,
    0,
    0,
    0,
    0,
    0,
    0,
    0,
    0,
    0,
    0,
    0,
    0,
    0,
    0,
    0,
    0,
    0,
    0,
    0,
    0,
    0,
    0,
    0,
    0,
    0,
    0,
    0,
    0,
    0,
    0,
    0,
    0,
    0,
    0,
    0,
    0,
    0,
    0,
    0,
    0,
    0,
    0,
    0,
    0,
    0,
    0,
    0,
    0,
    0,
    0,
    0,
    0,
    0,
    0,
    0,
    0,
    0,
    0,
    0,
    0,
    0,
    0,
    0,
    0,
    0,
    0,
    0,
    0,
    0,
    0,
    0,
    0,
    0,
    0,
    0,
    0,
    0,
    0,
    0,
    0,
    0,
    0,
    0,
    0,
    0,
    0,
    0,
    0,
    0,
    0,
    0,
    0,
    0,
    0,
    0,
    0,
    0,
    0,
    0,
    0,
    0,
    0,
    0,
    0,
    0,
    0,
    0,
    0,
    0,
    0,
    0,
    0,
    0,
    0,
    0,
    0,
    0,
    0,
    0,
    0,
    0,
    0,
    0,
    0,
    0,
    0,
    0,
    0,
    0,
    0,
    0,
    0,
    0,
    0,
    0,
    0,
    0,
    0,
    0,
    0,
    0,
    0,
    0,
    0,
    0,
    0,
    0,
    0,
    0,
    0,
    0,
    0,
    0,
    0,
    0,
    0,
    0,
    0,
    0,
    0,
    0,
    0,
    0,
    0,
    0,
    0,
    0,
    0,
    0,
    0,
    0,
    0,
    0,
    0,
    0,
    0,
    0,
    0,
    0,
    0,
    0,
    0,
    0,
    0,
    0,
    0,
    0,
    0,
    0,
    0,
    0,
    0,
    0,
    0,
    0,
    0,
    0,
    0,
    0,
    0,
    0,
    0,
    0,
    0,
    0,
    0,
    0,
    0,
    0,
    0,
    0,
    0,
    0,
    0,
    0,
    0,
    0,
    0,
    0,
    0,
    0,
    0,
    0,
    0,
    0,
    0,
    0,
    0,
    0,
    0,
    0,
    0,
    0,
    0,
    0,
    0,
    0,
    0,
    0,
    0,
    0,
    0,
    0,
    0,
    0,
    0,
    0,
    0,
    0,
    0,
    0,
    0,
    0,
    0,
    0,
    0,
    0,
    0,
    0,
    0,
    0,
    0,
    0,
    0,
    0,
    0,
    0,
    0,
    0,
    0,
    0,
    0,
    0,
    0,
    0,
    69,
    72,
    72,
    72,
    72,
    68,
    0,
    0,
    0,
    0,
    0,
    0,
    0,
    0,
    0,
    0,
    0,
    69,
    72,
    72,
    72,
    72,
    68,
    0,
    0,
    0,
    0,
    0,
    0,
    0,
    0,
    0,
    0,
    0,
    0,
    0,
    0,
    0,
    0,
    0,
    0,
    0,
    0,
    0,
    0,
    0,
    0,
    0,
    71,
    73,
    73,
    73,
    73,
    70,
    0,
    0,
    0,
    0,
    0,
    0,
    0,
    0,
    0,
    0,
    0,
    71,
    73,
    73,
    73,
    73,
    70,
    0,
    0,
    0,
    0,
    0,
    0,
    0,
    0,
    0,
    0,
    0,
    0,
    0,
    0,
    0,
    0,
    0,
    0,
    0,
    0,
    0,
    0,
    0,
    0,
    0,
    0,
    0,
    0,
    0,
    0,
    0,
    0,
    0,
    0,
    0,
    0,
    0,
    0,
    0,
    0,
    0,
    0,
    0,
    0,
    0,
    0,
    0,
    0,
    0,
    0,
    0,
    0,
    0,
    0,
    0,
    0,
    0,
    0,
    0,
    0,
    0,
    0,
    0,
    0,
    0,
    0,
    0,
    0,
    0,
    0,
    0,
    0,
    0,
    0,
    0,
    0,
    0,
    0,
    0,
    0,
    0,
    0,
    0,
    0,
    0,
    0,
    0,
    0,
    0,
    0,
    0,
    0,
    0,
    0,
    0,
    0,
    0,
    0,
    0,
    0,
    0,
    0,
    0,
    0,
    0,
    0,
    0,
    0,
    0,
    0,
    0,
    0,
    0,
    0,
    0,
    0,
    0,
    0,
    0,
    0,
    0,
    0,
    0,
    0,
    0,
    0,
    0,
    0,
    0,
    0,
    0,
    0,
    0,
    0,
    0,
    0,
    0,
    0,
    0,
    0,
    0,
    0,
    0,
    0,
    0,
    0,
    0,
    0,
    0,
    0,
    0,
    0,
    0,
    0,
    0,
    0,
    0,
    0,
    0,
    0,
    0,
    0,
    0,
    0,
    0,
    0,
    0,
    0,
    0,
    0,
    0,
    0,
    0,
    0,
    0,
    0,
    0,
    0,
    0,
    0,
    0,
    0,
    0,
    0,
    0,
    0,
    0,
    0,
    0,
    0,
    0,
    0,
    0,
    0,
    0,
    0,
    0,
    0,
    0,
    0,
    0,
    0,
    0,
    0,
    0,
    0,
    0,
    0,
    0,
    0,
    0,
    0,
    0,
    0,
    0,
    0,
    0,
    0,
    0,
    0,
    0,
    0,
    0,
    0,
    0,
    0,
    0,
    0,
    0,
    0,
    0,
    0,
    0,
    0,
    0,
    0,
    0,
    0,
    0,
    0,
    0,
    0,
    0,
    0,
    0,
    0,
    0,
    0,
    0,
    0,
    0,
    0,
    0,
    0,
    0,
    0,
    0,
    0,
    0,
    0,
    0,
    0,
    0,
    0,
    0,
    0,
    0,
    0,
    0,
    0,
    0,
    0,
    0,
    0,
    0,
    0,
    0,
    0,
    0,
    0,
    0,
    0,
    0,
    0,
    0,
    0,
    0,
    0,
    0,
    0,
    0,
    0,
    0,
    0,
    0,
    0,
    0,
    0,
    0,
    0,
    0,
    0,
    0,
    0,
    0,
    0,
    0,
    0,
    0,
    0,
    0,
    0,
    0,
    0,
    0,
    0,
    0,
    0,
    0,
    0,
    0,
    0,
    0,
    0,
    0,
    0,
    0,
    0,
    0,
    0,
    0,
    0,
    0,
    0,
    0,
    0,
    0,
    0,
    0,
    0,
    0,
    0,
    0,
    0,
    0,
    0,
    0,
    0,
    0,
    0,
    0,
    0,
    0,
    0,
    0,
    0,
    0,
    0,
    0,
    0,
    0,
    0,
    0,
    0,
    0,
    0,
    0,
    0,
    0,
    0,
    0,
    0,
    0,
    0,
    0,
    0,
    0,
    0,
    0,
    0,
    0,
    0,
    0,
    0,
    0,
    0,
    0,
    0,
    0,
    0,
    0,
    0,
    0,
    0,
    0,
    0,
    0,
    0,
    0,
    0,
    0,
    0,
    0,
    0,
    0,
    0,
    0,
    0,
    0,
    0,
    0,
    0,
    0,
    0,
    0,
    0,
    0,
    0,
    0,
    0,
    0,
    0,
    0,
    0,
    0,
    0,
    0,
    0,
    0,
    0,
    0,
    0,
    0,
    0,
    0,
    0,
    0,
    0,
    0,
    0,
    0,
    0,
    0,
    0,
    0,
    0,
    0,
    0,
    0,
    0,
    0,
    0,
    0,
    0,
    0,
    0,
    0,
    0,
    0,
    0,
    0,
    0,
    0,
    0,
    0,
    0,
    0,
    0,
    0,
    0,
    0,
    0,
    0,
    0,
    0,
    0,
    0,
    0,
    0,
    0,
    0,
    0,
    0,
    0,
    0,
    0,
    0,
    0,
    0,
    0,
    0,
    0,
    0,
    0,
    0,
    0,
    0,
    0,
    0,
    0,
    0,
    0,
    0,
    0,
    0,
    0,
    0,
    0,
    0,
    0,
    0,
    0,
    0,
    0,
    0,
    0,
    0,
    0,
    0,
    0,
    0,
    0,
    0,
    0,
    0,
    0,
    0,
    0,
    0,
    0,
    0,
    0,
    0,
    0,
    0,
    0,
    0,
    0,
    0,
    0,
    0,
    0,
    0,
    0,
    0,
    0,
    0,
    0,
    0,
    0,
    0,
    0,
    0,
    0,
    0,
    0,
    0,
    0,
    0,
    0,
    0,
    0,
    0,
    0,
    0,
    0,
    0,
    0,
    0,
    0,
    0,
    0,
    0,
    0,
    0,
    0,
    0,
    0,
    0,
    0,
    0,
    0,
    0,
    0,
    0,
    0,
    0,
    0,
    0,
    0,
    0,
    0,
    0,
    0,
    0,
    0,
    0,
    0,
    0,
    0,
    0,
    0,
    0,
    0,
    0,
    0,
    0,
    0,
    0,
    0,
    0,
    0,
    0,
    0,
    0,
    0,
    0,
    0,
    0,
    0,
    0,
    0,
    0,
    0,
    0,
    0,
    0,
    0,
    0,
    0,
    0,
    0,
    0,
    0,
    0,
    0,
    0,
    0,
    0,
    0,
    0,
    0,
    0,
    0,
    0,
    0,
    0,
    0,
    0,
    0,
    0,
    0,
    0,
    0,
    0,
    0,
    0,
    0,
    0,
    0,
    0,
    0,
    0,
    0,
    0,
    0,
    0,
    0,
    0,
    0,
    0,
    0,
    0,
    0,
    0,
    0,
    0,
    0,
    0,
    0,
    0,
    0,
    0,
    0,
    0,
    0,
    0,
    0,
    0,
    0,
    0,
    0,
    0,
    0,
    0,
    0,
    0,
    0,
    0,
    0,
    0,
    0,
    0,
    0,
    0,
    0,
    0,
    0,
    0,
    0,
    0,
    0,
    0,
    0,
    0,
    0,
    0,
    0,
    0,
    0,
    0,
    0,
    0,
    0,
    0,
    0,
    0,
    0,
    0,
    0,
    0,
    0,
    0,
    0,
    0,
    0,
    0,
    0,
    0,
    0,
    0,
    0,
    0,
    0,
    0,
    0,
    0,
    0,
    0,
    0,
    0,
    0,
    0,
    0,
    0,
    0,
    0,
    0,
    0,
    0,
    0,
    0,
    0,
    0,
    0,
    0,
    0,
    0,
    0,
    0,
    0,
    0,
    0,
    0,
    0,
    0,
    0,
    0,
    0,
    0,
    0,
    0,
    0,
    0,
    0,
    0,
    0,
    0,
    0,
    0,
    0,
    0,
    0,
    0,
    0,
    0,
    0,
    0,
    0,
    0,
    0,
    0,
    0,
    0,
    0,
    0,
    0,
    0,
    0,
    0,
    0,
    0,
    0,
    0,
    0,
    0,
    0,
    0,
    0,
    0,
    0,
    0,
    0,
    0,
    0,
    0,
    0,
    0,
    0,
    0,
    0,
    0,
    0,
    0,
    0,
    0,
    0,
    0,
    0,
    0,
    0,
    0,
    0,
    0,
    0,
    0,
    0,
    0,
    0,
    0,
    0,
    0,
    0,
    0,
    0,
    0,
    0,
    0,
    0,
    0,
    0,
    0,
    0,
    0,
    0,
    0,
    0,
    0,
    0,
    0,
    0,
    0,
    0,
    0,
    0,
    0,
    0,
    0,
    0,
    0,
    0,
    0,
    0,
    0,
    0,
    0,
    0,
    0,
    0,
    0,
    0,
    0,
    0,
    0,
    0,
    0,
    0,
    0,
    0,
    0,
    0,
    0,
    0,
    0,
    0,
    0,
    0,
    0,
    0,
    0,
    0,
    0,
    0,
    0,
    0,
    0,
    0,
    0,
    0,
    0,
    0,
    0,
    0,
    0,
    0,
    0,
    0,
    0,
    0,
    0,
    0,
    0,
    0,
    0,
    0,
    0,
    0,
    0,
    0,
    0,
    0,
    0,
    0,
    0,
    0,
    0,
    0,
    0,
    0,
    0,
    0,
    0,
    0,
    0,
    0,
    0,
    0,
    0,
    0,
    0,
    0,
    0,
    0,
    0,
    0,
    0,
    0,
    0,
    0,
    0,
    0,
    0,
    0,
    0,
    0,
    0,
    0,
    0,
    0,
    0,
    0,
    0,
    0,
    0,
    0,
    0,
    0,
    0,
    0,
    0,
    0,
    0,
    0,
    0,
    0,
    0,
    0,
    0,
    0,
    0,
    0,
    0,
    0,
    0,
    0,
    0,
    0,
    0,
    0,
    0,
    0,
    0,
    0,
    0,
    0,
    0,
    0,
    0,
    0,
    0,
    0,
    0,
    0,
    0,
    0,
    0,
    0,
    0,
    0,
    0,
    0,
    0,
    0,
    0,
    0,
    0,
    0,
    0,
    0,
    0,
    0,
    0,
    0,
    0,
    0,
    0,
    0,
    0,
    0,
    0,
    0,
    0,
    0,
    0,
    0,
    0,
    0,
    0,
    0,
    0,
    0,
    0,
    0,
    0,
    0,
    0,
    0,
    0,
    0,
    0,
    0,
    0,
    0,
    0,
    0,
    0,
    0,
    0,
    0,
    0,
    0,
    0,
    0,
    0,
    0,
    0,
    0,
    0,
    0,
    0,
    0,
    0,
    0,
    0,
    0,
    0,
    0,
    0,
    0,
    0,
    0,
    0,
    0,
    0,
    0,
    0,
    0,
    0,
    0,
    0,
    0,
    0,
    0,
    0,
    0,
    0,
    0,
    0,
    0,
    0,
    0,
    0,
    0,
    0,
    0,
    0,
    0,
    0,
    0,
    0,
    0,
    0,
    0,
    0,
    0,
    0,
    0,
    0,
    0,
    0,
    0,
    0,
    0,
    0,
    0,
    0,
    0,
    0,
    0,
    0,
    0,
    0,
    0,
    0,
    0,
    0,
    0,
    0,
    0,
    0,
    0,
    0,
    0,
    0,
    0,
    0,
    0,
    0,
    0,
    0,
    0,
    0,
    0,
    0,
    0,
    0,
    0,
    0,
    0,
    0,
    0,
    0,
    0,
    0,
    0,
    0,
    0,
    0,
    0,
    0,
    0,
    0,
    0,
    0,
    0,
    0,
    0,
    0,
    0,
    0,
    0,
    0,
    0,
    0,
    0,
    0,
    0,
    0,
    0,
    0,
    0,
    0,
    0,
    0,
    0,
    0,
    0,
    0,
    0,
    0,
    0,
    0,
    0,
    0,
    0,
    0,
    0,
    0,
    0,
    0,
    0,
    0,
    0,
    0,
    0,
    0,
    0
   ],
   "properties": [
    {
     "name": "gv2layer",
     "type": "string",
     "value": "Water"
    },
    {
     "name": "z",
     "type": "int",
     "value": 1
    },
    {
     "name": "collision",
     "type": "bool",
     "value": false
    }
   ]
  },
  {
   "type": "tilelayer",
   "id": 4,
   "name": "Collidables",
   "width": 48,
   "height": 34,
   "x": 0,
   "y": 0,
   "opacity": 1,
   "visible": true,
   "data": [
    0,
    0,
    0,
    0,
    0,
    0,
    0,
    0,
    0,
    0,
    0,
    0,
    0,
    0,
    0,
    0,
    0,
    0,
    0,
    0,
    0,
    0,
    0,
    0,
    0,
    0,
    0,
    0,
    0,
    0,
    0,
    0,
    0,
    0,
    0,
    0,
    0,
    0,
    0,
    0,
    0,
    0,
    0,
    0,
    0,
    0,
    0,
    0,
    0,
    0,
    0,
    0,
    0,
    0,
    0,
    0,
    0,
    0,
    0,
    0,
    0,
    0,
    0,
    0,
    0,
    0,
    0,
    0,
    0,
    0,
    0,
    0,
    0,
    0,
    0,
    0,
    0,
    0,
    0,
    0,
    0,
    0,
    0,
    0,
    0,
    0,
    0,
    0,
    0,
    0,
    0,
    0,
    0,
    0,
    0,
    0,
    0,
    0,
    0,
    80,
    0,
    0,
    0,
    0,
    80,
    0,
    0,
    0,
    0,
    80,
    0,
    0,
    0,
    0,
    0,
    0,
    0,
    0,
    0,
    0,
    0,
    0,
    0,
    0,
    0,
    0,
    0,
    0,
    0,
    0,
    80,
    0,
    0,
    0,
    0,
    80,
    0,
    0,
    0,
    0,
    80,
    0,
    0,
    0,
    0,
    0,
    0,
    0,
    0,
    0,
    0,
    0,
    0,
    0,
    0,
    0,
    0,
    0,
    0,
    0,
    0,
    0,
    0,
    0,
    0,
    0,
    0,
    0,
    0,
    0,
    0,
    0,
    0,
    0,
    0,
    0,
    0,
    0,
    0,
    0,
    0,
    0,
    0,
    0,
    0,
    0,
    0,
    0,
    0,
    0,
    0,
    0,
    0,
    0,
    0,
    0,
    0,
    80,
    0,
    0,
    0,
    0,
    0,
    0,
    0,
    0,
    80,
    0,
    0,
    0,
    0,
    0,
    0,
    0,
    0,
    0,
    0,
    0,
    0,
    0,
    0,
    0,
    0,
    0,
    0,
    0,
    0,
    0,
    0,
    0,
    0,
    0,
    0,
    0,
    0,
    0,
    0,
    0,
    0,
    0,
    0,
    0,
    0,
    0,
    0,
    0,
    0,
    0,
    0,
    0,
    80,
    0,
    0,
    0,
    0,
    0,
    0,
    0,
    0,
    0,
    0,
    0,
    0,
    0,
    0,
    0,
    0,
    0,
    0,
    0,
    0,
    0,
    0,
    0,
    0,
    0,
    0,
    0,
    0,
    0,
    0,
    0,
    0,
    0,
    0,
    0,
    0,
    0,
    0,
    0,
    0,
    0,
    0,
    0,
    0,
    0,
    0,
    0,
    0,
    0,
    0,
    0,
    0,
    0,
    0,
    0,
    0,
    0,
    0,
    0,
    0,
    0,
    0,
    0,
    0,
    0,
    0,
    0,
    0,
    0,
    0,
    0,
    0,
    0,
    0,
    0,
    0,
    0,
    0,
    0,
    0,
    0,
    0,
    0,
    0,
    0,
    0,
    0,
    0,
    0,
    0,
    0,
    0,
    0,
    0,
    0,
    0,
    0,
    0,
    0,
    0,
    0,
    0,
    0,
    0,
    0,
    74,
    0,
    0,
    0,
    0,
    0,
    0,
    0,
    74,
    0,
    0,
    0,
    0,
    0,
    0,
    0,
    0,
    0,
    0,
    0,
    0,
    0,
    0,
    0,
    0,
    0,
    0,
    0,
    0,
    0,
    0,
    0,
    0,
    0,
    0,
    0,
    0,
    0,
    0,
    0,
    86,
    0,
    0,
    0,
    0,
    0,
    0,
    0,
    0,
    0,
    0,
    0,
    0,
    0,
    0,
    0,
    0,
    0,
    0,
    0,
    0,
    0,
    0,
    86,
    0,
    0,
    0,
    0,
    0,
    0,
    0,
    0,
    0,
    0,
    0,
    0,
    0,
    0,
    0,
    0,
    0,
    0,
    0,
    0,
    0,
    0,
    0,
    0,
    0,
    0,
    0,
    0,
    0,
    0,
    0,
    0,
    0,
    0,
    0,
    0,
    0,
    0,
    0,
    0,
    0,
    0,
    0,
    0,
    0,
    0,
    0,
    0,
    0,
    0,
    0,
    0,
    0,
    0,
    0,
    0,
    0,
    0,
    0,
    0,
    0,
    0,
    0,
    0,
    0,
    0,
    0,
    0,
    0,
    0,
    0,
    0,
    0,
    0,
    0,
    0,
    0,
    0,
    0,
    0,
    0,
    0,
    0,
    0,
    0,
    0,
    0,
    0,
    0,
    0,
    0,
    0,
    0,
    0,
    0,
    0,
    0,
    0,
    0,
    0,
    0,
    0,
    0,
    0,
    0,
    0,
    0,
    0,
    0,
    0,
    0,
    0,
    0,
    0,
    0,
    0,
    0,
    0,
    0,
    0,
    0,
    0,
    0,
    0,
    0,
    0,
    0,
    0,
    0,
    74,
    0,
    0,
    0,
    0,
    74,
    0,
    0,
    0,
    0,
    0,
    0,
    0,
    0,
    0,
    0,
    0,
    0,
    0,
    0,
    0,
    0,
    0,
    0,
    0,
    0,
    0,
    0,
    0,
    0,
    0,
    0,
    0,
    0,
    0,
    0,
    0,
    0,
    0,
    0,
    0,
    0,
    0,
    0,
    0,
    0,
    0,
    0,
    0,
    0,
    0,
    0,
    0,
    0,
    0,
    0,
    0,
    0,
    0,
    0,
    0,
    0,
    0,
    0,
    0,
    0,
    0,
    0,
    0,
    0,
    0,
    0,
    0,
    0,
    0,
    0,
    0,
    0,
    0,
    0,
    0,
    0,
    0,
    0,
    0,
    0,
    0,
    0,
    0,
    0,
    0,
    0,
    0,
    0,
    0,
    0,
    0,
    0,
    0,
    0,
    0,
    0,
    0,
    0,
    0,
    0,
    0,
    0,
    0,
    0,
    0,
    0,
    0,
    0,
    0,
    0,
    0,
    0,
    0,
    0,
    0,
    0,
    0,
    0,
    0,
    0,
    0,
    0,
    0,
    4,
    0,
    0,
    0,
    0,
    0,
    0,
    0,
    0,
    0,
    0,
    0,
    0,
    0,
    0,
    0,
    0,
    0,
    0,
    0,
    0,
    0,
    0,
    0,
    0,
    0,
    0,
    0,
    4,
    0,
    0,
    0,
    0,
    0,
    0,
    0,
    0,
    0,
    0,
    0,
    0,
    0,
    0,
    0,
    0,
    0,
    0,
    0,
    0,
    0,
    0,
    0,
    0,
    0,
    0,
    0,
    0,
    0,
    0,
    0,
    0,
    0,
    0,
    0,
    0,
    0,
    0,
    0,
    0,
    0,
    0,
    0,
    0,
    0,
    0,
    0,
    0,
    0,
    0,
    0,
    0,
    0,
    0,
    0,
    0,
    0,
    0,
    0,
    0,
    0,
    0,
    0,
    0,
    0,
    0,
    0,
    0,
    0,
    0,
    0,
    0,
    0,
    0,
    0,
    0,
    0,
    0,
    0,
    0,
    0,
    0,
    0,
    0,
    0,
    0,
    0,
    0,
    0,
    0,
    0,
    0,
    0,
    0,
    0,
    0,
    0,
    0,
    0,
    0,
    0,
    0,
    0,
    0,
    0,
    0,
    0,
    0,
    0,
    0,
    0,
    0,
    0,
    0,
    0,
    0,
    0,
    0,
    4,
    0,
    0,
    0,
    0,
    0,
    4,
    0,
    0,
    0,
    0,
    74,
    0,
    0,
    0,
    0,
    0,
    0,
    4,
    0,
    74,
    0,
    0,
    0,
    0,
    0,
    0,
    0,
    4,
    0,
    0,
    0,
    0,
    0,
    4,
    0,
    0,
    0,
    0,
    0,
    0,
    0,
    0,
    0,
    0,
    0,
    0,
    0,
    0,
    0,
    0,
    0,
    0,
    0,
    0,
    0,
    0,
    0,
    0,
    0,
    0,
    0,
    0,
    0,
    0,
    0,
    0,
    0,
    0,
    0,
    0,
    0,
    0,
    0,
    0,
    0,
    86,
    0,
    0,
    0,
    0,
    86,
    0,
    0,
    0,
    0,
    0,
    0,
    0,
    0,
    0,
    0,
    0,
    0,
    0,
    0,
    0,
    0,
    0,
    0,
    0,
    0,
    0,
    0,
    0,
    0,
    0,
    0,
    0,
    0,
    0,
    0,
    0,
    0,
    0,
    0,
    0,
    0,
    0,
    0,
    0,
    0,
    0,
    0,
    0,
    0,
    0,
    0,
    0,
    0,
    0,
    74,
    0,
    86,
    0,
    0,
    0,
    0,
    0,
    0,
    0,
    0,
    0,
    0,
    0,
    0,
    0,
    0,
    0,
    0,
    0,
    0,
    0,
    0,
    0,
    0,
    0,
    0,
    0,
    0,
    0,
    0,
    0,
    0,
    0,
    0,
    0,
    0,
    0,
    0,
    0,
    0,
    0,
    0,
    0,
    0,
    0,
    0,
    0,
    0,
    0,
    0,
    0,
    0,
    0,
    0,
    0,
    0,
    0,
    0,
    0,
    0,
    0,
    0,
    0,
    0,
    0,
    0,
    0,
    0,
    0,
    0,
    0,
    0,
    0,
    0,
    0,
    0,
    0,
    0,
    0,
    0,
    0,
    0,
    0,
    0,
    0,
    0,
    0,
    0,
    0,
    0,
    0,
    0,
    0,
    0,
    0,
    0,
    0,
    0,
    0,
    0,
    0,
    0,
    0,
    0,
    0,
    0,
    0,
    0,
    0,
    0,
    0,
    0,
    0,
    0,
    0,
    0,
    0,
    0,
    0,
    0,
    0,
    0,
    0,
    0,
    0,
    0,
    0,
    0,
    0,
    0,
    0,
    0,
    0,
    0,
    0,
    0,
    0,
    0,
    0,
    0,
    0,
    0,
    0,
    0,
    0,
    86,
    0,
    0,
    0,
    0,
    0,
    0,
    0,
    0,
    0,
    0,
    0,
    0,
    0,
    0,
    0,
    0,
    0,
    0,
    0,
    0,
    0,
    0,
    0,
    0,
    0,
    0,
    0,
    0,
    0,
    0,
    0,
    0,
    0,
    0,
    0,
    0,
    0,
    0,
    0,
    0,
    0,
    0,
    0,
    0,
    0,
    74,
    0,
    0,
    0,
    0,
    0,
    0,
    0,
    0,
    0,
    0,
    0,
    0,
    0,
    0,
    0,
    0,
    0,
    0,
    0,
    0,
    0,
    0,
    0,
    0,
    0,
    0,
    0,
    0,
    0,
    0,
    0,
    0,
    0,
    0,
    0,
    0,
    0,
    0,
    0,
    0,
    0,
    0,
    0,
    0,
    0,
    0,
    0,
    0,
    0,
    0,
    0,
    0,
    0,
    0,
    0,
    0,
    0,
    0,
    0,
    0,
    0,
    0,
    0,
    0,
    0,
    0,
    0,
    0,
    0,
    0,
    0,
    74,
    0,
    0,
    0,
    0,
    0,
    0,
    0,
    0,
    74,
    0,
    0,
    0,
    0,
    0,
    0,
    0,
    0,
    0,
    0,
    0,
    0,
    0,
    0,
    0,
    0,
    0,
    0,
    0,
    0,
    0,
    0,
    0,
    0,
    0,
    0,
    0,
    0,
    0,
    0,
    0,
    0,
    0,
    0,
    0,
    0,
    0,
    0,
    0,
    0,
    0,
    0,
    0,
    0,
    0,
    0,
    0,
    0,
    0,
    0,
    0,
    0,
    0,
    0,
    0,
    0,
    0,
    0,
    0,
    0,
    0,
    0,
    0,
    0,
    0,
    0,
    0,
    0,
    0,
    0,
    0,
    0,
    0,
    0,
    0,
    0,
    0,
    0,
    0,
    0,
    0,
    0,
    0,
    0,
    0,
    0,
    0,
    0,
    0,
    0,
    0,
    0,
    0,
    0,
    0,
    0,
    0,
    0,
    0,
    0,
    0,
    0,
    0,
    0,
    0,
    0,
    0,
    0,
    0,
    0,
    0,
    0,
    0,
    0,
    0,
    0,
    0,
    18,
    19,
    19,
    19,
    19,
    19,
    19,
    19,
    19,
    19,
    19,
    19,
    19,
    19,
    19,
    19,
    19,
    19,
    19,
    20,
    0,
    0,
    18,
    19,
    19,
    19,
    19,
    19,
    19,
    19,
    19,
    19,
    19,
    19,
    19,
    19,
    19,
    19,
    19,
    19,
    19,
    20,
    0,
    0,
    0,
    0,
    0,
    0,
    0,
    0,
    0,
    0,
    0,
    0,
    0,
    0,
    0,
    0,
    0,
    0,
    0,
    0,
    0,
    0,
    0,
    0,
    0,
    0,
    0,
    0,
    0,
    0,
    0,
    0,
    0,
    0,
    0,
    0,
    0,
    0,
    0,
    0,
    0,
    0,
    0,
    0,
    0,
    0,
    0,
    0,
    0,
    0,
    0,
    0,
    0,
    0,
    0,
    0,
    0,
    0,
    0,
    0,
    0,
    0,
    0,
    0,
    0,
    0,
    0,
    0,
    0,
    0,
    0,
    0,
    0,
    0,
    0,
    0,
    0,
    0,
    0,
    0,
    0,
    0,
    0,
    0,
    0,
    0,
    0,
    0,
    0,
    0,
    0,
    0,
    0,
    0,
    0,
    0,
    0,
    0,
    0,
    0,
    0,
    0,
    0,
    0,
    0,
    0,
    0,
    0,
    0,
    0,
    0,
    0,
    0,
    0,
    0,
    0,
    0,
    0,
    0,
    0,
    0,
    0,
    0,
    0,
    0,
    0,
    0,
    0,
    0,
    0,
    0,
    0,
    0,
    0,
    0,
    0,
    0,
    0,
    0,
    0,
    0,
    0,
    0,
    0,
    0,
    0,
    0,
    0,
    0,
    0,
    0,
    80,
    0,
    0,
    0,
    0,
    80,
    0,
    0,
    0,
    0,
    80,
    0,
    0,
    0,
    0,
    80,
    0,
    0,
    0,
    0,
    80,
    0,
    0,
    0,
    0,
    80,
    0,
    0,
    0,
    0,
    80,
    0,
    0,
    0,
    0,
    80,
    0,
    0,
    0,
    0,
    80,
    0,
    0,
    0,
    0,
    0,
    0,
    0,
    0,
    0,
    0,
    0,
    0,
    0,
    0,
    0,
    0,
    0,
    0,
    0,
    0,
    0,
    0,
    0,
    0,
    0,
    0,
    0,
    0,
    0,
    0,
    0,
    0,
    0,
    0,
    0,
    0,
    0,
    0,
    0,
    0,
    0,
    0,
    0,
    0,
    0,
    0,
    0,
    0,
    0,
    0,
    0
   ],
   "properties": [
    {
     "name": "gv2layer",
     "type": "string",
     "value": "Collidables"
    },
    {
     "name": "z",
     "type": "int",
     "value": 5
    },
    {
     "name": "collision",
     "type": "bool",
     "value": false
    }
   ]
  },
  {
   "type": "objectgroup",
   "id": 5,
   "name": "Collidables \u00b7obj",
   "x": 0,
   "y": 0,
   "opacity": 1,
   "visible": true,
   "draworder": "index",
   "objects": [
    {
     "id": 1,
     "gid": 85,
     "name": "shrub-large-circle_0_0",
     "x": 0,
     "y": 704,
     "width": 128,
     "height": 128,
     "visible": true
    },
    {
     "id": 2,
     "gid": 85,
     "name": "shrub-large-circle_0_0",
     "x": 0,
     "y": 896,
     "width": 128,
     "height": 128,
     "visible": true
    },
    {
     "id": 3,
     "gid": 85,
     "name": "shrub-large-circle_0_0",
     "x": 0,
     "y": 1088,
     "width": 128,
     "height": 128,
     "visible": true
    },
    {
     "id": 4,
     "gid": 85,
     "name": "shrub-large-circle_0_0",
     "x": 0,
     "y": 128,
     "width": 128,
     "height": 128,
     "visible": true
    },
    {
     "id": 5,
     "gid": 85,
     "name": "shrub-large-circle_0_0",
     "x": 0,
     "y": 1280,
     "width": 128,
     "height": 128,
     "visible": true
    },
    {
     "id": 6,
     "gid": 85,
     "name": "shrub-large-circle_0_0",
     "x": 0,
     "y": 1472,
     "width": 128,
     "height": 128,
     "visible": true
    },
    {
     "id": 7,
     "gid": 85,
     "name": "shrub-large-circle_0_0",
     "x": 0,
     "y": 1664,
     "width": 128,
     "height": 128,
     "visible": true
    },
    {
     "id": 8,
     "gid": 85,
     "name": "shrub-large-circle_0_0",
     "x": 0,
     "y": 320,
     "width": 128,
     "height": 128,
     "visible": true
    },
    {
     "id": 9,
     "gid": 85,
     "name": "shrub-large-circle_0_0",
     "x": 0,
     "y": 512,
     "width": 128,
     "height": 128,
     "visible": true
    },
    {
     "id": 10,
     "gid": 34,
     "name": "fox-statue-base-1_0_0",
     "x": 1344,
     "y": 256,
     "width": 64,
     "height": 128,
     "visible": true
    },
    {
     "id": 11,
     "gid": 87,
     "name": "torii-red-feet_0_0",
     "x": 1408,
     "y": 896,
     "width": 256,
     "height": 128,
     "visible": true
    },
    {
     "id": 12,
     "gid": 84,
     "name": "shrine-building_0_0",
     "x": 1472,
     "y": 64,
     "width": 192,
     "height": 384,
     "visible": true
    },
    {
     "id": 13,
     "gid": 76,
     "name": "red-pagoda-small-base_0_0",
     "x": 1536,
     "y": 1280,
     "width": 128,
     "height": 192,
     "visible": true
    },
    {
     "id": 14,
     "gid": 34,
     "name": "fox-statue-base-1_0_0",
     "x": 1728,
     "y": 256,
     "width": 64,
     "height": 128,
     "visible": true
    },
    {
     "id": 15,
     "gid": 9,
     "name": "building-rafter-blue_0_0",
     "x": 1792,
     "y": 768,
     "width": 192,
     "height": 64,
     "visible": true
    },
    {
     "id": 16,
     "gid": 15,
     "name": "building-tier-blue_0_0",
     "x": 1792,
     "y": 832,
     "width": 192,
     "height": 64,
     "visible": true
    },
    {
     "id": 17,
     "gid": 5,
     "name": "building-entrance-1_0_0",
     "x": 1792,
     "y": 896,
     "width": 192,
     "height": 64,
     "visible": true
    },
    {
     "id": 18,
     "gid": 2,
     "name": "bell-blue-baseless_0_0",
     "x": 1856,
     "y": 192,
     "width": 128,
     "height": 128,
     "visible": true
    },
    {
     "id": 19,
     "gid": 8,
     "name": "building-rafter-black_0_0",
     "x": 2112,
     "y": 704,
     "width": 192,
     "height": 64,
     "visible": true
    },
    {
     "id": 20,
     "gid": 14,
     "name": "building-tier-black_0_0",
     "x": 2112,
     "y": 768,
     "width": 192,
     "height": 64,
     "visible": true
    },
    {
     "id": 21,
     "gid": 6,
     "name": "building-entrance-2_0_0",
     "x": 2112,
     "y": 832,
     "width": 192,
     "height": 64,
     "visible": true
    },
    {
     "id": 22,
     "gid": 89,
     "name": "tree-3-base-shadow_0_0",
     "x": 2176,
     "y": 256,
     "width": 128,
     "height": 64,
     "visible": true
    },
    {
     "id": 23,
     "gid": 89,
     "name": "tree-3-base-shadow_0_0",
     "x": 2368,
     "y": 704,
     "width": 128,
     "height": 64,
     "visible": true
    },
    {
     "id": 24,
     "gid": 10,
     "name": "building-rafter-red_0_0",
     "x": 2432,
     "y": 768,
     "width": 192,
     "height": 64,
     "visible": true
    },
    {
     "id": 25,
     "gid": 16,
     "name": "building-tier-red_0_0",
     "x": 2432,
     "y": 832,
     "width": 192,
     "height": 64,
     "visible": true
    },
    {
     "id": 26,
     "gid": 7,
     "name": "building-entrance-3_0_0",
     "x": 2432,
     "y": 896,
     "width": 192,
     "height": 64,
     "visible": true
    },
    {
     "id": 27,
     "gid": 89,
     "name": "tree-3-base-shadow_0_0",
     "x": 2624,
     "y": 256,
     "width": 128,
     "height": 64,
     "visible": true
    },
    {
     "id": 28,
     "gid": 9,
     "name": "building-rafter-blue_0_0",
     "x": 2752,
     "y": 768,
     "width": 192,
     "height": 64,
     "visible": true
    },
    {
     "id": 29,
     "gid": 15,
     "name": "building-tier-blue_0_0",
     "x": 2752,
     "y": 832,
     "width": 192,
     "height": 64,
     "visible": true
    },
    {
     "id": 30,
     "gid": 5,
     "name": "building-entrance-1_0_0",
     "x": 2752,
     "y": 896,
     "width": 192,
     "height": 64,
     "visible": true
    },
    {
     "id": 31,
     "gid": 85,
     "name": "shrub-large-circle_0_0",
     "x": 2944,
     "y": 704,
     "width": 128,
     "height": 128,
     "visible": true
    },
    {
     "id": 32,
     "gid": 85,
     "name": "shrub-large-circle_0_0",
     "x": 2944,
     "y": 896,
     "width": 128,
     "height": 128,
     "visible": true
    },
    {
     "id": 33,
     "gid": 85,
     "name": "shrub-large-circle_0_0",
     "x": 2944,
     "y": 1088,
     "width": 128,
     "height": 128,
     "visible": true
    },
    {
     "id": 34,
     "gid": 85,
     "name": "shrub-large-circle_0_0",
     "x": 2944,
     "y": 128,
     "width": 128,
     "height": 128,
     "visible": true
    },
    {
     "id": 35,
     "gid": 85,
     "name": "shrub-large-circle_0_0",
     "x": 2944,
     "y": 1472,
     "width": 128,
     "height": 128,
     "visible": true
    },
    {
     "id": 36,
     "gid": 85,
     "name": "shrub-large-circle_0_0",
     "x": 2944,
     "y": 1664,
     "width": 128,
     "height": 128,
     "visible": true
    },
    {
     "id": 37,
     "gid": 85,
     "name": "shrub-large-circle_0_0",
     "x": 2944,
     "y": 320,
     "width": 128,
     "height": 128,
     "visible": true
    },
    {
     "id": 38,
     "gid": 85,
     "name": "shrub-large-circle_0_0",
     "x": 2944,
     "y": 512,
     "width": 128,
     "height": 128,
     "visible": true
    },
    {
     "id": 39,
     "gid": 83,
     "name": "seven-eleven_0_0",
     "x": 448,
     "y": 704,
     "width": 192,
     "height": 256,
     "visible": true
    }
   ],
   "properties": [
    {
     "name": "gv2layer",
     "type": "string",
     "value": "Collidables"
    },
    {
     "name": "z",
     "type": "int",
     "value": 5
    },
    {
     "name": "collision",
     "type": "bool",
     "value": false
    }
   ]
  },
  {
   "type": "tilelayer",
   "id": 6,
   "name": "Other",
   "width": 48,
   "height": 34,
   "x": 0,
   "y": 0,
   "opacity": 1,
   "visible": true,
   "data": [
    0,
    0,
    0,
    0,
    0,
    0,
    0,
    0,
    0,
    0,
    0,
    0,
    0,
    0,
    0,
    0,
    0,
    0,
    0,
    0,
    0,
    0,
    0,
    0,
    0,
    0,
    0,
    0,
    0,
    0,
    0,
    0,
    0,
    0,
    0,
    0,
    0,
    0,
    0,
    0,
    0,
    0,
    0,
    0,
    0,
    0,
    0,
    0,
    0,
    0,
    0,
    0,
    0,
    0,
    0,
    0,
    0,
    0,
    0,
    0,
    0,
    0,
    0,
    0,
    0,
    0,
    0,
    0,
    0,
    0,
    0,
    0,
    0,
    0,
    0,
    0,
    0,
    0,
    0,
    0,
    0,
    0,
    0,
    0,
    0,
    0,
    0,
    0,
    0,
    0,
    0,
    0,
    0,
    0,
    0,
    0,
    0,
    0,
    0,
    0,
    0,
    0,
    0,
    0,
    0,
    0,
    0,
    0,
    0,
    0,
    0,
    0,
    0,
    0,
    0,
    0,
    0,
    0,
    0,
    0,
    0,
    0,
    0,
    0,
    0,
    0,
    0,
    0,
    0,
    0,
    0,
    0,
    0,
    0,
    0,
    0,
    0,
    0,
    0,
    0,
    0,
    0,
    0,
    0,
    0,
    0,
    0,
    0,
    0,
    0,
    0,
    0,
    0,
    0,
    0,
    0,
    0,
    0,
    0,
    0,
    0,
    0,
    0,
    0,
    0,
    0,
    0,
    0,
    0,
    0,
    0,
    0,
    0,
    0,
    0,
    0,
    0,
    0,
    0,
    0,
    0,
    0,
    0,
    0,
    0,
    0,
    0,
    0,
    0,
    0,
    0,
    0,
    0,
    0,
    0,
    0,
    0,
    0,
    0,
    0,
    0,
    0,
    0,
    0,
    0,
    0,
    0,
    0,
    0,
    0,
    0,
    0,
    0,
    0,
    0,
    0,
    0,
    0,
    0,
    0,
    0,
    0,
    0,
    0,
    0,
    0,
    0,
    0,
    0,
    0,
    0,
    0,
    0,
    0,
    0,
    0,
    0,
    0,
    0,
    0,
    0,
    0,
    0,
    0,
    0,
    0,
    0,
    0,
    0,
    0,
    0,
    0,
    0,
    0,
    0,
    0,
    0,
    0,
    0,
    0,
    0,
    0,
    0,
    0,
    0,
    0,
    0,
    0,
    0,
    0,
    0,
    0,
    0,
    0,
    0,
    0,
    0,
    0,
    0,
    0,
    0,
    0,
    0,
    0,
    0,
    0,
    0,
    0,
    0,
    0,
    0,
    0,
    0,
    0,
    0,
    0,
    0,
    0,
    0,
    0,
    0,
    0,
    0,
    0,
    0,
    0,
    0,
    0,
    0,
    0,
    0,
    0,
    0,
    0,
    0,
    0,
    0,
    0,
    0,
    0,
    0,
    0,
    0,
    0,
    0,
    0,
    0,
    0,
    0,
    0,
    0,
    0,
    0,
    0,
    0,
    0,
    0,
    0,
    0,
    0,
    0,
    0,
    0,
    0,
    0,
    0,
    0,
    0,
    0,
    0,
    0,
    0,
    0,
    0,
    0,
    0,
    0,
    0,
    0,
    0,
    0,
    0,
    0,
    0,
    0,
    0,
    0,
    0,
    0,
    0,
    0,
    0,
    0,
    0,
    0,
    0,
    0,
    0,
    0,
    0,
    0,
    0,
    0,
    0,
    0,
    0,
    0,
    0,
    0,
    0,
    0,
    0,
    0,
    0,
    0,
    0,
    0,
    0,
    0,
    0,
    0,
    0,
    0,
    0,
    0,
    0,
    0,
    0,
    0,
    0,
    0,
    0,
    0,
    0,
    0,
    0,
    0,
    0,
    0,
    0,
    0,
    0,
    0,
    0,
    0,
    0,
    0,
    0,
    0,
    0,
    0,
    0,
    0,
    0,
    0,
    0,
    0,
    0,
    0,
    0,
    0,
    0,
    0,
    0,
    0,
    0,
    0,
    0,
    0,
    0,
    0,
    0,
    0,
    0,
    0,
    0,
    0,
    0,
    0,
    0,
    0,
    0,
    0,
    0,
    0,
    0,
    0,
    0,
    0,
    0,
    0,
    0,
    0,
    0,
    0,
    0,
    0,
    0,
    0,
    0,
    0,
    0,
    0,
    0,
    0,
    0,
    0,
    0,
    0,
    0,
    0,
    0,
    0,
    0,
    0,
    0,
    0,
    0,
    0,
    0,
    0,
    0,
    0,
    0,
    0,
    0,
    0,
    0,
    0,
    0,
    0,
    0,
    0,
    0,
    0,
    0,
    0,
    0,
    0,
    0,
    0,
    0,
    0,
    0,
    0,
    0,
    0,
    0,
    0,
    0,
    0,
    0,
    0,
    0,
    0,
    0,
    0,
    0,
    0,
    0,
    0,
    0,
    0,
    0,
    0,
    0,
    0,
    0,
    0,
    0,
    0,
    0,
    0,
    0,
    0,
    0,
    0,
    0,
    0,
    0,
    0,
    0,
    0,
    0,
    0,
    0,
    0,
    0,
    0,
    0,
    0,
    0,
    0,
    0,
    0,
    0,
    0,
    0,
    0,
    0,
    0,
    0,
    0,
    0,
    0,
    0,
    0,
    0,
    0,
    0,
    0,
    0,
    0,
    0,
    0,
    0,
    0,
    0,
    0,
    0,
    0,
    0,
    0,
    0,
    0,
    0,
    0,
    0,
    0,
    0,
    0,
    0,
    0,
    0,
    0,
    0,
    0,
    0,
    0,
    0,
    0,
    0,
    0,
    0,
    0,
    0,
    0,
    0,
    0,
    0,
    0,
    0,
    0,
    0,
    0,
    0,
    92,
    0,
    79,
    0,
    92,
    0,
    0,
    0,
    0,
    0,
    0,
    0,
    0,
    0,
    0,
    0,
    0,
    0,
    0,
    0,
    0,
    0,
    0,
    0,
    0,
    0,
    0,
    0,
    0,
    0,
    0,
    0,
    0,
    0,
    0,
    0,
    0,
    0,
    0,
    0,
    0,
    0,
    0,
    0,
    0,
    0,
    0,
    0,
    91,
    0,
    78,
    0,
    91,
    0,
    0,
    0,
    0,
    0,
    0,
    0,
    0,
    0,
    0,
    0,
    0,
    0,
    0,
    0,
    0,
    0,
    0,
    0,
    0,
    0,
    0,
    0,
    0,
    0,
    0,
    0,
    0,
    0,
    0,
    0,
    0,
    0,
    0,
    0,
    0,
    0,
    0,
    0,
    0,
    0,
    0,
    0,
    0,
    0,
    0,
    0,
    0,
    0,
    0,
    0,
    0,
    0,
    0,
    0,
    0,
    0,
    0,
    0,
    0,
    0,
    0,
    0,
    0,
    0,
    0,
    0,
    0,
    0,
    0,
    0,
    0,
    0,
    0,
    0,
    0,
    0,
    0,
    0,
    0,
    0,
    0,
    0,
    0,
    0,
    0,
    0,
    0,
    0,
    0,
    0,
    0,
    0,
    0,
    0,
    0,
    0,
    0,
    0,
    0,
    0,
    0,
    0,
    0,
    0,
    0,
    0,
    0,
    0,
    0,
    0,
    0,
    0,
    0,
    0,
    0,
    0,
    0,
    0,
    0,
    0,
    0,
    0,
    0,
    0,
    0,
    0,
    0,
    0,
    0,
    0,
    0,
    0,
    0,
    0,
    0,
    0,
    0,
    0,
    0,
    0,
    0,
    0,
    0,
    0,
    0,
    0,
    0,
    0,
    0,
    0,
    0,
    0,
    0,
    0,
    0,
    0,
    0,
    0,
    0,
    0,
    0,
    0,
    0,
    0,
    0,
    0,
    0,
    0,
    0,
    0,
    0,
    0,
    0,
    0,
    0,
    0,
    0,
    0,
    0,
    0,
    0,
    0,
    0,
    0,
    0,
    0,
    0,
    0,
    0,
    0,
    0,
    0,
    0,
    92,
    0,
    0,
    0,
    0,
    0,
    0,
    0,
    0,
    0,
    0,
    79,
    0,
    0,
    0,
    0,
    0,
    0,
    0,
    0,
    0,
    0,
    0,
    0,
    0,
    0,
    0,
    0,
    0,
    0,
    0,
    0,
    0,
    0,
    0,
    0,
    0,
    0,
    0,
    0,
    0,
    0,
    0,
    0,
    0,
    0,
    0,
    0,
    91,
    0,
    0,
    0,
    0,
    0,
    0,
    0,
    0,
    0,
    0,
    78,
    0,
    0,
    0,
    0,
    0,
    0,
    0,
    0,
    0,
    0,
    0,
    0,
    0,
    0,
    0,
    0,
    0,
    0,
    0,
    0,
    0,
    0,
    0,
    0,
    0,
    0,
    0,
    0,
    0,
    0,
    0,
    0,
    0,
    0,
    0,
    0,
    0,
    0,
    0,
    0,
    0,
    0,
    0,
    0,
    0,
    0,
    0,
    0,
    0,
    0,
    0,
    0,
    0,
    0,
    0,
    0,
    0,
    0,
    0,
    0,
    0,
    0,
    0,
    0,
    0,
    0,
    0,
    0,
    0,
    0,
    0,
    0,
    0,
    0,
    0,
    0,
    0,
    0,
    0,
    0,
    0,
    0,
    0,
    0,
    0,
    0,
    0,
    0,
    0,
    0,
    0,
    0,
    0,
    0,
    0,
    0,
    0,
    0,
    0,
    0,
    0,
    0,
    0,
    0,
    0,
    0,
    0,
    0,
    0,
    0,
    0,
    0,
    0,
    0,
    0,
    0,
    0,
    0,
    0,
    0,
    0,
    0,
    0,
    0,
    0,
    0,
    0,
    0,
    0,
    0,
    0,
    0,
    0,
    0,
    0,
    0,
    0,
    0,
    0,
    0,
    0,
    0,
    0,
    0,
    0,
    0,
    0,
    0,
    0,
    0,
    0,
    0,
    0,
    0,
    0,
    0,
    0,
    0,
    0,
    0,
    0,
    0,
    0,
    0,
    0,
    0,
    0,
    0,
    0,
    0,
    0,
    0,
    0,
    0,
    0,
    0,
    0,
    0,
    0,
    0,
    0,
    0,
    0,
    0,
    0,
    0,
    0,
    0,
    0,
    0,
    0,
    0,
    0,
    0,
    0,
    0,
    0,
    0,
    0,
    0,
    0,
    0,
    0,
    0,
    0,
    0,
    0,
    0,
    0,
    0,
    0,
    0,
    0,
    0,
    0,
    0,
    0,
    0,
    0,
    0,
    0,
    0,
    0,
    0,
    0,
    0,
    0,
    0,
    0,
    0,
    0,
    0,
    0,
    0,
    0,
    0,
    0,
    0,
    0,
    0,
    0,
    0,
    0,
    0,
    0,
    0,
    0,
    0,
    0,
    0,
    0,
    0,
    0,
    0,
    0,
    0,
    0,
    0,
    0,
    0,
    0,
    0,
    0,
    0,
    0,
    0,
    0,
    0,
    0,
    0,
    0,
    0,
    0,
    0,
    0,
    0,
    0,
    0,
    0,
    0,
    0,
    0,
    0,
    0,
    0,
    0,
    0,
    0,
    0,
    0,
    0,
    0,
    0,
    0,
    0,
    0,
    0,
    0,
    0,
    0,
    0,
    0,
    0,
    0,
    0,
    0,
    0,
    0,
    0,
    0,
    0,
    0,
    0,
    0,
    0,
    0,
    0,
    0,
    0,
    0,
    0,
    0,
    0,
    0,
    0,
    0,
    0,
    0,
    0,
    0,
    0,
    0,
    0,
    0,
    0,
    0,
    0,
    0,
    0,
    0,
    0,
    0,
    0,
    0,
    0,
    0,
    0,
    0,
    0,
    0,
    0,
    0,
    0,
    0,
    0,
    0,
    0,
    0,
    0,
    0,
    0,
    0,
    0,
    0,
    0,
    0,
    0,
    0,
    0,
    0,
    0,
    0,
    0,
    0,
    0,
    0,
    0,
    0,
    0,
    0,
    0,
    0,
    0,
    0,
    0,
    0,
    0,
    0,
    0,
    0,
    0,
    0,
    0,
    0,
    0,
    0,
    0,
    0,
    0,
    0,
    0,
    0,
    0,
    0,
    0,
    0,
    0,
    0,
    0,
    0,
    0,
    0,
    0,
    0,
    0,
    0,
    0,
    0,
    0,
    0,
    0,
    0,
    0,
    0,
    0,
    0,
    0,
    0,
    0,
    0,
    0,
    0,
    0,
    0,
    0,
    0,
    0,
    0,
    0,
    0,
    0,
    0,
    0,
    0,
    0,
    0,
    0,
    0,
    0,
    0,
    0,
    0,
    0,
    0,
    0,
    0,
    0,
    0,
    0,
    0,
    0,
    0,
    0,
    0,
    0,
    0,
    0,
    0,
    0,
    0,
    0,
    0,
    0,
    0,
    0,
    0,
    0,
    0,
    0,
    0,
    0,
    0,
    0,
    0,
    0,
    0,
    0,
    0,
    0,
    0,
    0,
    0,
    0,
    0,
    0,
    0,
    0,
    0,
    0,
    0,
    0,
    0,
    0,
    0,
    0,
    0,
    0,
    0,
    0,
    0,
    0,
    0,
    0,
    0,
    0,
    0,
    0,
    0,
    0,
    0,
    0,
    0,
    0,
    0,
    0,
    0,
    0,
    0,
    0,
    0,
    0,
    0,
    0,
    0,
    0,
    0,
    0,
    0,
    0,
    0,
    0,
    0,
    0,
    0,
    0,
    0,
    0,
    0,
    0,
    0,
    0,
    0,
    0,
    0,
    0,
    0,
    0,
    0,
    0,
    0,
    0,
    0,
    0,
    0,
    0,
    0,
    0,
    0,
    0,
    0,
    0,
    0,
    0,
    0,
    0,
    0,
    0,
    0,
    0,
    0,
    0,
    0,
    0,
    0,
    0,
    0,
    0,
    0,
    0,
    0,
    0,
    0,
    0,
    0,
    0,
    0,
    0,
    0,
    0,
    0,
    0,
    0,
    0,
    0,
    0,
    0,
    0,
    0,
    0,
    0,
    0,
    0,
    0,
    0,
    0,
    0,
    0,
    0,
    0,
    0,
    0,
    0,
    0,
    0,
    0,
    0,
    0,
    0,
    0,
    0,
    0,
    0,
    0,
    0,
    0,
    0,
    0,
    0,
    0,
    0,
    0,
    0,
    0,
    0,
    0,
    0,
    0,
    0,
    0,
    0,
    0,
    0,
    0,
    0,
    0,
    0,
    0,
    0,
    0,
    0,
    0,
    0,
    0,
    0,
    0,
    0,
    0,
    0,
    0,
    0,
    0,
    0,
    0,
    0,
    0,
    0,
    0,
    0,
    0,
    0,
    0,
    0,
    0,
    0,
    0,
    0,
    0,
    0,
    0
   ],
   "properties": [
    {
     "name": "gv2layer",
     "type": "string",
     "value": "Other"
    },
    {
     "name": "z",
     "type": "int",
     "value": 6
    },
    {
     "name": "collision",
     "type": "bool",
     "value": false
    }
   ]
  },
  {
   "type": "tilelayer",
   "id": 7,
   "name": "Tops",
   "width": 48,
   "height": 34,
   "x": 0,
   "y": 0,
   "opacity": 1,
   "visible": true,
   "data": [
    0,
    0,
    0,
    0,
    0,
    0,
    0,
    0,
    0,
    0,
    0,
    0,
    0,
    0,
    0,
    0,
    0,
    0,
    0,
    0,
    0,
    0,
    0,
    0,
    0,
    0,
    0,
    0,
    0,
    0,
    0,
    0,
    0,
    0,
    0,
    0,
    0,
    0,
    0,
    0,
    0,
    0,
    0,
    0,
    0,
    0,
    0,
    0,
    0,
    0,
    0,
    0,
    0,
    0,
    0,
    0,
    0,
    0,
    0,
    0,
    0,
    0,
    0,
    0,
    0,
    0,
    0,
    0,
    0,
    0,
    0,
    0,
    0,
    0,
    0,
    0,
    0,
    0,
    0,
    0,
    0,
    0,
    0,
    0,
    0,
    0,
    0,
    0,
    0,
    0,
    0,
    0,
    0,
    0,
    0,
    0,
    0,
    0,
    0,
    0,
    0,
    0,
    0,
    0,
    0,
    0,
    0,
    0,
    0,
    0,
    0,
    0,
    0,
    0,
    0,
    0,
    0,
    0,
    0,
    0,
    0,
    0,
    0,
    0,
    0,
    0,
    0,
    0,
    0,
    0,
    0,
    0,
    0,
    0,
    0,
    0,
    0,
    0,
    0,
    0,
    0,
    0,
    0,
    0,
    0,
    0,
    0,
    0,
    0,
    0,
    0,
    0,
    0,
    0,
    0,
    0,
    0,
    0,
    0,
    0,
    0,
    0,
    0,
    0,
    0,
    0,
    0,
    0,
    0,
    0,
    0,
    0,
    0,
    0,
    0,
    0,
    0,
    0,
    0,
    0,
    0,
    0,
    0,
    0,
    0,
    0,
    0,
    0,
    0,
    0,
    0,
    0,
    0,
    0,
    0,
    0,
    0,
    0,
    0,
    0,
    0,
    0,
    0,
    0,
    0,
    0,
    0,
    0,
    0,
    0,
    0,
    0,
    0,
    0,
    0,
    0,
    0,
    0,
    0,
    0,
    0,
    0,
    0,
    0,
    0,
    0,
    0,
    0,
    0,
    0,
    0,
    0,
    0,
    0,
    0,
    0,
    0,
    0,
    0,
    0,
    0,
    0,
    0,
    0,
    0,
    0,
    0,
    0,
    0,
    0,
    0,
    0,
    0,
    0,
    0,
    0,
    0,
    0,
    0,
    0,
    0,
    0,
    0,
    0,
    0,
    0,
    0,
    0,
    0,
    0,
    0,
    0,
    0,
    0,
    0,
    0,
    0,
    0,
    0,
    0,
    0,
    0,
    0,
    0,
    0,
    0,
    0,
    0,
    0,
    0,
    0,
    0,
    0,
    0,
    0,
    0,
    0,
    0,
    0,
    0,
    0,
    0,
    0,
    0,
    0,
    0,
    0,
    0,
    75,
    0,
    0,
    0,
    0,
    0,
    0,
    0,
    75,
    0,
    0,
    0,
    0,
    0,
    0,
    0,
    0,
    0,
    0,
    0,
    0,
    0,
    0,
    0,
    0,
    0,
    0,
    0,
    0,
    0,
    0,
    0,
    0,
    0,
    0,
    0,
    0,
    0,
    0,
    0,
    0,
    0,
    0,
    0,
    0,
    0,
    0,
    0,
    0,
    0,
    0,
    0,
    0,
    0,
    0,
    0,
    0,
    0,
    0,
    0,
    0,
    0,
    0,
    0,
    0,
    0,
    0,
    0,
    0,
    0,
    0,
    0,
    0,
    0,
    0,
    0,
    0,
    0,
    0,
    0,
    0,
    0,
    0,
    0,
    0,
    0,
    0,
    0,
    0,
    0,
    0,
    0,
    0,
    0,
    0,
    0,
    0,
    0,
    0,
    0,
    0,
    0,
    0,
    0,
    0,
    0,
    0,
    0,
    0,
    0,
    0,
    0,
    0,
    0,
    0,
    0,
    0,
    0,
    0,
    0,
    0,
    0,
    0,
    0,
    0,
    0,
    0,
    0,
    0,
    0,
    0,
    0,
    0,
    0,
    0,
    0,
    0,
    0,
    0,
    0,
    0,
    0,
    0,
    0,
    0,
    0,
    0,
    0,
    0,
    0,
    0,
    0,
    0,
    0,
    0,
    0,
    0,
    0,
    0,
    0,
    0,
    0,
    0,
    0,
    0,
    0,
    0,
    0,
    0,
    0,
    0,
    0,
    0,
    0,
    0,
    0,
    0,
    0,
    0,
    0,
    0,
    0,
    0,
    0,
    0,
    0,
    0,
    0,
    0,
    0,
    0,
    0,
    0,
    75,
    0,
    0,
    0,
    0,
    75,
    0,
    0,
    0,
    0,
    0,
    0,
    0,
    0,
    0,
    0,
    0,
    0,
    0,
    0,
    0,
    0,
    0,
    0,
    0,
    0,
    0,
    0,
    0,
    0,
    0,
    0,
    0,
    0,
    0,
    0,
    0,
    0,
    0,
    0,
    0,
    0,
    0,
    0,
    0,
    0,
    0,
    0,
    0,
    0,
    0,
    0,
    0,
    0,
    0,
    0,
    0,
    0,
    0,
    0,
    0,
    0,
    0,
    0,
    0,
    0,
    0,
    0,
    0,
    0,
    0,
    0,
    0,
    0,
    0,
    0,
    0,
    0,
    0,
    0,
    0,
    0,
    0,
    0,
    0,
    0,
    0,
    0,
    0,
    0,
    0,
    0,
    0,
    0,
    0,
    0,
    0,
    0,
    0,
    0,
    0,
    0,
    0,
    0,
    0,
    0,
    0,
    0,
    0,
    0,
    0,
    0,
    0,
    0,
    0,
    0,
    0,
    0,
    0,
    0,
    0,
    0,
    0,
    0,
    0,
    0,
    0,
    0,
    0,
    0,
    0,
    0,
    0,
    0,
    0,
    0,
    0,
    0,
    0,
    0,
    0,
    0,
    0,
    0,
    0,
    0,
    0,
    0,
    0,
    0,
    0,
    0,
    0,
    0,
    0,
    0,
    0,
    0,
    0,
    0,
    0,
    0,
    0,
    0,
    0,
    0,
    0,
    0,
    0,
    0,
    0,
    0,
    0,
    0,
    0,
    0,
    0,
    0,
    0,
    0,
    0,
    0,
    0,
    0,
    0,
    0,
    0,
    0,
    0,
    0,
    0,
    0,
    0,
    0,
    0,
    0,
    0,
    0,
    0,
    0,
    0,
    0,
    0,
    0,
    0,
    0,
    0,
    0,
    0,
    0,
    0,
    0,
    0,
    0,
    0,
    0,
    0,
    0,
    0,
    0,
    0,
    0,
    0,
    0,
    0,
    0,
    0,
    0,
    0,
    0,
    0,
    0,
    0,
    0,
    0,
    0,
    0,
    0,
    0,
    0,
    0,
    0,
    0,
    0,
    0,
    0,
    0,
    0,
    0,
    0,
    0,
    0,
    0,
    0,
    0,
    0,
    0,
    0,
    0,
    0,
    0,
    0,
    0,
    0,
    0,
    0,
    0,
    0,
    0,
    0,
    0,
    0,
    0,
    0,
    0,
    0,
    0,
    0,
    0,
    0,
    0,
    0,
    0,
    0,
    0,
    0,
    0,
    75,
    0,
    0,
    0,
    0,
    0,
    0,
    0,
    0,
    75,
    0,
    0,
    0,
    0,
    0,
    0,
    0,
    0,
    0,
    0,
    0,
    0,
    0,
    0,
    0,
    0,
    0,
    0,
    0,
    0,
    0,
    0,
    0,
    0,
    0,
    0,
    0,
    0,
    0,
    0,
    0,
    0,
    0,
    0,
    0,
    0,
    0,
    0,
    0,
    0,
    0,
    0,
    0,
    0,
    0,
    0,
    0,
    0,
    0,
    0,
    0,
    0,
    0,
    0,
    0,
    0,
    0,
    0,
    0,
    0,
    0,
    0,
    0,
    0,
    0,
    0,
    0,
    0,
    0,
    0,
    0,
    0,
    0,
    0,
    0,
    0,
    0,
    0,
    0,
    0,
    0,
    0,
    0,
    0,
    0,
    0,
    0,
    0,
    0,
    0,
    0,
    0,
    0,
    0,
    0,
    0,
    0,
    0,
    0,
    0,
    0,
    0,
    0,
    0,
    0,
    0,
    0,
    0,
    0,
    0,
    75,
    0,
    0,
    0,
    0,
    0,
    0,
    0,
    0,
    0,
    0,
    0,
    0,
    0,
    0,
    0,
    0,
    0,
    0,
    0,
    0,
    0,
    0,
    0,
    0,
    0,
    0,
    0,
    0,
    0,
    0,
    0,
    0,
    0,
    0,
    0,
    0,
    0,
    0,
    0,
    0,
    0,
    0,
    0,
    0,
    0,
    0,
    0,
    0,
    0,
    0,
    0,
    0,
    0,
    0,
    0,
    0,
    0,
    0,
    0,
    0,
    0,
    0,
    0,
    0,
    0,
    0,
    0,
    0,
    0,
    0,
    0,
    0,
    0,
    0,
    0,
    0,
    0,
    0,
    0,
    0,
    0,
    0,
    0,
    0,
    0,
    0,
    0,
    0,
    0,
    0,
    0,
    0,
    0,
    0,
    0,
    0,
    0,
    0,
    0,
    0,
    0,
    0,
    0,
    0,
    0,
    0,
    0,
    0,
    0,
    0,
    0,
    0,
    0,
    0,
    0,
    0,
    0,
    0,
    0,
    0,
    0,
    0,
    0,
    0,
    0,
    0,
    0,
    0,
    0,
    0,
    0,
    0,
    0,
    0,
    0,
    0,
    0,
    0,
    0,
    0,
    0,
    0,
    0,
    0,
    0,
    0,
    0,
    0,
    0,
    0,
    0,
    0,
    0,
    0,
    0,
    0,
    0,
    0,
    0,
    0,
    0,
    0,
    0,
    0,
    0,
    0,
    0,
    0,
    0,
    0,
    0,
    0,
    0,
    0,
    0,
    0,
    0,
    0,
    0,
    0,
    0,
    0,
    0,
    0,
    0,
    0,
    0,
    0,
    0,
    0,
    0,
    75,
    0,
    0,
    0,
    0,
    0,
    0,
    0,
    0,
    0,
    0,
    0,
    0,
    0,
    0,
    0,
    0,
    0,
    0,
    0,
    0,
    0,
    0,
    0,
    0,
    0,
    0,
    0,
    0,
    0,
    0,
    0,
    0,
    0,
    0,
    0,
    0,
    0,
    0,
    0,
    0,
    0,
    0,
    0,
    0,
    0,
    0,
    0,
    0,
    0,
    0,
    0,
    0,
    0,
    0,
    0,
    0,
    0,
    0,
    0,
    0,
    0,
    0,
    0,
    0,
    0,
    0,
    0,
    0,
    0,
    0,
    0,
    75,
    0,
    0,
    0,
    0,
    0,
    0,
    0,
    0,
    75,
    0,
    0,
    0,
    0,
    0,
    0,
    0,
    0,
    0,
    0,
    0,
    0,
    0,
    0,
    0,
    0,
    0,
    0,
    0,
    0,
    0,
    0,
    0,
    0,
    0,
    0,
    0,
    0,
    0,
    0,
    0,
    0,
    0,
    0,
    0,
    0,
    0,
    0,
    0,
    0,
    0,
    0,
    0,
    0,
    0,
    0,
    0,
    0,
    0,
    0,
    0,
    0,
    0,
    0,
    0,
    0,
    0,
    0,
    0,
    0,
    0,
    0,
    0,
    0,
    0,
    0,
    0,
    0,
    0,
    0,
    0,
    0,
    0,
    0,
    0,
    0,
    0,
    0,
    0,
    0,
    0,
    0,
    0,
    0,
    0,
    0,
    0,
    0,
    0,
    0,
    0,
    0,
    0,
    0,
    0,
    0,
    0,
    0,
    0,
    0,
    0,
    0,
    0,
    0,
    0,
    0,
    0,
    0,
    0,
    0,
    0,
    0,
    0,
    0,
    0,
    0,
    0,
    0,
    0,
    0,
    0,
    0,
    0,
    0,
    0,
    0,
    0,
    0,
    0,
    0,
    0,
    0,
    0,
    0,
    0,
    0,
    0,
    0,
    0,
    0,
    0,
    0,
    0,
    0,
    0,
    0,
    0,
    0,
    0,
    0,
    0,
    0,
    0,
    0,
    0,
    0,
    0,
    0,
    0,
    0,
    0,
    0,
    0,
    0,
    0,
    0,
    0,
    0,
    0,
    0,
    0,
    0,
    0,
    0,
    0,
    0,
    0,
    0,
    0,
    0,
    0,
    0,
    0,
    0,
    0,
    0,
    0,
    0,
    0,
    0,
    0,
    0,
    0,
    0,
    0,
    0,
    0,
    0,
    0,
    0,
    0,
    0,
    0,
    0,
    0,
    0,
    0,
    0,
    0,
    0,
    0,
    0,
    0,
    0,
    0,
    0,
    0,
    0,
    0,
    0,
    0,
    0,
    0,
    0,
    0,
    0,
    0,
    0,
    0,
    0,
    0,
    0,
    0,
    0,
    0,
    0,
    0,
    0,
    0,
    0,
    0,
    0,
    0,
    0,
    0,
    0,
    0,
    0,
    0,
    0,
    0,
    0,
    0,
    0,
    0,
    0,
    0,
    0,
    0,
    0,
    0,
    0,
    0,
    0,
    0,
    0,
    0,
    0,
    0,
    0,
    0,
    0,
    0,
    0,
    0,
    0,
    0,
    0,
    0,
    0,
    0,
    0,
    0,
    0,
    0,
    0,
    0,
    0,
    0,
    0,
    0,
    0,
    0,
    0,
    0,
    0,
    0,
    0,
    0,
    0,
    0,
    0,
    0,
    0,
    0,
    0,
    0,
    0,
    0,
    0,
    0,
    0,
    0,
    0,
    0,
    0,
    0,
    0,
    0,
    0,
    0,
    0,
    0,
    0,
    0,
    0,
    0,
    0,
    0,
    0,
    0,
    0,
    0,
    0,
    0,
    0,
    0,
    0,
    0,
    0,
    0,
    0,
    0,
    0,
    0,
    0,
    0,
    0,
    0,
    0,
    0,
    0,
    0,
    0,
    0,
    0,
    0,
    0,
    0,
    0,
    0,
    0,
    0,
    0,
    0,
    0,
    0,
    0,
    0,
    0,
    0,
    0,
    0,
    0,
    0,
    0,
    0,
    0,
    0,
    0,
    0,
    0,
    0,
    0,
    0,
    0,
    0,
    0,
    0,
    0,
    0,
    0,
    0,
    0,
    0,
    0,
    0,
    0,
    0,
    0,
    0,
    0,
    0,
    0,
    0,
    0,
    0,
    0,
    0,
    0,
    0,
    0,
    0,
    0,
    0,
    0,
    0,
    0,
    0,
    0,
    0,
    0,
    0,
    0,
    0,
    0,
    0,
    0,
    0,
    0,
    0,
    0,
    0,
    0,
    0,
    0,
    0,
    0,
    0,
    0,
    0,
    0,
    0,
    0,
    0,
    0,
    0,
    0,
    0,
    0
   ],
   "properties": [
    {
     "name": "gv2layer",
     "type": "string",
     "value": "Tops"
    },
    {
     "name": "z",
     "type": "int",
     "value": 7
    },
    {
     "name": "collision",
     "type": "bool",
     "value": false
    }
   ]
  },
  {
   "type": "objectgroup",
   "id": 8,
   "name": "Tops \u00b7obj",
   "x": 0,
   "y": 0,
   "opacity": 1,
   "visible": true,
   "draworder": "index",
   "objects": [
    {
     "id": 40,
     "gid": 1,
     "name": "7-11-sign-left_0_0",
     "x": 640,
     "y": 768,
     "width": 64,
     "height": 128,
     "visible": true
    },
    {
     "id": 41,
     "gid": 82,
     "name": "sakura-small_0_0",
     "x": 704,
     "y": 1280,
     "width": 64,
     "height": 128,
     "visible": true
    },
    {
     "id": 42,
     "gid": 82,
     "name": "sakura-small_0_0",
     "x": 704,
     "y": 1536,
     "width": 64,
     "height": 128,
     "visible": true
    },
    {
     "id": 43,
     "gid": 81,
     "name": "sakura-large-top_0_0",
     "x": 768,
     "y": 0,
     "width": 192,
     "height": 128,
     "visible": true
    },
    {
     "id": 44,
     "gid": 81,
     "name": "sakura-large-top_0_0",
     "x": 832,
     "y": 128,
     "width": 192,
     "height": 128,
     "visible": true
    },
    {
     "id": 45,
     "gid": 81,
     "name": "sakura-large-top_0_0",
     "x": 832,
     "y": 1920,
     "width": 192,
     "height": 128,
     "visible": true
    },
    {
     "id": 46,
     "gid": 82,
     "name": "sakura-small_0_0",
     "x": 896,
     "y": 1280,
     "width": 64,
     "height": 128,
     "visible": true
    },
    {
     "id": 47,
     "gid": 82,
     "name": "sakura-small_0_0",
     "x": 896,
     "y": 1536,
     "width": 64,
     "height": 128,
     "visible": true
    },
    {
     "id": 48,
     "gid": 82,
     "name": "sakura-small_0_0",
     "x": 960,
     "y": 256,
     "width": 64,
     "height": 128,
     "visible": true
    },
    {
     "id": 49,
     "gid": 82,
     "name": "sakura-small_0_0",
     "x": 1152,
     "y": 768,
     "width": 64,
     "height": 128,
     "visible": true
    },
    {
     "id": 50,
     "gid": 81,
     "name": "sakura-large-top_0_0",
     "x": 1152,
     "y": 1920,
     "width": 192,
     "height": 128,
     "visible": true
    },
    {
     "id": 51,
     "gid": 81,
     "name": "sakura-large-top_0_0",
     "x": 128,
     "y": 0,
     "width": 192,
     "height": 128,
     "visible": true
    },
    {
     "id": 52,
     "gid": 88,
     "name": "torii-red-top_0_0",
     "x": 1344,
     "y": 704,
     "width": 384,
     "height": 192,
     "visible": true
    },
    {
     "id": 53,
     "gid": 81,
     "name": "sakura-large-top_0_0",
     "x": 1472,
     "y": 1920,
     "width": 192,
     "height": 128,
     "visible": true
    },
    {
     "id": 54,
     "gid": 77,
     "name": "red-pagoda-small-top_0_0",
     "x": 1536,
     "y": 1088,
     "width": 128,
     "height": 192,
     "visible": true
    },
    {
     "id": 55,
     "gid": 81,
     "name": "sakura-large-top_0_0",
     "x": 1792,
     "y": 1920,
     "width": 192,
     "height": 128,
     "visible": true
    },
    {
     "id": 56,
     "gid": 12,
     "name": "building-roof-blue_0_0",
     "x": 1792,
     "y": 576,
     "width": 192,
     "height": 192,
     "visible": true
    },
    {
     "id": 57,
     "gid": 3,
     "name": "blue-bell-top_0_0",
     "x": 1856,
     "y": 64,
     "width": 128,
     "height": 128,
     "visible": true
    },
    {
     "id": 58,
     "gid": 81,
     "name": "sakura-large-top_0_0",
     "x": 192,
     "y": 1920,
     "width": 192,
     "height": 128,
     "visible": true
    },
    {
     "id": 59,
     "gid": 82,
     "name": "sakura-small_0_0",
     "x": 192,
     "y": 384,
     "width": 64,
     "height": 128,
     "visible": true
    },
    {
     "id": 60,
     "gid": 81,
     "name": "sakura-large-top_0_0",
     "x": 2112,
     "y": 0,
     "width": 192,
     "height": 128,
     "visible": true
    },
    {
     "id": 61,
     "gid": 81,
     "name": "sakura-large-top_0_0",
     "x": 2112,
     "y": 1920,
     "width": 192,
     "height": 128,
     "visible": true
    },
    {
     "id": 62,
     "gid": 11,
     "name": "building-roof-black_0_0",
     "x": 2112,
     "y": 512,
     "width": 192,
     "height": 192,
     "visible": true
    },
    {
     "id": 63,
     "gid": 82,
     "name": "sakura-small_0_0",
     "x": 2176,
     "y": 1088,
     "width": 64,
     "height": 128,
     "visible": true
    },
    {
     "id": 64,
     "gid": 90,
     "name": "tree-3-top_0_0",
     "x": 2176,
     "y": 128,
     "width": 128,
     "height": 128,
     "visible": true
    },
    {
     "id": 65,
     "gid": 90,
     "name": "tree-3-top_0_0",
     "x": 2368,
     "y": 576,
     "width": 128,
     "height": 128,
     "visible": true
    },
    {
     "id": 66,
     "gid": 81,
     "name": "sakura-large-top_0_0",
     "x": 2432,
     "y": 0,
     "width": 192,
     "height": 128,
     "visible": true
    },
    {
     "id": 67,
     "gid": 81,
     "name": "sakura-large-top_0_0",
     "x": 2432,
     "y": 1920,
     "width": 192,
     "height": 128,
     "visible": true
    },
    {
     "id": 68,
     "gid": 13,
     "name": "building-roof-red_0_0",
     "x": 2432,
     "y": 576,
     "width": 192,
     "height": 192,
     "visible": true
    },
    {
     "id": 69,
     "gid": 81,
     "name": "sakura-large-top_0_0",
     "x": 256,
     "y": 128,
     "width": 192,
     "height": 128,
     "visible": true
    },
    {
     "id": 70,
     "gid": 82,
     "name": "sakura-small_0_0",
     "x": 2560,
     "y": 1088,
     "width": 64,
     "height": 128,
     "visible": true
    },
    {
     "id": 71,
     "gid": 90,
     "name": "tree-3-top_0_0",
     "x": 2624,
     "y": 128,
     "width": 128,
     "height": 128,
     "visible": true
    },
    {
     "id": 72,
     "gid": 81,
     "name": "sakura-large-top_0_0",
     "x": 2752,
     "y": 0,
     "width": 192,
     "height": 128,
     "visible": true
    },
    {
     "id": 73,
     "gid": 81,
     "name": "sakura-large-top_0_0",
     "x": 2752,
     "y": 1920,
     "width": 192,
     "height": 128,
     "visible": true
    },
    {
     "id": 74,
     "gid": 12,
     "name": "building-roof-blue_0_0",
     "x": 2752,
     "y": 576,
     "width": 192,
     "height": 192,
     "visible": true
    },
    {
     "id": 75,
     "gid": 82,
     "name": "sakura-small_0_0",
     "x": 2816,
     "y": 256,
     "width": 64,
     "height": 128,
     "visible": true
    },
    {
     "id": 76,
     "gid": 82,
     "name": "sakura-small_0_0",
     "x": 320,
     "y": 1280,
     "width": 64,
     "height": 128,
     "visible": true
    },
    {
     "id": 77,
     "gid": 82,
     "name": "sakura-small_0_0",
     "x": 320,
     "y": 1536,
     "width": 64,
     "height": 128,
     "visible": true
    },
    {
     "id": 78,
     "gid": 81,
     "name": "sakura-large-top_0_0",
     "x": 448,
     "y": 0,
     "width": 192,
     "height": 128,
     "visible": true
    },
    {
     "id": 79,
     "gid": 82,
     "name": "sakura-small_0_0",
     "x": 512,
     "y": 1280,
     "width": 64,
     "height": 128,
     "visible": true
    },
    {
     "id": 80,
     "gid": 82,
     "name": "sakura-small_0_0",
     "x": 512,
     "y": 1536,
     "width": 64,
     "height": 128,
     "visible": true
    },
    {
     "id": 81,
     "gid": 81,
     "name": "sakura-large-top_0_0",
     "x": 512,
     "y": 1920,
     "width": 192,
     "height": 128,
     "visible": true
    },
    {
     "id": 82,
     "gid": 81,
     "name": "sakura-large-top_0_0",
     "x": 576,
     "y": 192,
     "width": 192,
     "height": 128,
     "visible": true
    }
   ],
   "properties": [
    {
     "name": "gv2layer",
     "type": "string",
     "value": "Tops"
    },
    {
     "name": "z",
     "type": "int",
     "value": 7
    },
    {
     "name": "collision",
     "type": "bool",
     "value": false
    }
   ]
  },
  {
   "type": "tilelayer",
   "id": 9,
   "name": "Colliders",
   "width": 48,
   "height": 34,
   "x": 0,
   "y": 0,
   "opacity": 1,
   "visible": true,
   "data": [
    0,
    0,
    0,
    0,
    0,
    0,
    0,
    0,
    0,
    0,
    0,
    0,
    0,
    0,
    0,
    0,
    0,
    0,
    0,
    0,
    0,
    0,
    0,
    0,
    0,
    0,
    0,
    0,
    0,
    0,
    0,
    0,
    0,
    0,
    0,
    0,
    0,
    0,
    0,
    0,
    0,
    0,
    0,
    0,
    0,
    0,
    0,
    0,
    0,
    0,
    0,
    0,
    0,
    0,
    0,
    0,
    0,
    0,
    0,
    0,
    0,
    0,
    0,
    0,
    0,
    0,
    0,
    0,
    0,
    0,
    0,
    35,
    35,
    35,
    0,
    0,
    0,
    0,
    0,
    0,
    0,
    0,
    0,
    0,
    0,
    0,
    0,
    0,
    0,
    0,
    0,
    0,
    0,
    0,
    0,
    0,
    35,
    35,
    0,
    35,
    0,
    0,
    0,
    0,
    35,
    0,
    0,
    0,
    0,
    35,
    0,
    0,
    0,
    0,
    0,
    0,
    0,
    0,
    0,
    35,
    35,
    35,
    0,
    0,
    0,
    0,
    0,
    0,
    0,
    0,
    35,
    0,
    0,
    0,
    0,
    35,
    0,
    0,
    0,
    0,
    35,
    0,
    35,
    35,
    35,
    35,
    0,
    0,
    0,
    0,
    0,
    0,
    0,
    0,
    0,
    0,
    0,
    0,
    0,
    0,
    0,
    0,
    0,
    0,
    0,
    0,
    0,
    35,
    35,
    35,
    0,
    0,
    0,
    35,
    35,
    0,
    0,
    0,
    0,
    0,
    0,
    0,
    0,
    0,
    0,
    0,
    0,
    0,
    0,
    0,
    35,
    35,
    0,
    0,
    0,
    0,
    0,
    35,
    0,
    0,
    0,
    0,
    0,
    0,
    0,
    0,
    35,
    0,
    0,
    0,
    0,
    0,
    0,
    0,
    0,
    35,
    35,
    35,
    0,
    0,
    0,
    0,
    0,
    0,
    0,
    0,
    35,
    35,
    0,
    0,
    0,
    0,
    0,
    35,
    35,
    0,
    0,
    0,
    0,
    0,
    35,
    35,
    0,
    0,
    0,
    0,
    0,
    0,
    0,
    0,
    35,
    0,
    0,
    0,
    0,
    35,
    0,
    0,
    0,
    0,
    0,
    35,
    0,
    35,
    35,
    35,
    0,
    35,
    0,
    0,
    0,
    0,
    0,
    0,
    0,
    0,
    0,
    0,
    0,
    0,
    0,
    0,
    0,
    0,
    35,
    0,
    35,
    35,
    35,
    35,
    0,
    0,
    0,
    0,
    0,
    0,
    0,
    0,
    0,
    0,
    0,
    0,
    0,
    0,
    0,
    0,
    0,
    0,
    0,
    0,
    0,
    0,
    0,
    0,
    0,
    0,
    0,
    0,
    0,
    0,
    0,
    0,
    0,
    0,
    35,
    35,
    35,
    35,
    35,
    35,
    0,
    0,
    0,
    0,
    35,
    35,
    0,
    0,
    0,
    35,
    0,
    35,
    35,
    35,
    35,
    35,
    35,
    0,
    0,
    0,
    0,
    0,
    0,
    0,
    0,
    0,
    35,
    0,
    0,
    0,
    0,
    0,
    0,
    0,
    35,
    0,
    0,
    0,
    0,
    0,
    0,
    0,
    35,
    35,
    35,
    35,
    35,
    35,
    0,
    0,
    0,
    0,
    0,
    0,
    35,
    35,
    0,
    0,
    0,
    35,
    35,
    35,
    35,
    35,
    35,
    0,
    35,
    0,
    0,
    0,
    0,
    0,
    0,
    0,
    0,
    0,
    0,
    0,
    0,
    0,
    0,
    0,
    0,
    0,
    0,
    0,
    0,
    0,
    0,
    35,
    0,
    0,
    0,
    0,
    0,
    0,
    0,
    0,
    0,
    0,
    35,
    35,
    35,
    35,
    0,
    0,
    0,
    0,
    0,
    0,
    0,
    0,
    0,
    0,
    0,
    0,
    0,
    0,
    0,
    0,
    0,
    0,
    0,
    0,
    0,
    0,
    0,
    0,
    0,
    0,
    0,
    0,
    0,
    0,
    0,
    0,
    0,
    0,
    0,
    0,
    0,
    0,
    0,
    0,
    0,
    0,
    0,
    0,
    35,
    35,
    0,
    0,
    0,
    0,
    0,
    0,
    0,
    0,
    0,
    0,
    0,
    0,
    0,
    0,
    0,
    0,
    0,
    0,
    0,
    0,
    0,
    0,
    0,
    0,
    0,
    0,
    0,
    0,
    0,
    0,
    0,
    0,
    0,
    0,
    0,
    0,
    0,
    0,
    0,
    0,
    0,
    0,
    0,
    0,
    0,
    0,
    0,
    0,
    35,
    35,
    0,
    0,
    0,
    0,
    0,
    35,
    35,
    35,
    0,
    0,
    0,
    0,
    0,
    0,
    0,
    0,
    0,
    0,
    0,
    35,
    0,
    0,
    0,
    0,
    35,
    0,
    0,
    0,
    0,
    0,
    0,
    35,
    35,
    35,
    0,
    35,
    35,
    0,
    0,
    0,
    0,
    0,
    0,
    0,
    35,
    35,
    35,
    35,
    0,
    0,
    0,
    0,
    0,
    35,
    35,
    35,
    0,
    0,
    0,
    0,
    0,
    0,
    0,
    0,
    0,
    0,
    0,
    0,
    0,
    0,
    0,
    0,
    0,
    0,
    35,
    35,
    35,
    0,
    0,
    35,
    35,
    35,
    0,
    0,
    35,
    35,
    35,
    0,
    0,
    35,
    35,
    35,
    35,
    35,
    0,
    0,
    0,
    0,
    0,
    0,
    0,
    35,
    35,
    35,
    35,
    0,
    35,
    0,
    35,
    0,
    35,
    0,
    35,
    0,
    0,
    0,
    0,
    0,
    0,
    0,
    0,
    0,
    35,
    35,
    35,
    0,
    0,
    35,
    35,
    35,
    0,
    0,
    35,
    35,
    35,
    0,
    0,
    35,
    35,
    35,
    0,
    0,
    35,
    35,
    0,
    0,
    0,
    0,
    35,
    35,
    0,
    35,
    0,
    0,
    0,
    0,
    0,
    0,
    0,
    0,
    0,
    0,
    0,
    0,
    35,
    0,
    0,
    35,
    0,
    0,
    35,
    35,
    35,
    0,
    0,
    0,
    35,
    0,
    0,
    0,
    35,
    35,
    35,
    0,
    0,
    35,
    35,
    35,
    35,
    35,
    35,
    35,
    0,
    0,
    0,
    0,
    0,
    0,
    0,
    0,
    0,
    0,
    0,
    0,
    0,
    0,
    0,
    0,
    0,
    0,
    0,
    0,
    35,
    0,
    0,
    35,
    0,
    0,
    0,
    0,
    0,
    0,
    0,
    0,
    0,
    0,
    0,
    0,
    0,
    0,
    0,
    0,
    0,
    0,
    0,
    0,
    35,
    35,
    0,
    0,
    0,
    0,
    0,
    0,
    0,
    0,
    0,
    0,
    0,
    0,
    0,
    0,
    0,
    0,
    0,
    0,
    0,
    0,
    0,
    0,
    0,
    0,
    0,
    0,
    0,
    0,
    0,
    0,
    0,
    0,
    0,
    0,
    0,
    0,
    0,
    0,
    0,
    0,
    0,
    0,
    0,
    0,
    0,
    0,
    0,
    0,
    35,
    35,
    0,
    0,
    0,
    0,
    0,
    0,
    0,
    35,
    0,
    0,
    0,
    0,
    0,
    35,
    0,
    0,
    0,
    0,
    35,
    0,
    0,
    0,
    0,
    0,
    0,
    35,
    0,
    35,
    0,
    0,
    0,
    0,
    0,
    0,
    0,
    35,
    0,
    0,
    0,
    0,
    0,
    35,
    0,
    0,
    35,
    35,
    35,
    35,
    0,
    0,
    0,
    0,
    0,
    0,
    0,
    0,
    0,
    0,
    0,
    0,
    0,
    0,
    0,
    0,
    0,
    35,
    0,
    0,
    0,
    0,
    0,
    0,
    0,
    0,
    0,
    0,
    35,
    0,
    0,
    0,
    35,
    0,
    0,
    35,
    0,
    0,
    35,
    0,
    35,
    0,
    0,
    0,
    35,
    35,
    0,
    0,
    0,
    0,
    0,
    0,
    0,
    0,
    0,
    0,
    0,
    0,
    0,
    0,
    0,
    0,
    0,
    0,
    0,
    0,
    0,
    0,
    0,
    0,
    0,
    0,
    0,
    0,
    0,
    0,
    0,
    0,
    0,
    0,
    0,
    0,
    0,
    0,
    0,
    0,
    0,
    0,
    0,
    0,
    35,
    0,
    35,
    0,
    35,
    35,
    0,
    0,
    0,
    0,
    0,
    0,
    0,
    0,
    0,
    0,
    0,
    0,
    0,
    0,
    0,
    0,
    0,
    0,
    0,
    0,
    0,
    0,
    35,
    35,
    0,
    0,
    0,
    0,
    0,
    0,
    0,
    0,
    0,
    0,
    0,
    0,
    0,
    0,
    0,
    0,
    0,
    0,
    0,
    0,
    0,
    0,
    35,
    35,
    0,
    0,
    0,
    35,
    0,
    0,
    35,
    0,
    0,
    35,
    0,
    0,
    35,
    0,
    0,
    0,
    0,
    0,
    0,
    0,
    0,
    0,
    35,
    35,
    0,
    0,
    0,
    0,
    0,
    0,
    0,
    0,
    0,
    0,
    0,
    0,
    0,
    0,
    0,
    0,
    0,
    0,
    0,
    0,
    0,
    0,
    0,
    0,
    0,
    0,
    0,
    0,
    0,
    0,
    0,
    0,
    0,
    0,
    0,
    0,
    0,
    0,
    0,
    0,
    0,
    0,
    0,
    0,
    0,
    0,
    35,
    35,
    0,
    0,
    0,
    0,
    0,
    0,
    0,
    0,
    0,
    0,
    0,
    0,
    0,
    0,
    0,
    0,
    0,
    0,
    0,
    0,
    35,
    0,
    35,
    35,
    0,
    0,
    0,
    0,
    0,
    0,
    0,
    0,
    0,
    0,
    0,
    0,
    0,
    0,
    0,
    0,
    0,
    0,
    0,
    0,
    0,
    0,
    0,
    0,
    0,
    0,
    0,
    0,
    0,
    0,
    0,
    0,
    0,
    0,
    0,
    0,
    0,
    0,
    0,
    0,
    0,
    0,
    35,
    0,
    35,
    35,
    35,
    35,
    0,
    0,
    0,
    0,
    0,
    0,
    0,
    0,
    0,
    0,
    0,
    0,
    0,
    0,
    0,
    0,
    0,
    0,
    0,
    0,
    0,
    0,
    0,
    0,
    0,
    0,
    0,
    0,
    0,
    0,
    0,
    0,
    0,
    0,
    0,
    0,
    0,
    0,
    0,
    0,
    0,
    0,
    0,
    0,
    35,
    35,
    0,
    0,
    0,
    0,
    0,
    35,
    0,
    0,
    35,
    0,
    0,
    35,
    0,
    0,
    35,
    0,
    0,
    0,
    0,
    0,
    35,
    0,
    0,
    0,
    0,
    0,
    0,
    0,
    0,
    35,
    0,
    0,
    0,
    0,
    0,
    0,
    0,
    0,
    0,
    0,
    0,
    0,
    0,
    0,
    0,
    0,
    0,
    0,
    35,
    35,
    0,
    0,
    0,
    0,
    0,
    0,
    0,
    0,
    0,
    0,
    0,
    0,
    0,
    0,
    0,
    0,
    0,
    0,
    0,
    0,
    0,
    0,
    0,
    0,
    0,
    0,
    0,
    0,
    0,
    0,
    0,
    0,
    0,
    0,
    0,
    0,
    0,
    0,
    0,
    0,
    0,
    0,
    0,
    0,
    35,
    35,
    35,
    35,
    0,
    0,
    0,
    0,
    0,
    0,
    0,
    0,
    0,
    0,
    0,
    0,
    0,
    0,
    0,
    0,
    0,
    0,
    0,
    0,
    0,
    0,
    0,
    0,
    0,
    0,
    0,
    0,
    0,
    0,
    0,
    0,
    0,
    0,
    0,
    0,
    0,
    0,
    0,
    0,
    0,
    0,
    0,
    0,
    35,
    35,
    0,
    0,
    0,
    35,
    35,
    35,
    35,
    35,
    35,
    35,
    35,
    35,
    35,
    35,
    35,
    35,
    35,
    35,
    35,
    35,
    35,
    35,
    35,
    0,
    0,
    35,
    35,
    35,
    35,
    35,
    35,
    35,
    35,
    35,
    35,
    35,
    35,
    35,
    35,
    35,
    35,
    35,
    35,
    35,
    35,
    0,
    0,
    0,
    0,
    0,
    0,
    0,
    0,
    0,
    0,
    0,
    0,
    0,
    0,
    0,
    0,
    0,
    0,
    0,
    0,
    0,
    0,
    0,
    0,
    0,
    0,
    0,
    0,
    0,
    0,
    0,
    0,
    0,
    0,
    0,
    0,
    0,
    0,
    0,
    0,
    0,
    0,
    0,
    0,
    0,
    0,
    0,
    0,
    0,
    0,
    0,
    0,
    0,
    0,
    0,
    0,
    0,
    0,
    0,
    0,
    0,
    0,
    0,
    0,
    0,
    0,
    0,
    0,
    0,
    0,
    0,
    0,
    0,
    0,
    0,
    0,
    0,
    0,
    0,
    0,
    0,
    0,
    0,
    0,
    0,
    0,
    0,
    0,
    0,
    0,
    0,
    0,
    0,
    0,
    0,
    0,
    0,
    0,
    0,
    0,
    0,
    0,
    0,
    0,
    0,
    0,
    0,
    0,
    0,
    0,
    0,
    0,
    0,
    0,
    0,
    0,
    0,
    0,
    0,
    0,
    0,
    0,
    0,
    0,
    0,
    0,
    0,
    0,
    0,
    0,
    0,
    0,
    0,
    0,
    0,
    0,
    0,
    0,
    0,
    0,
    0,
    0,
    0,
    0,
    0,
    0,
    0,
    0,
    0,
    0,
    0,
    35,
    0,
    0,
    0,
    0,
    35,
    0,
    0,
    0,
    0,
    35,
    0,
    0,
    0,
    0,
    35,
    0,
    0,
    0,
    0,
    35,
    0,
    0,
    0,
    0,
    35,
    0,
    0,
    0,
    0,
    35,
    0,
    0,
    0,
    0,
    35,
    0,
    0,
    0,
    0,
    35,
    0,
    0,
    0,
    0,
    0,
    0,
    0,
    0,
    0,
    0,
    0,
    0,
    0,
    0,
    0,
    0,
    0,
    0,
    0,
    0,
    0,
    0,
    0,
    0,
    0,
    0,
    0,
    0,
    0,
    0,
    0,
    0,
    0,
    0,
    0,
    0,
    0,
    0,
    0,
    0,
    0,
    0,
    0,
    0,
    0,
    0,
    0,
    0,
    0,
    0,
    0
   ],
   "properties": [
    {
     "name": "gv2layer",
     "type": "string",
     "value": "Colliders"
    },
    {
     "name": "z",
     "type": "int",
     "value": 5
    },
    {
     "name": "collision",
     "type": "bool",
     "value": true
    }
   ]
  },
  {
   "type": "objectgroup",
   "id": 10,
   "name": "Meta",
   "x": 0,
   "y": 0,
   "opacity": 1,
   "visible": true,
   "draworder": "index",
   "objects": [
    {
     "id": 83,
     "name": "transporter",
     "point": true,
     "x": 3040.0,
     "y": 1312.0,
     "width": 0,
     "height": 0,
     "visible": true,
     "properties": [
      {
       "name": "kind",
       "type": "string",
       "value": "transporter"
      },
      {
       "name": "targetRoom",
       "type": "string",
       "value": "Tokyo"
      },
      {
       "name": "targetX",
       "type": "int",
       "value": 3
      },
      {
       "name": "targetY",
       "type": "int",
       "value": 41
      },
      {
       "name": "hidden",
       "type": "bool",
       "value": true
      }
     ]
    },
    {
     "id": 84,
     "name": "transporter",
     "point": true,
     "x": 3040.0,
     "y": 1376.0,
     "width": 0,
     "height": 0,
     "visible": true,
     "properties": [
      {
       "name": "kind",
       "type": "string",
       "value": "transporter"
      },
      {
       "name": "targetRoom",
       "type": "string",
       "value": "Tokyo"
      },
      {
       "name": "targetX",
       "type": "int",
       "value": 3
      },
      {
       "name": "targetY",
       "type": "int",
       "value": 42
      },
      {
       "name": "hidden",
       "type": "bool",
       "value": true
      }
     ]
    },
    {
     "id": 85,
     "name": "transporter",
     "point": true,
     "x": 544.0,
     "y": 928.0,
     "width": 0,
     "height": 0,
     "visible": true,
     "properties": [
      {
       "name": "kind",
       "type": "string",
       "value": "transporter"
      },
      {
       "name": "targetRoom",
       "type": "string",
       "value": "KonbiniMachi1"
      },
      {
       "name": "targetX",
       "type": "int",
       "value": 8
      },
      {
       "name": "targetY",
       "type": "int",
       "value": 9
      },
      {
       "name": "hidden",
       "type": "bool",
       "value": true
      }
     ]
    },
    {
     "id": 86,
     "name": "boundary",
     "x": 0,
     "y": 0,
     "polygon": [
      {
       "x": 0,
       "y": 0
      },
      {
       "x": 3072,
       "y": 0
      },
      {
       "x": 3072,
       "y": 2176
      },
      {
       "x": 0,
       "y": 2176
      }
     ],
     "width": 0,
     "height": 0,
     "visible": true,
     "properties": [
      {
       "name": "kind",
       "type": "string",
       "value": "boundary"
      }
     ]
    }
   ],
   "properties": [
    {
     "name": "gv2meta",
     "type": "bool",
     "value": true
    }
   ]
  }
 ]
}