{
 "type": "map",
 "version": "1.10",
 "tiledversion": "1.11.0",
 "orientation": "orthogonal",
 "renderorder": "right-down",
 "width": 59,
 "height": 48,
 "tilewidth": 64,
 "tileheight": 64,
 "infinite": false,
 "nextlayerid": 15,
 "nextobjectid": 99,
 "properties": [
  {
   "name": "gv2room",
   "type": "string",
   "value": "Market"
  },
  {
   "name": "gv2worldWidth",
   "type": "int",
   "value": 3776
  },
  {
   "name": "gv2worldHeight",
   "type": "int",
   "value": 3072
  }
 ],
 "tilesets": [
  {
   "firstgid": 1,
   "name": "gamev2",
   "tilewidth": 64,
   "tileheight": 64,
   "tilecount": 163,
   "columns": 0,
   "objectalignment": "topleft",
   "grid": {
    "orientation": "orthogonal",
    "width": 64,
    "height": 64
   },
   "tiles": [
    {
     "id": 0,
     "image": "../assets/sprites/gk1_100_0_0.png",
     "imagewidth": 64,
     "imageheight": 64
    },
    {
     "id": 1,
     "image": "../assets/sprites/gk1_100_0_1.png",
     "imagewidth": 64,
     "imageheight": 64
    },
    {
     "id": 2,
     "image": "../assets/sprites/gk1_100_0_2.png",
     "imagewidth": 64,
     "imageheight": 64
    },
    {
     "id": 3,
     "image": "../assets/sprites/gk1_100_1_0.png",
     "imagewidth": 64,
     "imageheight": 64
    },
    {
     "id": 4,
     "image": "../assets/sprites/gk1_100_1_1.png",
     "imagewidth": 64,
     "imageheight": 64
    },
    {
     "id": 5,
     "image": "../assets/sprites/gk1_100_1_2.png",
     "imagewidth": 64,
     "imageheight": 64
    },
    {
     "id": 6,
     "image": "../assets/sprites/gk1_100_2_0.png",
     "imagewidth": 64,
     "imageheight": 64
    },
    {
     "id": 7,
     "image": "../assets/sprites/gk1_100_2_1.png",
     "imagewidth": 64,
     "imageheight": 64
    },
    {
     "id": 8,
     "image": "../assets/sprites/gk1_100_2_2.png",
     "imagewidth": 64,
     "imageheight": 64
    },
    {
     "id": 9,
     "image": "../assets/sprites/gk1_101_0_0.png",
     "imagewidth": 64,
     "imageheight": 64
    },
    {
     "id": 10,
     "image": "../assets/sprites/gk1_101_0_1.png",
     "imagewidth": 64,
     "imageheight": 64
    },
    {
     "id": 11,
     "image": "../assets/sprites/gk1_101_0_2.png",
     "imagewidth": 64,
     "imageheight": 64
    },
    {
     "id": 12,
     "image": "../assets/sprites/gk1_101_1_0.png",
     "imagewidth": 64,
     "imageheight": 64
    },
    {
     "id": 13,
     "image": "../assets/sprites/gk1_101_1_1.png",
     "imagewidth": 64,
     "imageheight": 64
    },
    {
     "id": 14,
     "image": "../assets/sprites/gk1_101_1_2.png",
     "imagewidth": 64,
     "imageheight": 64
    },
    {
     "id": 15,
     "image": "../assets/sprites/gk1_101_2_0.png",
     "imagewidth": 64,
     "imageheight": 64
    },
    {
     "id": 16,
     "image": "../assets/sprites/gk1_101_2_1.png",
     "imagewidth": 64,
     "imageheight": 64
    },
    {
     "id": 17,
     "image": "../assets/sprites/gk1_101_2_2.png",
     "imagewidth": 64,
     "imageheight": 64
    },
    {
     "id": 18,
     "image": "../assets/sprites/gk1_102_0_0.png",
     "imagewidth": 64,
     "imageheight": 64
    },
    {
     "id": 19,
     "image": "../assets/sprites/gk1_102_0_1.png",
     "imagewidth": 64,
     "imageheight": 64
    },
    {
     "id": 20,
     "image": "../assets/sprites/gk1_102_0_2.png",
     "imagewidth": 64,
     "imageheight": 64
    },
    {
     "id": 21,
     "image": "../assets/sprites/gk1_102_0_4.png",
     "imagewidth": 64,
     "imageheight": 64
    },
    {
     "id": 22,
     "image": "../assets/sprites/gk1_102_0_5.png",
     "imagewidth": 64,
     "imageheight": 64
    },
    {
     "id": 23,
     "image": "../assets/sprites/gk1_102_1_0.png",
     "imagewidth": 64,
     "imageheight": 64
    },
    {
     "id": 24,
     "image": "../assets/sprites/gk1_102_1_2.png",
     "imagewidth": 64,
     "imageheight": 64
    },
    {
     "id": 25,
     "image": "../assets/sprites/gk1_102_1_5.png",
     "imagewidth": 64,
     "imageheight": 64
    },
    {
     "id": 26,
     "image": "../assets/sprites/gk1_102_2_0.png",
     "imagewidth": 64,
     "imageheight": 64
    },
    {
     "id": 27,
     "image": "../assets/sprites/gk1_102_2_1.png",
     "imagewidth": 64,
     "imageheight": 64
    },
    {
     "id": 28,
     "image": "../assets/sprites/gk1_102_2_4.png",
     "imagewidth": 64,
     "imageheight": 64
    },
    {
     "id": 29,
     "image": "../assets/sprites/gk1_102_2_5.png",
     "imagewidth": 64,
     "imageheight": 64
    },
    {
     "id": 30,
     "image": "../assets/sprites/gk1_103_0_0.png",
     "imagewidth": 256,
     "imageheight": 128
    },
    {
     "id": 31,
     "image": "../assets/sprites/gk1_104_0_0.png",
     "imagewidth": 384,
     "imageheight": 192
    },
    {
     "id": 32,
     "image": "../assets/sprites/gk1_106_2_2.png",
     "imagewidth": 64,
     "imageheight": 64
    },
    {
     "id": 33,
     "image": "../assets/sprites/gk1_106_3_1.png",
     "imagewidth": 64,
     "imageheight": 64
    },
    {
     "id": 34,
     "image": "../assets/sprites/gk1_106_4_0.png",
     "imagewidth": 64,
     "imageheight": 64
    },
    {
     "id": 35,
     "image": "../assets/sprites/gk1_106_4_1.png",
     "imagewidth": 64,
     "imageheight": 64
    },
    {
     "id": 36,
     "image": "../assets/sprites/gk1_106_4_2.png",
     "imagewidth": 64,
     "imageheight": 64
    },
    {
     "id": 37,
     "image": "../assets/sprites/gk1_106_6_0.png",
     "imagewidth": 64,
     "imageheight": 64
    },
    {
     "id": 38,
     "image": "../assets/sprites/gk1_106_6_1.png",
     "imagewidth": 64,
     "imageheight": 64
    },
    {
     "id": 39,
     "image": "../assets/sprites/gk1_106_6_2.png",
     "imagewidth": 64,
     "imageheight": 64
    },
    {
     "id": 40,
     "image": "../assets/sprites/gk1_106_7_0.png",
     "imagewidth": 64,
     "imageheight": 64
    },
    {
     "id": 41,
     "image": "../assets/sprites/gk1_106_7_1.png",
     "imagewidth": 64,
     "imageheight": 64
    },
    {
     "id": 42,
     "image": "../assets/sprites/gk1_106_7_2.png",
     "imagewidth": 64,
     "imageheight": 64
    },
    {
     "id": 43,
     "image": "../assets/sprites/gk1_107_0_0.png",
     "imagewidth": 192,
     "imageheight": 64
    },
    {
     "id": 44,
     "image": "../assets/sprites/gk1_108_0_4.png",
     "imagewidth": 64,
     "imageheight": 64
    },
    {
     "id": 45,
     "image": "../assets/sprites/gk1_108_0_6.png",
     "imagewidth": 64,
     "imageheight": 64
    },
    {
     "id": 46,
     "image": "../assets/sprites/gk1_108_0_7.png",
     "imagewidth": 64,
     "imageheight": 64
    },
    {
     "id": 47,
     "image": "../assets/sprites/gk1_108_0_8.png",
     "imagewidth": 64,
     "imageheight": 64
    },
    {
     "id": 48,
     "image": "../assets/sprites/gk1_108_1_1.png",
     "imagewidth": 64,
     "imageheight": 64
    },
    {
     "id": 49,
     "image": "../assets/sprites/gk1_108_1_2.png",
     "imagewidth": 64,
     "imageheight": 64
    },
    {
     "id": 50,
     "image": "../assets/sprites/gk1_108_1_4.png",
     "imagewidth": 64,
     "imageheight": 64
    },
    {
     "id": 51,
     "image": "../assets/sprites/gk1_108_1_6.png",
     "imagewidth": 64,
     "imageheight": 64
    },
    {
     "id": 52,
     "image": "../assets/sprites/gk1_108_2_7.png",
     "imagewidth": 64,
     "imageheight": 64
    },
    {
     "id": 53,
     "image": "../assets/sprites/gk1_108_3_1.png",
     "imagewidth": 64,
     "imageheight": 64
    },
    {
     "id": 54,
     "image": "../assets/sprites/gk1_108_3_2.png",
     "imagewidth": 64,
     "imageheight": 64
    },
    {
     "id": 55,
     "image": "../assets/sprites/gk1_108_3_4.png",
     "imagewidth": 64,
     "imageheight": 64
    },
    {
     "id": 56,
     "image": "../assets/sprites/gk1_108_3_6.png",
     "imagewidth": 64,
     "imageheight": 64
    },
    {
     "id": 57,
     "image": "../assets/sprites/gk1_108_4_4.png",
     "imagewidth": 64,
     "imageheight": 64
    },
    {
     "id": 58,
     "image": "../assets/sprites/gk1_108_4_5.png",
     "imagewidth": 64,
     "imageheight": 64
    },
    {
     "id": 59,
     "image": "../assets/sprites/gk1_108_4_7.png",
     "imagewidth": 64,
     "imageheight": 64
    },
    {
     "id": 60,
     "image": "../assets/sprites/gk1_108_4_8.png",
     "imagewidth": 64,
     "imageheight": 64
    },
    {
     "id": 61,
     "image": "../assets/sprites/gk1_10_0_0.png",
     "imagewidth": 64,
     "imageheight": 64
    },
    {
     "id": 62,
     "image": "../assets/sprites/gk1_10_0_1.png",
     "imagewidth": 64,
     "imageheight": 64
    },
    {
     "id": 63,
     "image": "../assets/sprites/gk1_10_0_2.png",
     "imagewidth": 64,
     "imageheight": 64
    },
    {
     "id": 64,
     "image": "../assets/sprites/gk1_10_1_0.png",
     "imagewidth": 64,
     "imageheight": 64
    },
    {
     "id": 65,
     "image": "../assets/sprites/gk1_10_1_1.png",
     "imagewidth": 64,
     "imageheight": 64
    },
    {
     "id": 66,
     "image": "../assets/sprites/gk1_10_1_2.png",
     "imagewidth": 64,
     "imageheight": 64
    },
    {
     "id": 67,
     "image": "../assets/sprites/gk1_10_2_0.png",
     "imagewidth": 64,
     "imageheight": 64
    },
    {
     "id": 68,
     "image": "../assets/sprites/gk1_10_2_1.png",
     "imagewidth": 64,
     "imageheight": 64
    },
    {
     "id": 69,
     "image": "../assets/sprites/gk1_10_2_2.png",
     "imagewidth": 64,
     "imageheight": 64
    },
    {
     "id": 70,
     "image": "../assets/sprites/gk1_110_2_0.png",
     "imagewidth": 64,
     "imageheight": 64
    },
    {
     "id": 71,
     "image": "../assets/sprites/gk1_110_2_1.png",
     "imagewidth": 64,
     "imageheight": 64
    },
    {
     "id": 72,
     "image": "../assets/sprites/gk1_111_0_0.png",
     "imagewidth": 192,
     "imageheight": 256
    },
    {
     "id": 73,
     "image": "../assets/sprites/gk1_112_0_0.png",
     "imagewidth": 192,
     "imageheight": 192
    },
    {
     "id": 74,
     "image": "../assets/sprites/gk1_115_11_3.png",
     "imagewidth": 64,
     "imageheight": 64
    },
    {
     "id": 75,
     "image": "../assets/sprites/gk1_115_15_3.png",
     "imagewidth": 64,
     "imageheight": 64
    },
    {
     "id": 76,
     "image": "../assets/sprites/gk1_115_1_2.png",
     "imagewidth": 64,
     "imageheight": 64
    },
    {
     "id": 77,
     "image": "../assets/sprites/gk1_115_2_1.png",
     "imagewidth": 64,
     "imageheight": 64
    },
    {
     "id": 78,
     "image": "../assets/sprites/gk1_115_4_1.png",
     "imagewidth": 64,
     "imageheight": 64
    },
    {
     "id": 79,
     "image": "../assets/sprites/gk1_115_5_1.png",
     "imagewidth": 64,
     "imageheight": 64
    },
    {
     "id": 80,
     "image": "../assets/sprites/gk1_115_7_3.png",
     "imagewidth": 64,
     "imageheight": 64
    },
    {
     "id": 81,
     "image": "../assets/sprites/gk1_115_9_3.png",
     "imagewidth": 64,
     "imageheight": 64
    },
    {
     "id": 82,
     "image": "../assets/sprites/gk1_116_10_0.png",
     "imagewidth": 64,
     "imageheight": 64
    },
    {
     "id": 83,
     "image": "../assets/sprites/gk1_116_10_1.png",
     "imagewidth": 64,
     "imageheight": 64
    },
    {
     "id": 84,
     "image": "../assets/sprites/gk1_116_11_0.png",
     "imagewidth": 64,
     "imageheight": 64
    },
    {
     "id": 85,
     "image": "../assets/sprites/gk1_116_11_1.png",
     "imagewidth": 64,
     "imageheight": 64
    },
    {
     "id": 86,
     "image": "../assets/sprites/gk1_116_11_5.png",
     "imagewidth": 64,
     "imageheight": 64
    },
    {
     "id": 87,
     "image": "../assets/sprites/gk1_116_14_4.png",
     "imagewidth": 64,
     "imageheight": 64
    },
    {
     "id": 88,
     "image": "../assets/sprites/gk1_116_15_3.png",
     "imagewidth": 64,
     "imageheight": 64
    },
    {
     "id": 89,
     "image": "../assets/sprites/gk1_116_1_2.png",
     "imagewidth": 64,
     "imageheight": 64
    },
    {
     "id": 90,
     "image": "../assets/sprites/gk1_116_2_1.png",
     "imagewidth": 64,
     "imageheight": 64
    },
    {
     "id": 91,
     "image": "../assets/sprites/gk1_116_3_1.png",
     "imagewidth": 64,
     "imageheight": 64
    },
    {
     "id": 92,
     "image": "../assets/sprites/gk1_116_5_5.png",
     "imagewidth": 64,
     "imageheight": 64
    },
    {
     "id": 93,
     "image": "../assets/sprites/gk1_116_7_0.png",
     "imagewidth": 64,
     "imageheight": 64
    },
    {
     "id": 94,
     "image": "../assets/sprites/gk1_116_7_1.png",
     "imagewidth": 64,
     "imageheight": 64
    },
    {
     "id": 95,
     "image": "../assets/sprites/gk1_116_7_5.png",
     "imagewidth": 64,
     "imageheight": 64
    },
    {
     "id": 96,
     "image": "../assets/sprites/gk1_116_8_0.png",
     "imagewidth": 64,
     "imageheight": 64
    },
    {
     "id": 97,
     "image": "../assets/sprites/gk1_116_8_1.png",
     "imagewidth": 64,
     "imageheight": 64
    },
    {
     "id": 98,
     "image": "../assets/sprites/gk1_116_9_5.png",
     "imagewidth": 64,
     "imageheight": 64
    },
    {
     "id": 99,
     "image": "../assets/sprites/gk1_117_0_0.png",
     "imagewidth": 320,
     "imageheight": 384
    },
    {
     "id": 100,
     "image": "../assets/sprites/gk1_118_3_1.png",
     "imagewidth": 64,
     "imageheight": 64
    },
    {
     "id": 101,
     "image": "../assets/sprites/gk1_118_4_1.png",
     "imagewidth": 64,
     "imageheight": 64
    },
    {
     "id": 102,
     "image": "../assets/sprites/gk1_118_6_3.png",
     "imagewidth": 64,
     "imageheight": 64
    },
    {
     "id": 103,
     "image": "../assets/sprites/gk1_124_0_0.png",
     "imagewidth": 64,
     "imageheight": 128
    },
    {
     "id": 104,
     "image": "../assets/sprites/gk1_126_0_0.png",
     "imagewidth": 192,
     "imageheight": 64
    },
    {
     "id": 105,
     "image": "../assets/sprites/gk1_127_0_0.png",
     "imagewidth": 192,
     "imageheight": 64
    },
    {
     "id": 106,
     "image": "../assets/sprites/gk1_128_0_0.png",
     "imagewidth": 192,
     "imageheight": 64
    },
    {
     "id": 107,
     "image": "../assets/sprites/gk1_129_0_0.png",
     "imagewidth": 192,
     "imageheight": 64
    },
    {
     "id": 108,
     "image": "../assets/sprites/gk1_130_0_0.png",
     "imagewidth": 192,
     "imageheight": 64
    },
    {
     "id": 109,
     "image": "../assets/sprites/gk1_131_0_0.png",
     "imagewidth": 192,
     "imageheight": 64
    },
    {
     "id": 110,
     "image": "../assets/sprites/gk1_133_0_0.png",
     "imagewidth": 192,
     "imageheight": 64
    },
    {
     "id": 111,
     "image": "../assets/sprites/gk1_135_0_0.png",
     "imagewidth": 192,
     "imageheight": 192
    },
    {
     "id": 112,
     "image": "../assets/sprites/gk1_136_0_0.png",
     "imagewidth": 192,
     "imageheight": 192
    },
    {
     "id": 113,
     "image": "../assets/sprites/gk1_137_0_0.png",
     "imagewidth": 192,
     "imageheight": 192
    },
    {
     "id": 114,
     "image": "../assets/sprites/gk1_150_0_0.png",
     "imagewidth": 64,
     "imageheight": 64
    },
    {
     "id": 115,
     "image": "../assets/sprites/gk1_151_0_0.png",
     "imagewidth": 64,
     "imageheight": 64
    },
    {
     "id": 116,
     "image": "../assets/sprites/gk1_152_0_0.png",
     "imagewidth": 64,
     "imageheight": 64
    },
    {
     "id": 117,
     "image": "../assets/sprites/gk1_153_0_0.png",
     "imagewidth": 64,
     "imageheight": 64
    },
    {
     "id": 118,
     "image": "../assets/sprites/gk1_157_0_0.png",
     "imagewidth": 64,
     "imageheight": 64
    },
    {
     "id": 119,
     "image": "../assets/sprites/gk1_157_0_1.png",
     "imagewidth": 64,
     "imageheight": 64
    },
    {
     "id": 120,
     "image": "../assets/sprites/gk1_157_0_2.png",
     "imagewidth": 64,
     "imageheight": 64
    },
    {
     "id": 121,
     "image": "../assets/sprites/gk1_157_1_0.png",
     "imagewidth": 64,
     "imageheight": 64
    },
    {
     "id": 122,
     "image": "../assets/sprites/gk1_157_1_1.png",
     "imagewidth": 64,
     "imageheight": 64
    },
    {
     "id": 123,
     "image": "../assets/sprites/gk1_157_1_2.png",
     "imagewidth": 64,
     "imageheight": 64
    },
    {
     "id": 124,
     "image": "../assets/sprites/gk1_157_2_0.png",
     "imagewidth": 64,
     "imageheight": 64
    },
    {
     "id": 125,
     "image": "../assets/sprites/gk1_157_2_1.png",
     "imagewidth": 64,
     "imageheight": 64
    },
    {
     "id": 126,
     "image": "../assets/sprites/gk1_157_2_2.png",
     "imagewidth": 64,
     "imageheight": 64
    },
    {
     "id": 127,
     "image": "../assets/sprites/gk1_164_1_2.png",
     "imagewidth": 64,
     "imageheight": 64
    },
    {
     "id": 128,
     "image": "../assets/sprites/gk1_169_0_0.png",
     "imagewidth": 64,
     "imageheight": 64
    },
    {
     "id": 129,
     "image": "../assets/sprites/gk1_170_0_0.png",
     "imagewidth": 64,
     "imageheight": 64
    },
    {
     "id": 130,
     "image": "../assets/sprites/gk1_171_0_0.png",
     "imagewidth": 64,
     "imageheight": 64
    },
    {
     "id": 131,
     "image": "../assets/sprites/gk1_173_0_0.png",
     "imagewidth": 64,
     "imageheight": 128
    },
    {
     "id": 132,
     "image": "../assets/sprites/gk1_175_0_0.png",
     "imagewidth": 64,
     "imageheight": 64
    },
    {
     "id": 133,
     "image": "../assets/sprites/gk1_176_0_0.png",
     "imagewidth": 64,
     "imageheight": 128
    },
    {
     "id": 134,
     "image": "../assets/sprites/gk1_17_0_0.png",
     "imagewidth": 192,
     "imageheight": 384
    },
    {
     "id": 135,
     "image": "../assets/sprites/gk1_19_0_0.png",
     "imagewidth": 192,
     "imageheight": 192
    },
    {
     "id": 136,
     "image": "../assets/sprites/gk1_1_0_0.png",
     "imagewidth": 64,
     "imageheight": 64
    },
    {
     "id": 137,
     "image": "../assets/sprites/gk1_2_0_0.png",
     "imagewidth": 64,
     "imageheight": 64
    },
    {
     "id": 138,
     "image": "../assets/sprites/gk1_30_0_0.png",
     "imagewidth": 64,
     "imageheight": 64
    },
    {
     "id": 139,
     "image": "../assets/sprites/gk1_31_0_0.png",
     "imagewidth": 192,
     "imageheight": 128
    },
    {
     "id": 140,
     "image": "../assets/sprites/gk1_32_0_0.png",
     "imagewidth": 64,
     "imageheight": 64
    },
    {
     "id": 141,
     "image": "../assets/sprites/gk1_33_0_0.png",
     "imagewidth": 192,
     "imageheight": 128
    },
    {
     "id": 142,
     "image": "../assets/sprites/gk1_3_0_0.png",
     "imagewidth": 64,
     "imageheight": 64
    },
    {
     "id": 143,
     "image": "../assets/sprites/gk1_48_0_0.png",
     "imagewidth": 64,
     "imageheight": 64
    },
    {
     "id": 144,
     "image": "../assets/sprites/gk1_4_0_0.png",
     "imagewidth": 64,
     "imageheight": 64
    },
    {
     "id": 145,
     "image": "../assets/sprites/gk1_59_0_3.png",
     "imagewidth": 64,
     "imageheight": 64
    },
    {
     "id": 146,
     "image": "../assets/sprites/gk1_59_2_1.png",
     "imagewidth": 64,
     "imageheight": 64
    },
    {
     "id": 147,
     "image": "../assets/sprites/gk1_59_2_5.png",
     "imagewidth": 64,
     "imageheight": 64
    },
    {
     "id": 148,
     "image": "../assets/sprites/gk1_59_3_5.png",
     "imagewidth": 64,
     "imageheight": 64
    },
    {
     "id": 149,
     "image": "../assets/sprites/gk1_59_4_1.png",
     "imagewidth": 64,
     "imageheight": 64
    },
    {
     "id": 150,
     "image": "../assets/sprites/gk1_59_4_5.png",
     "imagewidth": 64,
     "imageheight": 64
    },
    {
     "id": 151,
     "image": "../assets/sprites/gk1_59_6_3.png",
     "imagewidth": 64,
     "imageheight": 64
    },
    {
     "id": 152,
     "image": "../assets/sprites/gk1_59_8_3.png",
     "imagewidth": 64,
     "imageheight": 64
    },
    {
     "id": 153,
     "image": "../assets/sprites/gk1_63_0_0.png",
     "imagewidth": 64,
     "imageheight": 64
    },
    {
     "id": 154,
     "image": "../assets/sprites/gk1_64_0_0.png",
     "imagewidth": 192,
     "imageheight": 192
    },
    {
     "id": 155,
     "image": "../assets/sprites/gk1_6_0_0.png",
     "imagewidth": 64,
     "imageheight": 64
    },
    {
     "id": 156,
     "image": "../assets/sprites/gk1_7_0_0.png",
     "imagewidth": 64,
     "imageheight": 64
    },
    {
     "id": 157,
     "image": "../assets/sprites/gk1_81_0_0.png",
     "imagewidth": 64,
     "imageheight": 128
    },
    {
     "id": 158,
     "image": "../assets/sprites/gk1_82_0_0.png",
     "imagewidth": 64,
     "imageheight": 128
    },
    {
     "id": 159,
     "image": "../assets/sprites/gk2_1_0_0.png",
     "imagewidth": 192,
     "imageheight": 256
    },
    {
     "id": 160,
     "image": "../assets/sprites/gk2_4_0_0.png",
     "imagewidth": 64,
     "imageheight": 128
    },
    {
     "id": 161,
     "image": "../assets/sprites/gk2_5_0_0.png",
     "imagewidth": 64,
     "imageheight": 128
    },
    {
     "id": 162,
     "image": "../assets/sprites/gk_blank.png",
     "imagewidth": 64,
     "imageheight": 64
    }
   ]
  }
 ],
 "layers": [
  {
   "type": "tilelayer",
   "id": 1,
   "name": "Floor",
   "width": 59,
   "height": 48,
   "x": 0,
   "y": 0,
   "opacity": 1,
   "visible": true,
   "data": [
    122,
    122,
    122,
    122,
    122,
    122,
    122,
    122,
    122,
    122,
    122,
    122,
    122,
    122,
    122,
    122,
    122,
    122,
    122,
    122,
    122,
    122,
    122,
    122,
    122,
    122,
    122,
    122,
    122,
    122,
    122,
    122,
    122,
    122,
    122,
    122,
    122,
    122,
    122,
    122,
    122,
    122,
    122,
    122,
    122,
    122,
    122,
    122,
    122,
    122,
    122,
    122,
    122,
    122,
    122,
    122,
    122,
    122,
    122,
    122,
    122,
    122,
    122,
    122,
    122,
    122,
    122,
    122,
    122,
    122,
    122,
    122,
    122,
    122,
    122,
    122,
    122,
    122,
    122,
    122,
    122,
    122,
    122,
    122,
    122,
    122,
    122,
    122,
    122,
    122,
    122,
    122,
    122,
    122,
    122,
    122,
    122,
    122,
    122,
    122,
    122,
    122,
    122,
    122,
    122,
    122,
    122,
    122,
    122,
    122,
    122,
    122,
    122,
    122,
    122,
    122,
    122,
    122,
    124,
    124,
    124,
    124,
    124,
    124,
    124,
    124,
    124,
    124,
    124,
    124,
    124,
    124,
    124,
    124,
    124,
    124,
    124,
    124,
    124,
    124,
    124,
    124,
    124,
    124,
    124,
    124,
    124,
    124,
    124,
    124,
    124,
    124,
    124,
    124,
    124,
    124,
    124,
    124,
    124,
    124,
    124,
    124,
    124,
    124,
    124,
    124,
    124,
    124,
    124,
    124,
    124,
    124,
    124,
    124,
    124,
    124,
    124,
    143,
    143,
    143,
    143,
    143,
    143,
    143,
    143,
    143,
    143,
    143,
    143,
    143,
    143,
    143,
    143,
    143,
    143,
    143,
    143,
    143,
    143,
    143,
    143,
    143,
    143,
    143,
    143,
    143,
    143,
    143,
    143,
    143,
    143,
    143,
    143,
    143,
    143,
    143,
    143,
    143,
    143,
    143,
    143,
    143,
    143,
    143,
    143,
    143,
    143,
    143,
    143,
    143,
    143,
    143,
    143,
    143,
    143,
    143,
    156,
    156,
    156,
    156,
    156,
    156,
    156,
    156,
    156,
    156,
    156,
    156,
    156,
    156,
    156,
    156,
    156,
    156,
    156,
    156,
    156,
    156,
    156,
    156,
    156,
    156,
    156,
    156,
    156,
    156,
    156,
    156,
    156,
    156,
    156,
    156,
    156,
    156,
    156,
    156,
    156,
    156,
    156,
    156,
    156,
    156,
    156,
    156,
    156,
    156,
    156,
    156,
    156,
    156,
    156,
    156,
    156,
    156,
    156,
    145,
    145,
    145,
    145,
    145,
    145,
    145,
    145,
    145,
    145,
    145,
    145,
    145,
    145,
    145,
    145,
    145,
    145,
    145,
    145,
    145,
    145,
    145,
    145,
    145,
    145,
    145,
    145,
    145,
    145,
    145,
    145,
    145,
    145,
    145,
    145,
    145,
    145,
    145,
    145,
    145,
    145,
    145,
    145,
    145,
    145,
    145,
    145,
    145,
    145,
    145,
    145,
    145,
    145,
    145,
    145,
    145,
    145,
    145,
    157,
    138,
    119,
    122,
    122,
    122,
    122,
    122,
    122,
    122,
    122,
    122,
    122,
    122,
    122,
    122,
    122,
    122,
    122,
    122,
    122,
    122,
    122,
    122,
    122,
    122,
    122,
    122,
    122,
    122,
    122,
    122,
    122,
    122,
    122,
    122,
    122,
    122,
    122,
    122,
    122,
    122,
    122,
    122,
    122,
    122,
    122,
    122,
    122,
    122,
    122,
    122,
    122,
    125,
    137,
    157,
    138,
    119,
    122,
    157,
    138,
    120,
    123,
    124,
    124,
    124,
    124,
    124,
    124,
    124,
    124,
    124,
    124,
    124,
    124,
    124,
    124,
    124,
    124,
    124,
    124,
    124,
    124,
    124,
    124,
    124,
    124,
    124,
    124,
    124,
    124,
    124,
    124,
    124,
    124,
    124,
    124,
    124,
    124,
    124,
    124,
    124,
    124,
    124,
    124,
    124,
    124,
    124,
    124,
    124,
    124,
    123,
    126,
    137,
    157,
    138,
    120,
    123,
    157,
    138,
    120,
    126,
    1,
    4,
    4,
    4,
    4,
    4,
    4,
    4,
    4,
    4,
    4,
    4,
    4,
    4,
    4,
    4,
    4,
    4,
    4,
    4,
    4,
    4,
    4,
    4,
    4,
    4,
    4,
    4,
    4,
    4,
    4,
    4,
    4,
    4,
    4,
    4,
    4,
    4,
    4,
    4,
    4,
    4,
    4,
    4,
    4,
    4,
    4,
    7,
    120,
    126,
    137,
    157,
    138,
    120,
    126,
    157,
    138,
    120,
    126,
    94,
    6,
    6,
    87,
    99,
    6,
    6,
    6,
    6,
    6,
    87,
    99,
    6,
    6,
    6,
    6,
    6,
    87,
    5,
    5,
    5,
    5,
    5,
    5,
    5,
    5,
    5,
    5,
    5,
    5,
    99,
    6,
    6,
    6,
    6,
    6,
    87,
    5,
    5,
    5,
    5,
    5,
    5,
    5,
    99,
    6,
    6,
    97,
    120,
    126,
    137,
    157,
    138,
    120,
    126,
    157,
    138,
    120,
    126,
    90,
    62,
    68,
    2,
    8,
    10,
    13,
    13,
    13,
    16,
    2,
    8,
    62,
    65,
    65,
    65,
    68,
    2,
    5,
    5,
    5,
    5,
    5,
    5,
    5,
    5,
    5,
    5,
    5,
    5,
    8,
    62,
    65,
    65,
    65,
    68,
    2,
    5,
    5,
    5,
    5,
    5,
    5,
    5,
    8,
    62,
    68,
    90,
    120,
    126,
    137,
    157,
    138,
    120,
    126,
    157,
    138,
    120,
    126,
    90,
    63,
    69,
    2,
    8,
    11,
    1,
    4,
    7,
    17,
    2,
    8,
    63,
    66,
    66,
    66,
    69,
    2,
    5,
    5,
    5,
    5,
    5,
    5,
    5,
    5,
    5,
    5,
    5,
    5,
    8,
    63,
    66,
    66,
    66,
    69,
    2,
    5,
    5,
    5,
    5,
    5,
    5,
    5,
    8,
    63,
    69,
    90,
    120,
    126,
    137,
    157,
    138,
    120,
    126,
    157,
    138,
    120,
    126,
    90,
    63,
    69,
    2,
    8,
    11,
    2,
    5,
    8,
    76,
    2,
    8,
    63,
    66,
    66,
    66,
    69,
    2,
    5,
    5,
    5,
    5,
    5,
    5,
    5,
    5,
    5,
    5,
    5,
    5,
    8,
    63,
    66,
    66,
    66,
    69,
    2,
    99,
    6,
    6,
    6,
    6,
    6,
    87,
    8,
    63,
    69,
    90,
    120,
    126,
    137,
    157,
    138,
    120,
    126,
    157,
    138,
    120,
    126,
    90,
    63,
    69,
    2,
    8,
    11,
    3,
    6,
    9,
    17,
    2,
    8,
    63,
    66,
    66,
    66,
    69,
    2,
    5,
    5,
    5,
    5,
    5,
    5,
    5,
    5,
    5,
    5,
    5,
    5,
    8,
    63,
    66,
    66,
    66,
    69,
    2,
    8,
    10,
    13,
    13,
    13,
    16,
    2,
    8,
    63,
    69,
    90,
    120,
    126,
    137,
    157,
    138,
    120,
    126,
    157,
    138,
    120,
    126,
    90,
    63,
    69,
    2,
    8,
    12,
    15,
    82,
    15,
    18,
    2,
    8,
    63,
    66,
    66,
    66,
    69,
    2,
    5,
    5,
    5,
    5,
    5,
    5,
    5,
    5,
    5,
    5,
    5,
    5,
    8,
    63,
    66,
    66,
    66,
    69,
    2,
    8,
    11,
    15,
    14,
    14,
    17,
    2,
    8,
    63,
    69,
    90,
    120,
    126,
    137,
    157,
    138,
    121,
    127,
    157,
    138,
    120,
    126,
    90,
    63,
    69,
    3,
    84,
    85,
    7,
    77,
    1,
    4,
    93,
    8,
    64,
    67,
    67,
    67,
    70,
    2,
    5,
    5,
    5,
    99,
    6,
    6,
    6,
    6,
    87,
    5,
    5,
    5,
    8,
    64,
    67,
    67,
    67,
    70,
    2,
    8,
    11,
    15,
    11,
    14,
    17,
    2,
    8,
    63,
    69,
    90,
    120,
    126,
    137,
    157,
    138,
    0,
    0,
    157,
    138,
    120,
    126,
    90,
    63,
    66,
    65,
    68,
    2,
    8,
    77,
    2,
    5,
    5,
    96,
    4,
    4,
    4,
    4,
    4,
    93,
    5,
    5,
    5,
    8,
    10,
    13,
    13,
    16,
    2,
    5,
    5,
    5,
    96,
    4,
    4,
    4,
    4,
    4,
    93,
    8,
    12,
    15,
    82,
    15,
    18,
    94,
    9,
    63,
    69,
    90,
    120,
    126,
    137,
    157,
    138,
    119,
    125,
    157,
    138,
    120,
    126,
    90,
    63,
    66,
    66,
    69,
    2,
    8,
    77,
    3,
    6,
    6,
    6,
    6,
    6,
    6,
    6,
    6,
    6,
    6,
    6,
    6,
    9,
    11,
    14,
    14,
    17,
    3,
    6,
    6,
    6,
    6,
    6,
    6,
    6,
    6,
    6,
    6,
    84,
    91,
    92,
    77,
    1,
    4,
    98,
    62,
    66,
    69,
    90,
    120,
    126,
    137,
    157,
    138,
    119,
    125,
    157,
    138,
    120,
    126,
    90,
    63,
    66,
    66,
    69,
    2,
    8,
    79,
    78,
    78,
    78,
    78,
    78,
    78,
    78,
    78,
    78,
    78,
    78,
    78,
    78,
    78,
    75,
    14,
    14,
    81,
    78,
    78,
    78,
    78,
    78,
    78,
    78,
    78,
    78,
    78,
    78,
    78,
    78,
    78,
    80,
    2,
    5,
    89,
    63,
    66,
    69,
    90,
    120,
    126,
    137,
    157,
    138,
    120,
    126,
    157,
    138,
    120,
    126,
    90,
    63,
    66,
    66,
    69,
    3,
    84,
    91,
    91,
    91,
    91,
    91,
    91,
    91,
    91,
    91,
    91,
    91,
    91,
    91,
    85,
    7,
    11,
    14,
    14,
    17,
    1,
    83,
    91,
    91,
    91,
    91,
    91,
    91,
    91,
    91,
    91,
    91,
    91,
    91,
    91,
    86,
    88,
    9,
    63,
    66,
    69,
    90,
    120,
    126,
    137,
    157,
    138,
    120,
    126,
    157,
    138,
    120,
    126,
    90,
    63,
    66,
    66,
    66,
    65,
    65,
    65,
    65,
    65,
    65,
    65,
    65,
    65,
    65,
    65,
    65,
    65,
    65,
    68,
    2,
    8,
    11,
    14,
    14,
    17,
    2,
    8,
    62,
    65,
    65,
    65,
    65,
    65,
    65,
    65,
    65,
    65,
    65,
    65,
    65,
    65,
    65,
    65,
    66,
    66,
    69,
    90,
    120,
    126,
    137,
    157,
    138,
    120,
    126,
    157,
    138,
    120,
    126,
    90,
    64,
    67,
    67,
    67,
    67,
    67,
    67,
    67,
    67,
    67,
    67,
    67,
    67,
    67,
    67,
    67,
    67,
    67,
    70,
    2,
    8,
    11,
    14,
    14,
    17,
    2,
    8,
    64,
    67,
    67,
    67,
    67,
    67,
    67,
    67,
    67,
    67,
    67,
    67,
    67,
    67,
    67,
    67,
    67,
    67,
    70,
    90,
    120,
    126,
    137,
    157,
    138,
    120,
    126,
    157,
    138,
    120,
    126,
    95,
    4,
    4,
    4,
    4,
    4,
    4,
    4,
    4,
    4,
    4,
    4,
    4,
    4,
    4,
    4,
    4,
    4,
    4,
    4,
    93,
    8,
    11,
    14,
    14,
    17,
    2,
    96,
    4,
    4,
    4,
    4,
    4,
    4,
    4,
    4,
    4,
    4,
    4,
    4,
    4,
    4,
    4,
    4,
    4,
    4,
    4,
    98,
    120,
    126,
    137,
    157,
    138,
    120,
    126,
    157,
    138,
    120,
    126,
    1,
    5,
    5,
    5,
    5,
    5,
    5,
    5,
    5,
    5,
    5,
    5,
    5,
    5,
    5,
    5,
    5,
    5,
    5,
    5,
    5,
    8,
    11,
    14,
    14,
    17,
    2,
    5,
    5,
    5,
    5,
    5,
    5,
    5,
    5,
    5,
    5,
    5,
    5,
    5,
    5,
    5,
    5,
    5,
    5,
    5,
    5,
    7,
    120,
    126,
    137,
    157,
    138,
    121,
    127,
    157,
    138,
    120,
    126,
    2,
    5,
    5,
    5,
    5,
    5,
    5,
    5,
    5,
    5,
    5,
    5,
    5,
    5,
    5,
    5,
    5,
    5,
    5,
    5,
    5,
    8,
    11,
    14,
    14,
    17,
    2,
    5,
    5,
    5,
    5,
    5,
    5,
    5,
    5,
    5,
    5,
    5,
    5,
    5,
    5,
    5,
    5,
    5,
    5,
    5,
    5,
    8,
    120,
    126,
    137,
    157,
    138,
    0,
    0,
    157,
    138,
    120,
    126,
    2,
    5,
    5,
    5,
    5,
    5,
    5,
    5,
    5,
    5,
    5,
    5,
    5,
    5,
    5,
    5,
    5,
    5,
    5,
    5,
    5,
    8,
    11,
    14,
    14,
    17,
    2,
    5,
    5,
    5,
    5,
    5,
    5,
    5,
    5,
    5,
    5,
    5,
    5,
    5,
    5,
    5,
    5,
    5,
    5,
    5,
    5,
    8,
    120,
    126,
    137,
    157,
    138,
    119,
    125,
    157,
    138,
    120,
    126,
    2,
    5,
    5,
    5,
    5,
    5,
    5,
    5,
    5,
    5,
    5,
    5,
    5,
    5,
    5,
    5,
    5,
    5,
    5,
    5,
    5,
    8,
    11,
    14,
    14,
    17,
    2,
    5,
    5,
    5,
    5,
    5,
    5,
    5,
    5,
    5,
    5,
    5,
    5,
    5,
    5,
    5,
    5,
    5,
    5,
    5,
    5,
    8,
    120,
    126,
    137,
    157,
    138,
    119,
    125,
    157,
    138,
    120,
    126,
    2,
    5,
    5,
    5,
    5,
    5,
    5,
    5,
    5,
    5,
    5,
    5,
    5,
    5,
    5,
    5,
    5,
    5,
    5,
    5,
    5,
    8,
    11,
    14,
    14,
    17,
    2,
    5,
    5,
    5,
    5,
    5,
    5,
    5,
    5,
    5,
    5,
    5,
    5,
    5,
    5,
    5,
    5,
    5,
    5,
    5,
    5,
    8,
    120,
    126,
    137,
    157,
    138,
    120,
    126,
    157,
    138,
    120,
    126,
    2,
    5,
    5,
    5,
    5,
    5,
    5,
    5,
    5,
    5,
    5,
    5,
    5,
    5,
    5,
    5,
    5,
    5,
    5,
    5,
    5,
    8,
    11,
    14,
    14,
    17,
    2,
    5,
    5,
    5,
    5,
    5,
    5,
    5,
    5,
    5,
    5,
    5,
    5,
    5,
    5,
    5,
    5,
    5,
    5,
    5,
    5,
    8,
    120,
    126,
    137,
    157,
    138,
    120,
    126,
    157,
    138,
    120,
    126,
    2,
    5,
    5,
    5,
    5,
    5,
    5,
    5,
    5,
    5,
    5,
    5,
    5,
    5,
    5,
    5,
    5,
    5,
    5,
    5,
    5,
    8,
    11,
    14,
    14,
    17,
    2,
    5,
    5,
    5,
    5,
    5,
    5,
    5,
    5,
    5,
    5,
    5,
    5,
    5,
    5,
    5,
    5,
    5,
    5,
    5,
    5,
    8,
    120,
    126,
    137,
    157,
    138,
    120,
    126,
    157,
    138,
    120,
    126,
    2,
    5,
    5,
    5,
    5,
    5,
    5,
    5,
    5,
    5,
    5,
    5,
    5,
    5,
    5,
    5,
    5,
    5,
    5,
    5,
    5,
    8,
    11,
    14,
    14,
    17,
    2,
    5,
    5,
    5,
    5,
    5,
    5,
    5,
    5,
    5,
    5,
    5,
    5,
    5,
    5,
    5,
    5,
    5,
    5,
    5,
    5,
    8,
    120,
    126,
    137,
    157,
    138,
    120,
    126,
    157,
    138,
    120,
    126,
    2,
    5,
    5,
    5,
    5,
    5,
    5,
    5,
    5,
    5,
    5,
    5,
    5,
    5,
    5,
    5,
    5,
    5,
    5,
    5,
    5,
    8,
    11,
    14,
    14,
    17,
    2,
    5,
    5,
    5,
    5,
    5,
    5,
    5,
    5,
    5,
    5,
    5,
    5,
    5,
    5,
    5,
    5,
    5,
    5,
    5,
    5,
    8,
    120,
    126,
    137,
    157,
    138,
    121,
    127,
    157,
    138,
    120,
    126,
    2,
    5,
    5,
    5,
    5,
    5,
    5,
    5,
    5,
    5,
    5,
    5,
    5,
    5,
    5,
    5,
    5,
    5,
    5,
    5,
    5,
    8,
    11,
    14,
    14,
    17,
    2,
    5,
    5,
    5,
    5,
    5,
    5,
    5,
    5,
    5,
    5,
    5,
    5,
    5,
    5,
    5,
    5,
    5,
    5,
    5,
    5,
    8,
    120,
    126,
    137,
    157,
    138,
    0,
    0,
    157,
    138,
    120,
    126,
    2,
    5,
    5,
    5,
    5,
    5,
    5,
    5,
    5,
    5,
    5,
    5,
    5,
    5,
    5,
    5,
    5,
    5,
    5,
    5,
    5,
    8,
    11,
    14,
    14,
    17,
    2,
    5,
    5,
    5,
    5,
    5,
    5,
    5,
    5,
    5,
    5,
    5,
    5,
    5,
    5,
    5,
    5,
    5,
    5,
    5,
    5,
    8,
    120,
    126,
    137,
    157,
    138,
    119,
    125,
    157,
    138,
    120,
    126,
    2,
    5,
    5,
    5,
    5,
    5,
    5,
    5,
    5,
    5,
    5,
    5,
    5,
    5,
    5,
    5,
    5,
    5,
    5,
    5,
    5,
    8,
    11,
    14,
    14,
    17,
    2,
    5,
    5,
    5,
    5,
    5,
    5,
    5,
    5,
    5,
    5,
    5,
    5,
    5,
    5,
    5,
    5,
    5,
    5,
    5,
    5,
    8,
    120,
    126,
    137,
    157,
    138,
    119,
    125,
    157,
    138,
    120,
    126,
    2,
    5,
    5,
    5,
    5,
    5,
    5,
    5,
    5,
    5,
    5,
    5,
    5,
    5,
    5,
    5,
    5,
    5,
    5,
    5,
    5,
    8,
    11,
    14,
    14,
    17,
    2,
    5,
    5,
    5,
    5,
    5,
    5,
    5,
    5,
    5,
    5,
    5,
    5,
    5,
    5,
    5,
    5,
    5,
    5,
    5,
    5,
    8,
    120,
    126,
    137,
    157,
    138,
    120,
    126,
    157,
    138,
    120,
    126,
    2,
    5,
    5,
    5,
    5,
    5,
    5,
    5,
    5,
    5,
    5,
    5,
    5,
    5,
    5,
    5,
    5,
    5,
    5,
    5,
    5,
    8,
    11,
    14,
    14,
    17,
    2,
    5,
    5,
    5,
    5,
    5,
    5,
    5,
    5,
    5,
    5,
    5,
    5,
    5,
    5,
    5,
    5,
    5,
    5,
    5,
    5,
    8,
    120,
    126,
    137,
    157,
    138,
    120,
    126,
    157,
    138,
    120,
    126,
    2,
    5,
    5,
    5,
    5,
    5,
    5,
    5,
    5,
    5,
    5,
    5,
    5,
    5,
    5,
    5,
    5,
    5,
    5,
    5,
    5,
    8,
    11,
    14,
    14,
    17,
    2,
    5,
    5,
    5,
    5,
    5,
    5,
    5,
    5,
    5,
    5,
    5,
    5,
    5,
    5,
    5,
    5,
    5,
    5,
    5,
    5,
    8,
    120,
    126,
    137,
    157,
    138,
    120,
    126,
    157,
    138,
    120,
    126,
    2,
    5,
    5,
    5,
    5,
    5,
    5,
    5,
    5,
    5,
    5,
    5,
    5,
    5,
    5,
    5,
    5,
    5,
    5,
    5,
    5,
    8,
    11,
    14,
    14,
    17,
    2,
    5,
    5,
    5,
    5,
    5,
    5,
    5,
    5,
    5,
    5,
    5,
    5,
    5,
    5,
    5,
    5,
    5,
    5,
    5,
    5,
    8,
    120,
    126,
    137,
    157,
    138,
    120,
    126,
    157,
    138,
    120,
    126,
    3,
    6,
    6,
    6,
    6,
    6,
    6,
    6,
    6,
    6,
    6,
    6,
    6,
    6,
    6,
    6,
    6,
    6,
    6,
    6,
    6,
    9,
    12,
    15,
    15,
    18,
    3,
    6,
    6,
    6,
    6,
    6,
    6,
    6,
    6,
    6,
    6,
    6,
    6,
    6,
    6,
    6,
    6,
    6,
    6,
    6,
    6,
    9,
    120,
    126,
    137,
    157,
    138,
    120,
    126,
    157,
    138,
    120,
    123,
    122,
    122,
    122,
    122,
    122,
    122,
    122,
    122,
    122,
    122,
    122,
    122,
    122,
    122,
    122,
    122,
    122,
    122,
    122,
    122,
    122,
    122,
    122,
    122,
    122,
    122,
    122,
    122,
    122,
    122,
    122,
    122,
    122,
    122,
    122,
    122,
    122,
    122,
    122,
    122,
    122,
    122,
    122,
    122,
    122,
    122,
    122,
    122,
    123,
    126,
    137,
    157,
    138,
    120,
    123,
    157,
    138,
    121,
    124,
    124,
    124,
    124,
    124,
    124,
    124,
    124,
    124,
    124,
    124,
    124,
    124,
    124,
    124,
    124,
    124,
    124,
    124,
    124,
    124,
    124,
    124,
    124,
    124,
    124,
    124,
    124,
    124,
    124,
    124,
    124,
    124,
    124,
    124,
    124,
    124,
    124,
    124,
    124,
    124,
    124,
    124,
    124,
    124,
    124,
    124,
    124,
    124,
    124,
    127,
    137,
    157,
    138,
    121,
    124,
    143,
    143,
    121,
    124,
    143,
    143,
    143,
    143,
    143,
    143,
    143,
    143,
    143,
    143,
    143,
    143,
    143,
    143,
    143,
    143,
    143,
    143,
    143,
    143,
    143,
    143,
    143,
    143,
    143,
    143,
    143,
    143,
    143,
    143,
    143,
    143,
    143,
    143,
    143,
    143,
    143,
    143,
    143,
    143,
    143,
    143,
    143,
    143,
    143,
    143,
    143,
    143,
    143,
    143,
    137,
    157,
    138,
    143,
    143,
    156,
    156,
    121,
    124,
    156,
    156,
    156,
    156,
    156,
    156,
    156,
    156,
    156,
    156,
    156,
    156,
    156,
    156,
    156,
    156,
    156,
    156,
    156,
    156,
    156,
    156,
    156,
    156,
    156,
    156,
    156,
    156,
    156,
    156,
    156,
    156,
    156,
    156,
    156,
    156,
    156,
    156,
    156,
    156,
    156,
    156,
    156,
    156,
    156,
    156,
    156,
    156,
    156,
    156,
    137,
    157,
    138,
    156,
    156,
    145,
    145,
    119,
    122,
    145,
    145,
    145,
    145,
    145,
    145,
    145,
    145,
    145,
    145,
    145,
    145,
    145,
    145,
    145,
    145,
    145,
    145,
    145,
    145,
    145,
    145,
    145,
    145,
    145,
    145,
    145,
    145,
    145,
    145,
    145,
    145,
    145,
    145,
    145,
    145,
    145,
    145,
    145,
    145,
    145,
    145,
    145,
    145,
    145,
    145,
    145,
    145,
    145,
    145,
    137,
    157,
    138,
    145,
    145,
    157,
    138,
    119,
    122,
    122,
    122,
    122,
    122,
    122,
    122,
    122,
    122,
    122,
    122,
    122,
    122,
    122,
    122,
    122,
    122,
    122,
    122,
    122,
    122,
    122,
    122,
    122,
    122,
    122,
    122,
    122,
    122,
    122,
    122,
    122,
    122,
    122,
    122,
    122,
    122,
    122,
    122,
    122,
    122,
    122,
    122,
    122,
    122,
    122,
    122,
    122,
    122,
    122,
    125,
    137,
    157,
    138,
    119,
    122,
    157,
    138,
    120,
    123,
    124,
    124,
    124,
    124,
    124,
    124,
    124,
    124,
    124,
    124,
    124,
    124,
    124,
    124,
    124,
    124,
    124,
    124,
    124,
    124,
    124,
    124,
    124,
    124,
    124,
    124,
    124,
    124,
    124,
    124,
    124,
    124,
    124,
    124,
    124,
    124,
    124,
    124,
    124,
    124,
    124,
    124,
    124,
    124,
    124,
    124,
    124,
    124,
    123,
    126,
    137,
    157,
    138,
    120,
    123,
    157,
    138,
    120,
    126,
    1,
    4,
    4,
    4,
    4,
    4,
    4,
    4,
    4,
    4,
    4,
    4,
    4,
    4,
    4,
    4,
    4,
    4,
    4,
    4,
    4,
    4,
    4,
    4,
    4,
    4,
    4,
    4,
    4,
    4,
    4,
    4,
    4,
    4,
    4,
    4,
    4,
    4,
    4,
    4,
    4,
    4,
    4,
    4,
    4,
    4,
    4,
    7,
    120,
    126,
    137,
    157,
    138,
    120,
    126
   ],
   "properties": [
    {
     "name": "gv2layer",
     "type": "string",
     "value": "Floor"
    },
    {
     "name": "z",
     "type": "int",
     "value": 0
    },
    {
     "name": "collision",
     "type": "bool",
     "value": false
    }
   ]
  },
  {
   "type": "objectgroup",
   "id": 2,
   "name": "Floor \u00b7obj",
   "x": 0,
   "y": 0,
   "opacity": 1,
   "visible": true,
   "draworder": "index",
   "objects": [
    {
     "id": 1,
     "gid": 104,
     "name": "gk1_124_0_0",
     "x": 3648,
     "y": 960,
     "width": 64,
     "height": 128,
     "visible": true
    },
    {
     "id": 2,
     "gid": 104,
     "name": "gk1_124_0_0",
     "x": 3648,
     "y": 1536,
     "width": 64,
     "height": 128,
     "visible": true
    },
    {
     "id": 3,
     "gid": 104,
     "name": "gk1_124_0_0",
     "x": 3648,
     "y": 2048,
     "width": 64,
     "height": 128,
     "visible": true
    },
    {
     "id": 4,
     "gid": 104,
     "name": "gk1_124_0_0",
     "x": 3712,
     "y": 960,
     "width": 64,
     "height": 128,
     "visible": true
    },
    {
     "id": 5,
     "gid": 104,
     "name": "gk1_124_0_0",
     "x": 3712,
     "y": 1536,
     "width": 64,
     "height": 128,
     "visible": true
    },
    {
     "id": 6,
     "gid": 104,
     "name": "gk1_124_0_0",
     "x": 3712,
     "y": 2048,
     "width": 64,
     "height": 128,
     "visible": true
    }
   ],
   "properties": [
    {
     "name": "gv2layer",
     "type": "string",
     "value": "Floor"
    },
    {
     "name": "z",
     "type": "int",
     "value": 0
    },
    {
     "name": "collision",
     "type": "bool",
     "value": false
    }
   ]
  },
  {
   "type": "tilelayer",
   "id": 3,
   "name": "Over Floor",
   "width": 59,
   "height": 48,
   "x": 0,
   "y": 0,
   "opacity": 1,
   "visible": true,
   "data": [
    0,
    0,
    0,
    0,
    0,
    0,
    0,
    0,
    0,
    0,
    0,
    0,
    0,
    0,
    0,
    0,
    0,
    0,
    0,
    0,
    0,
    0,
    0,
    0,
    0,
    0,
    0,
    0,
    0,
    0,
    0,
    0,
    0,
    0,
    0,
    0,
    0,
    0,
    0,
    0,
    0,
    0,
    0,
    0,
    0,
    0,
    0,
    0,
    0,
    0,
    0,
    0,
    0,
    0,
    0,
    0,
    0,
    0,
    0,
    0,
    0,
    0,
    0,
    0,
    0,
    0,
    0,
    0,
    0,
    0,
    0,
    0,
    0,
    0,
    0,
    0,
    0,
    0,
    0,
    0,
    0,
    0,
    0,
    0,
    0,
    0,
    0,
    0,
    0,
    0,
    0,
    0,
    0,
    0,
    0,
    0,
    0,
    0,
    0,
    0,
    0,
    0,
    0,
    0,
    0,
    0,
    0,
    0,
    0,
    0,
    0,
    0,
    0,
    0,
    0,
    0,
    0,
    0,
    0,
    0,
    0,
    0,
    0,
    0,
    0,
    0,
    0,
    0,
    0,
    0,
    0,
    0,
    0,
    0,
    0,
    0,
    0,
    0,
    0,
    0,
    0,
    0,
    0,
    0,
    0,
    0,
    0,
    0,
    0,
    0,
    0,
    0,
    0,
    0,
    0,
    0,
    0,
    0,
    0,
    0,
    0,
    0,
    0,
    0,
    0,
    0,
    0,
    0,
    0,
    0,
    0,
    0,
    0,
    0,
    0,
    0,
    0,
    0,
    0,
    0,
    0,
    0,
    0,
    0,
    0,
    0,
    0,
    0,
    0,
    0,
    0,
    0,
    0,
    0,
    0,
    0,
    0,
    0,
    0,
    0,
    0,
    0,
    0,
    0,
    0,
    0,
    0,
    0,
    0,
    0,
    0,
    0,
    0,
    0,
    0,
    0,
    0,
    0,
    0,
    0,
    0,
    0,
    0,
    0,
    0,
    0,
    0,
    0,
    0,
    0,
    0,
    0,
    0,
    0,
    0,
    0,
    0,
    0,
    0,
    0,
    0,
    0,
    0,
    0,
    0,
    0,
    0,
    0,
    0,
    0,
    0,
    0,
    0,
    0,
    0,
    0,
    0,
    0,
    0,
    0,
    0,
    0,
    0,
    0,
    0,
    0,
    0,
    0,
    0,
    0,
    0,
    0,
    0,
    0,
    0,
    0,
    0,
    0,
    0,
    0,
    0,
    0,
    0,
    0,
    0,
    0,
    0,
    0,
    0,
    0,
    0,
    0,
    0,
    0,
    0,
    0,
    0,
    0,
    0,
    0,
    0,
    0,
    0,
    0,
    0,
    0,
    0,
    0,
    0,
    0,
    0,
    0,
    0,
    0,
    0,
    0,
    0,
    0,
    0,
    0,
    0,
    0,
    0,
    0,
    0,
    0,
    0,
    0,
    0,
    0,
    0,
    0,
    0,
    0,
    0,
    0,
    0,
    0,
    0,
    0,
    0,
    0,
    0,
    0,
    0,
    0,
    0,
    0,
    0,
    0,
    0,
    0,
    0,
    0,
    0,
    0,
    0,
    0,
    0,
    0,
    0,
    0,
    0,
    0,
    0,
    0,
    0,
    0,
    0,
    0,
    0,
    0,
    0,
    0,
    0,
    0,
    0,
    0,
    0,
    0,
    0,
    0,
    0,
    0,
    0,
    0,
    0,
    0,
    0,
    0,
    0,
    0,
    0,
    0,
    0,
    0,
    0,
    0,
    0,
    0,
    0,
    0,
    0,
    0,
    0,
    0,
    0,
    0,
    0,
    0,
    0,
    0,
    0,
    0,
    0,
    0,
    0,
    0,
    0,
    0,
    0,
    0,
    0,
    0,
    0,
    0,
    0,
    0,
    0,
    0,
    0,
    0,
    0,
    0,
    0,
    0,
    0,
    0,
    0,
    0,
    0,
    0,
    0,
    0,
    0,
    0,
    0,
    0,
    0,
    0,
    0,
    0,
    0,
    0,
    0,
    0,
    0,
    0,
    0,
    0,
    0,
    0,
    0,
    0,
    0,
    0,
    0,
    0,
    0,
    0,
    0,
    0,
    0,
    0,
    0,
    0,
    0,
    0,
    0,
    0,
    0,
    0,
    0,
    0,
    0,
    0,
    0,
    0,
    0,
    0,
    0,
    0,
    0,
    0,
    0,
    0,
    0,
    0,
    0,
    0,
    0,
    0,
    0,
    0,
    0,
    0,
    0,
    0,
    0,
    0,
    0,
    0,
    0,
    0,
    0,
    0,
    0,
    0,
    0,
    0,
    0,
    0,
    0,
    0,
    0,
    0,
    0,
    0,
    0,
    0,
    0,
    0,
    0,
    0,
    0,
    0,
    0,
    0,
    0,
    0,
    0,
    0,
    0,
    0,
    0,
    0,
    0,
    0,
    0,
    0,
    0,
    0,
    0,
    0,
    0,
    0,
    0,
    0,
    0,
    0,
    0,
    0,
    0,
    0,
    0,
    0,
    0,
    0,
    0,
    0,
    0,
    0,
    0,
    0,
    0,
    0,
    0,
    0,
    0,
    0,
    0,
    0,
    0,
    0,
    0,
    0,
    0,
    0,
    0,
    0,
    0,
    0,
    0,
    0,
    0,
    0,
    0,
    0,
    0,
    0,
    0,
    0,
    0,
    0,
    0,
    0,
    0,
    0,
    0,
    0,
    0,
    0,
    0,
    0,
    0,
    0,
    0,
    0,
    0,
    0,
    0,
    0,
    0,
    0,
    0,
    0,
    0,
    0,
    0,
    0,
    0,
    0,
    0,
    0,
    0,
    0,
    0,
    0,
    0,
    0,
    0,
    0,
    0,
    0,
    0,
    0,
    0,
    0,
    0,
    0,
    0,
    0,
    0,
    0,
    0,
    0,
    0,
    0,
    0,
    0,
    0,
    0,
    0,
    0,
    0,
    0,
    0,
    0,
    0,
    0,
    0,
    0,
    0,
    0,
    0,
    0,
    0,
    0,
    0,
    0,
    0,
    0,
    0,
    0,
    0,
    0,
    0,
    0,
    0,
    0,
    0,
    0,
    0,
    0,
    0,
    0,
    0,
    0,
    0,
    0,
    0,
    0,
    0,
    0,
    0,
    0,
    0,
    0,
    0,
    0,
    0,
    0,
    0,
    0,
    0,
    0,
    0,
    0,
    0,
    0,
    0,
    0,
    0,
    0,
    0,
    0,
    0,
    0,
    0,
    0,
    0,
    0,
    0,
    0,
    0,
    0,
    0,
    0,
    0,
    0,
    0,
    0,
    0,
    0,
    0,
    0,
    0,
    0,
    0,
    0,
    0,
    0,
    0,
    0,
    0,
    0,
    0,
    0,
    0,
    0,
    0,
    0,
    0,
    0,
    0,
    0,
    0,
    0,
    0,
    0,
    0,
    0,
    0,
    0,
    0,
    0,
    0,
    0,
    0,
    0,
    0,
    0,
    0,
    0,
    0,
    0,
    0,
    0,
    0,
    0,
    0,
    0,
    0,
    0,
    0,
    0,
    0,
    0,
    0,
    0,
    0,
    0,
    0,
    0,
    0,
    0,
    0,
    0,
    0,
    0,
    0,
    0,
    0,
    0,
    0,
    0,
    0,
    0,
    0,
    0,
    0,
    0,
    0,
    0,
    0,
    0,
    0,
    0,
    0,
    0,
    0,
    0,
    0,
    0,
    0,
    0,
    0,
    0,
    0,
    0,
    0,
    0,
    0,
    0,
    0,
    0,
    0,
    0,
    0,
    0,
    0,
    0,
    0,
    0,
    0,
    0,
    0,
    0,
    0,
    0,
    0,
    0,
    0,
    0,
    0,
    0,
    0,
    0,
    0,
    0,
    0,
    0,
    0,
    0,
    0,
    0,
    0,
    0,
    0,
    0,
    0,
    0,
    0,
    0,
    0,
    0,
    0,
    0,
    0,
    0,
    0,
    0,
    0,
    0,
    0,
    0,
    0,
    0,
    0,
    0,
    0,
    0,
    0,
    0,
    0,
    0,
    0,
    0,
    0,
    0,
    0,
    0,
    0,
    0,
    0,
    0,
    0,
    0,
    0,
    0,
    0,
    0,
    0,
    0,
    0,
    0,
    0,
    0,
    0,
    0,
    0,
    0,
    0,
    0,
    0,
    0,
    0,
    0,
    0,
    0,
    0,
    0,
    0,
    0,
    0,
    0,
    0,
    0,
    0,
    0,
    0,
    0,
    0,
    0,
    0,
    0,
    0,
    0,
    0,
    0,
    0,
    0,
    0,
    0,
    0,
    0,
    0,
    0,
    0,
    0,
    144,
    144,
    144,
    144,
    0,
    0,
    0,
    0,
    0,
    0,
    0,
    0,
    0,
    0,
    0,
    0,
    0,
    0,
    0,
    0,
    0,
    0,
    0,
    0,
    0,
    0,
    0,
    0,
    0,
    0,
    0,
    0,
    0,
    0,
    0,
    0,
    0,
    0,
    0,
    0,
    0,
    0,
    0,
    0,
    0,
    0,
    0,
    0,
    0,
    0,
    0,
    0,
    0,
    0,
    0,
    0,
    0,
    0,
    0,
    0,
    0,
    0,
    0,
    0,
    0,
    0,
    0,
    0,
    0,
    0,
    0,
    0,
    0,
    0,
    0,
    0,
    0,
    0,
    0,
    0,
    0,
    0,
    0,
    0,
    0,
    0,
    0,
    0,
    0,
    0,
    0,
    0,
    0,
    0,
    0,
    0,
    0,
    0,
    0,
    0,
    0,
    0,
    0,
    0,
    0,
    0,
    0,
    0,
    0,
    0,
    0,
    0,
    0,
    0,
    0,
    0,
    0,
    0,
    0,
    0,
    0,
    0,
    0,
    0,
    0,
    0,
    0,
    0,
    0,
    0,
    0,
    0,
    0,
    0,
    0,
    0,
    0,
    0,
    0,
    0,
    0,
    0,
    0,
    0,
    0,
    0,
    0,
    0,
    0,
    0,
    0,
    0,
    0,
    0,
    0,
    0,
    0,
    0,
    0,
    0,
    0,
    0,
    0,
    0,
    0,
    0,
    0,
    0,
    0,
    0,
    0,
    0,
    0,
    0,
    0,
    0,
    0,
    0,
    0,
    0,
    0,
    0,
    0,
    0,
    0,
    0,
    0,
    0,
    0,
    0,
    0,
    0,
    0,
    0,
    0,
    0,
    0,
    0,
    0,
    0,
    0,
    0,
    0,
    0,
    0,
    0,
    0,
    0,
    0,
    0,
    0,
    0,
    0,
    0,
    0,
    0,
    0,
    0,
    0,
    0,
    0,
    0,
    0,
    0,
    0,
    0,
    0,
    0,
    0,
    0,
    0,
    0,
    0,
    0,
    0,
    0,
    0,
    0,
    0,
    0,
    0,
    0,
    0,
    0,
    0,
    0,
    0,
    0,
    0,
    0,
    0,
    0,
    0,
    0,
    0,
    0,
    0,
    0,
    0,
    0,
    0,
    0,
    0,
    0,
    0,
    0,
    0,
    0,
    0,
    0,
    0,
    0,
    0,
    0,
    0,
    0,
    0,
    0,
    0,
    0,
    0,
    0,
    0,
    0,
    0,
    0,
    0,
    0,
    0,
    0,
    0,
    0,
    0,
    0,
    0,
    0,
    0,
    0,
    0,
    0,
    0,
    0,
    0,
    0,
    0,
    0,
    0,
    0,
    0,
    0,
    0,
    0,
    0,
    0,
    0,
    0,
    0,
    0,
    0,
    0,
    0,
    0,
    0,
    0,
    0,
    0,
    0,
    0,
    0,
    0,
    0,
    0,
    0,
    0,
    0,
    0,
    0,
    0,
    0,
    0,
    0,
    0,
    0,
    0,
    0,
    0,
    0,
    0,
    0,
    0,
    0,
    0,
    0,
    0,
    0,
    0,
    0,
    0,
    0,
    0,
    0,
    0,
    0,
    0,
    0,
    0,
    0,
    0,
    0,
    0,
    0,
    0,
    0,
    0,
    0,
    0,
    0,
    0,
    0,
    0,
    0,
    0,
    0,
    0,
    0,
    0,
    0,
    0,
    0,
    0,
    0,
    0,
    0,
    0,
    0,
    0,
    0,
    0,
    0,
    0,
    0,
    0,
    0,
    0,
    0,
    0,
    0,
    0,
    0,
    0,
    0,
    0,
    0,
    0,
    0,
    0,
    0,
    0,
    0,
    0,
    0,
    0,
    0,
    0,
    0,
    0,
    0,
    0,
    0,
    0,
    0,
    0,
    0,
    0,
    0,
    0,
    0,
    0,
    0,
    0,
    0,
    0,
    0,
    0,
    0,
    0,
    0,
    0,
    0,
    0,
    0,
    0,
    0,
    0,
    0,
    0,
    0,
    0,
    0,
    0,
    0,
    0,
    0,
    0,
    0,
    0,
    0,
    0,
    0,
    0,
    0,
    0,
    0,
    0,
    0,
    0,
    0,
    0,
    0,
    0,
    0,
    0,
    0,
    0,
    0,
    0,
    0,
    0,
    0,
    0,
    0,
    0,
    0,
    0,
    0,
    0,
    0,
    0,
    0,
    0,
    0,
    0,
    0,
    0,
    0,
    0,
    0,
    0,
    0,
    0,
    0,
    0,
    0,
    0,
    0,
    0,
    0,
    0,
    0,
    0,
    0,
    0,
    0,
    0,
    0,
    0,
    0,
    0,
    0,
    0,
    0,
    0,
    0,
    0,
    0,
    0,
    0,
    0,
    0,
    0,
    0,
    0,
    0,
    0,
    0,
    0,
    0,
    0,
    0,
    0,
    0,
    0,
    0,
    0,
    0,
    0,
    0,
    0,
    0,
    0,
    0,
    0,
    0,
    0,
    0,
    0,
    0,
    0,
    0,
    0,
    0,
    0,
    0,
    0,
    0,
    0,
    0,
    0,
    0,
    0,
    0,
    0,
    0,
    0,
    0,
    0,
    0,
    0,
    0,
    0,
    0,
    0,
    0,
    0,
    0,
    0,
    0,
    0,
    0,
    0,
    0,
    0,
    0,
    0,
    0,
    0,
    0,
    0,
    0,
    0,
    0,
    0,
    0,
    0,
    0,
    0,
    0,
    0,
    0,
    0,
    0,
    0,
    0,
    0,
    0,
    0,
    0,
    0,
    0,
    0,
    0,
    0,
    0,
    0,
    0,
    0,
    0,
    0,
    0,
    0,
    0,
    0,
    0,
    0,
    0,
    0,
    0,
    0,
    0,
    0,
    0,
    0,
    0,
    0,
    0,
    0,
    0,
    0,
    0,
    0,
    0,
    0,
    0,
    0,
    0,
    0,
    0,
    0,
    0,
    0,
    0,
    0,
    0,
    0,
    0,
    0,
    0,
    0,
    0,
    0,
    0,
    0,
    0,
    0,
    0,
    0,
    0,
    0,
    0,
    0,
    0,
    0,
    0,
    0,
    0,
    0,
    0,
    0,
    0,
    0,
    0,
    0,
    0,
    0,
    0,
    0,
    0,
    0,
    0,
    0,
    0,
    0,
    0,
    0,
    0,
    0,
    0,
    0,
    0,
    0,
    0,
    0,
    0,
    0,
    0,
    0,
    0,
    0,
    0,
    0,
    0,
    0,
    0,
    0,
    0,
    0,
    0,
    0,
    0,
    0,
    0,
    0,
    0,
    0,
    0,
    0,
    0,
    0,
    0,
    0,
    0,
    0,
    0,
    0,
    0,
    0,
    0,
    0,
    0,
    0,
    0,
    0,
    0,
    0,
    0,
    0,
    0,
    0,
    0,
    0,
    0,
    0,
    0,
    0,
    0,
    0,
    0,
    0,
    0,
    0,
    0,
    0,
    0,
    0,
    0,
    0,
    0,
    0,
    0,
    0,
    0,
    0,
    0,
    0,
    0,
    0,
    0,
    0,
    0,
    0,
    0,
    0,
    0,
    0,
    0,
    0,
    0,
    0,
    0,
    0,
    0,
    0,
    0,
    0,
    0,
    0,
    0,
    0,
    0,
    0,
    0,
    0,
    0,
    0,
    0,
    0,
    0,
    0,
    0,
    0,
    0,
    0,
    0,
    0,
    0,
    0,
    0,
    0,
    0,
    0,
    0,
    0,
    0,
    0,
    0,
    0,
    0,
    0,
    0,
    0,
    0,
    0,
    0,
    0,
    0,
    0,
    0,
    0,
    0,
    0,
    0,
    0,
    0,
    0,
    0,
    0,
    0,
    0,
    0,
    0,
    0,
    0,
    0,
    0,
    0,
    0,
    0,
    0,
    0,
    0,
    0,
    0,
    0,
    0,
    0,
    0,
    0,
    0,
    0,
    0,
    0,
    0,
    0,
    0,
    0,
    0,
    0,
    0,
    0,
    0,
    0,
    0,
    0,
    0,
    0,
    0,
    0,
    0,
    0,
    0,
    0,
    0,
    0,
    0,
    0,
    0,
    0,
    0,
    0,
    0,
    0,
    0,
    0,
    0,
    0,
    0,
    0,
    0,
    0,
    0,
    0,
    0,
    0,
    0,
    0,
    0,
    0,
    0,
    0,
    0,
    0,
    0,
    0,
    0,
    0,
    0,
    0,
    0,
    0,
    0,
    0,
    0,
    0,
    0,
    0,
    0,
    0,
    0,
    0,
    0,
    0,
    0,
    0,
    0,
    0,
    0,
    0,
    0,
    0,
    0,
    0,
    0,
    0,
    0,
    0,
    0,
    0,
    0,
    0,
    0,
    0,
    0,
    0,
    0,
    0,
    0,
    0,
    0,
    0,
    0,
    0,
    0,
    0,
    0,
    0,
    0,
    0,
    0,
    0,
    0,
    0,
    0,
    0,
    0,
    0,
    0,
    0,
    0,
    0,
    0,
    0,
    0,
    0,
    0,
    0,
    0,
    0,
    0,
    0,
    0,
    0,
    0,
    0,
    0,
    0,
    0,
    0,
    0,
    0,
    0,
    0,
    0,
    0,
    0,
    0,
    0,
    0,
    0,
    0,
    0,
    0,
    0,
    0,
    0,
    0,
    0,
    0,
    0,
    0,
    0,
    0,
    0,
    0,
    0,
    0,
    0,
    0,
    0,
    0,
    0,
    0,
    0,
    0,
    0,
    0,
    0,
    0,
    0,
    0,
    0,
    0,
    0,
    0,
    0,
    0,
    0,
    0,
    0,
    0,
    0,
    0,
    0,
    0,
    0,
    0,
    0,
    0,
    0,
    0,
    0,
    0,
    0,
    0,
    0,
    0,
    0,
    0,
    0,
    0,
    0,
    0,
    0,
    0,
    0,
    0,
    0,
    0,
    0,
    0,
    0,
    0,
    0,
    0,
    0,
    0,
    0,
    0,
    0,
    0,
    0,
    0,
    0,
    0,
    0,
    0,
    0,
    0,
    0,
    0,
    0,
    0,
    0,
    0,
    0,
    0,
    0,
    0,
    0,
    0,
    0,
    0,
    0,
    0,
    0,
    0,
    0,
    0,
    0,
    0,
    0,
    0,
    0,
    0,
    0,
    0,
    0,
    0,
    0,
    0,
    0,
    0,
    0,
    0,
    0,
    0,
    0,
    0,
    0,
    0,
    0,
    0,
    0,
    0,
    0,
    0,
    0,
    0,
    0,
    0,
    0,
    0,
    0,
    0,
    0,
    0,
    0,
    0,
    0,
    0,
    0,
    0,
    0,
    0,
    0,
    0,
    0,
    0,
    0,
    0,
    0,
    0,
    0,
    0,
    0,
    0,
    0,
    0,
    0,
    0,
    0,
    0,
    0,
    0,
    0,
    0,
    0,
    0,
    0,
    0,
    0,
    0,
    0,
    0,
    0,
    0,
    0,
    0,
    0,
    0,
    0,
    0,
    0,
    0,
    0,
    0,
    0,
    0,
    0,
    0,
    0,
    0,
    0,
    0,
    0,
    0,
    0,
    0,
    0,
    0,
    0,
    0,
    0,
    0,
    0,
    0,
    0,
    0,
    0,
    0,
    0,
    0,
    0,
    0,
    0,
    0,
    0,
    0,
    0,
    0,
    0,
    0,
    0,
    0,
    0,
    0,
    0,
    0,
    0,
    0,
    0,
    0,
    0,
    0,
    0,
    0,
    0,
    0,
    0,
    0,
    0,
    0,
    0,
    0,
    0,
    0,
    0,
    0,
    0,
    0,
    0,
    0,
    0,
    0,
    0,
    0,
    0,
    0,
    0,
    0,
    0,
    0,
    0,
    0,
    0,
    0,
    0,
    0,
    0,
    0,
    0,
    0,
    0,
    0,
    0,
    0,
    0,
    0,
    0,
    0,
    0,
    0,
    0,
    0,
    0,
    0,
    0,
    0,
    0,
    0,
    0,
    0,
    0,
    0,
    0,
    0,
    0,
    0,
    0,
    0,
    0,
    0,
    0,
    0,
    0,
    0,
    0,
    0,
    0,
    0,
    0,
    0,
    0,
    0,
    0,
    0,
    0,
    0,
    0,
    0,
    0,
    0,
    0,
    0,
    0,
    0,
    0,
    0,
    0,
    0,
    0,
    0,
    0,
    0,
    0,
    0,
    0,
    0,
    0,
    0,
    0,
    0,
    0,
    0,
    0,
    0,
    0,
    0,
    0,
    0,
    0,
    0,
    0,
    0,
    0,
    0,
    0,
    0,
    0,
    0,
    0,
    0,
    0,
    0,
    0,
    0,
    0,
    0,
    0,
    0,
    0,
    0,
    0,
    0,
    0,
    0,
    0,
    0,
    0,
    0,
    0,
    0,
    0,
    0,
    0,
    0,
    0,
    0,
    0,
    0,
    0,
    0,
    0,
    0,
    0,
    0,
    0,
    0,
    0,
    0,
    0,
    0,
    0,
    0,
    0,
    0,
    0,
    0,
    0,
    0,
    0,
    0,
    0,
    0,
    0,
    0,
    0,
    0,
    0,
    0,
    0,
    0,
    0,
    0,
    0,
    0,
    0,
    0,
    0,
    0,
    0,
    0,
    0,
    0,
    0,
    0,
    0,
    0,
    0,
    0,
    0,
    0,
    0,
    0,
    0,
    0,
    0,
    0,
    0,
    0,
    0,
    0,
    0,
    0,
    0,
    0,
    0,
    0,
    0,
    0,
    0,
    0,
    0,
    0,
    0,
    0,
    0,
    0,
    0,
    0,
    0,
    0,
    0,
    0,
    0,
    0,
    0,
    0,
    0,
    0,
    0,
    0,
    0,
    0,
    0,
    0,
    0,
    0,
    0,
    0,
    0,
    0,
    0,
    0,
    0,
    0,
    0,
    0,
    0,
    0,
    0,
    0,
    0,
    0,
    0,
    0,
    0,
    0,
    0,
    0,
    0,
    0,
    0,
    0,
    0,
    0,
    0,
    0,
    0,
    0,
    0,
    0,
    0,
    0,
    0,
    0,
    0,
    0,
    0,
    0,
    0,
    0,
    0,
    0,
    0,
    0,
    0,
    0,
    0,
    0,
    0,
    0,
    0,
    0,
    0,
    0,
    0,
    0,
    0,
    0,
    0,
    0,
    0,
    0,
    0,
    0,
    0,
    0,
    0,
    0,
    0,
    0,
    0,
    0,
    0,
    0,
    0,
    0,
    0,
    0,
    0,
    0,
    0,
    0,
    0,
    0,
    0,
    0,
    0,
    0,
    0,
    0,
    0,
    0,
    0,
    0,
    0,
    0,
    0,
    0,
    0,
    0,
    0,
    0,
    0,
    0,
    0,
    0,
    0,
    0,
    0,
    0,
    0,
    0,
    0,
    0,
    0,
    0,
    0,
    0,
    0,
    0,
    0,
    0,
    0,
    0,
    0,
    0,
    0,
    0,
    0,
    0,
    0,
    0,
    0,
    0,
    0,
    0,
    0,
    0,
    0,
    0,
    0,
    0,
    0,
    0,
    0,
    0,
    0,
    0,
    0,
    0,
    0,
    0,
    0,
    0,
    0,
    0,
    0,
    0,
    0,
    0,
    0,
    0,
    0,
    0,
    0,
    0,
    0,
    0,
    0,
    0,
    0,
    0,
    0,
    0,
    0,
    0,
    0,
    0,
    0,
    0,
    0,
    0,
    0,
    0,
    0,
    0,
    0,
    0,
    0,
    0,
    0,
    0,
    0,
    0,
    0,
    0,
    0,
    0,
    0,
    0,
    0,
    0,
    0,
    0,
    0,
    0,
    0,
    0,
    0,
    0,
    0,
    0,
    0,
    0,
    0,
    0,
    0,
    0,
    0,
    0,
    0,
    0,
    0,
    0,
    0,
    0,
    0,
    0,
    0,
    0,
    0,
    0,
    0,
    0,
    0,
    0,
    0,
    0,
    0,
    0,
    0,
    0,
    0,
    0,
    0,
    0,
    0,
    0,
    0,
    0,
    0,
    0,
    0,
    0,
    0,
    0,
    0,
    0,
    0,
    0,
    0,
    0,
    0,
    0,
    0,
    0,
    0,
    0,
    0,
    0,
    0,
    0,
    0,
    0,
    0,
    0,
    0,
    0,
    0,
    0,
    0,
    0,
    0,
    0,
    0,
    0,
    0,
    0,
    0,
    0,
    0,
    0,
    0,
    0,
    0,
    0,
    0,
    0,
    0,
    0,
    0,
    0,
    0,
    0,
    0,
    0,
    0,
    0,
    0,
    0,
    0,
    0,
    0,
    0,
    0,
    0,
    0,
    0,
    0,
    0,
    0
   ],
   "properties": [
    {
     "name": "gv2layer",
     "type": "string",
     "value": "Over Floor"
    },
    {
     "name": "z",
     "type": "int",
     "value": 1
    },
    {
     "name": "collision",
     "type": "bool",
     "value": false
    }
   ]
  },
  {
   "type": "objectgroup",
   "id": 4,
   "name": "Water \u00b7obj",
   "x": 0,
   "y": 0,
   "opacity": 1,
   "visible": true,
   "draworder": "index",
   "objects": [
    {
     "id": 7,
     "gid": 155,
     "name": "gk1_64_0_0",
     "x": 1088,
     "y": 704,
     "width": 192,
     "height": 192,
     "visible": true
    }
   ],
   "properties": [
    {
     "name": "gv2layer",
     "type": "string",
     "value": "Water"
    },
    {
     "name": "z",
     "type": "int",
     "value": 1
    },
    {
     "name": "collision",
     "type": "bool",
     "value": false
    }
   ]
  },
  {
   "type": "tilelayer",
   "id": 5,
   "name": "Non-Collidables",
   "width": 59,
   "height": 48,
   "x": 0,
   "y": 0,
   "opacity": 1,
   "visible": true,
   "data": [
    0,
    0,
    0,
    0,
    0,
    0,
    0,
    0,
    0,
    0,
    0,
    0,
    0,
    0,
    0,
    0,
    0,
    0,
    0,
    0,
    0,
    0,
    0,
    0,
    0,
    0,
    0,
    0,
    0,
    0,
    0,
    0,
    0,
    0,
    0,
    0,
    0,
    0,
    0,
    0,
    0,
    0,
    0,
    0,
    0,
    0,
    0,
    0,
    0,
    0,
    0,
    0,
    0,
    0,
    0,
    0,
    0,
    0,
    0,
    0,
    0,
    0,
    0,
    0,
    0,
    0,
    0,
    0,
    0,
    0,
    0,
    0,
    0,
    0,
    0,
    0,
    0,
    0,
    0,
    0,
    0,
    0,
    0,
    0,
    0,
    0,
    0,
    0,
    0,
    0,
    0,
    0,
    0,
    0,
    0,
    0,
    0,
    0,
    0,
    0,
    0,
    0,
    0,
    0,
    0,
    0,
    0,
    0,
    0,
    0,
    0,
    0,
    0,
    0,
    0,
    0,
    0,
    0,
    0,
    0,
    0,
    0,
    0,
    0,
    0,
    0,
    0,
    0,
    0,
    0,
    0,
    0,
    0,
    0,
    0,
    0,
    0,
    0,
    0,
    0,
    0,
    0,
    0,
    0,
    0,
    0,
    0,
    0,
    0,
    0,
    0,
    0,
    0,
    0,
    0,
    0,
    0,
    0,
    0,
    0,
    0,
    0,
    0,
    0,
    0,
    0,
    0,
    0,
    0,
    0,
    0,
    0,
    0,
    0,
    0,
    0,
    0,
    0,
    0,
    0,
    0,
    0,
    0,
    0,
    0,
    0,
    0,
    0,
    0,
    0,
    0,
    0,
    0,
    0,
    0,
    0,
    0,
    0,
    0,
    0,
    0,
    0,
    0,
    0,
    0,
    0,
    0,
    0,
    0,
    0,
    0,
    0,
    0,
    0,
    0,
    0,
    0,
    0,
    0,
    0,
    0,
    0,
    0,
    0,
    0,
    0,
    0,
    0,
    0,
    0,
    0,
    0,
    0,
    0,
    0,
    0,
    0,
    0,
    0,
    0,
    0,
    0,
    0,
    0,
    0,
    0,
    0,
    0,
    0,
    0,
    0,
    0,
    0,
    0,
    0,
    0,
    0,
    0,
    0,
    0,
    0,
    0,
    0,
    0,
    0,
    0,
    0,
    0,
    0,
    0,
    0,
    0,
    0,
    0,
    0,
    0,
    0,
    0,
    0,
    0,
    0,
    0,
    0,
    0,
    0,
    0,
    0,
    0,
    0,
    0,
    0,
    0,
    0,
    0,
    0,
    0,
    0,
    0,
    0,
    0,
    0,
    0,
    0,
    0,
    0,
    0,
    0,
    0,
    0,
    0,
    0,
    0,
    0,
    0,
    0,
    0,
    0,
    0,
    0,
    0,
    0,
    0,
    0,
    0,
    0,
    0,
    0,
    0,
    0,
    0,
    0,
    0,
    0,
    0,
    0,
    0,
    0,
    0,
    0,
    0,
    0,
    0,
    0,
    0,
    0,
    0,
    0,
    0,
    0,
    0,
    0,
    0,
    0,
    0,
    0,
    0,
    0,
    0,
    0,
    0,
    0,
    0,
    0,
    0,
    0,
    0,
    0,
    0,
    0,
    0,
    0,
    0,
    0,
    0,
    0,
    0,
    0,
    0,
    0,
    0,
    0,
    0,
    0,
    0,
    0,
    0,
    0,
    0,
    0,
    0,
    0,
    0,
    0,
    0,
    0,
    0,
    0,
    0,
    0,
    0,
    0,
    0,
    0,
    0,
    0,
    0,
    0,
    0,
    0,
    0,
    0,
    0,
    0,
    0,
    0,
    0,
    0,
    0,
    0,
    0,
    0,
    0,
    0,
    0,
    0,
    0,
    0,
    0,
    0,
    0,
    0,
    0,
    0,
    0,
    0,
    0,
    0,
    0,
    0,
    0,
    0,
    0,
    0,
    0,
    0,
    0,
    0,
    0,
    0,
    0,
    0,
    0,
    0,
    0,
    0,
    0,
    0,
    0,
    0,
    0,
    0,
    0,
    0,
    0,
    0,
    0,
    0,
    0,
    0,
    0,
    0,
    0,
    0,
    0,
    0,
    0,
    0,
    0,
    0,
    0,
    0,
    0,
    0,
    0,
    0,
    0,
    0,
    0,
    0,
    0,
    0,
    0,
    0,
    0,
    0,
    0,
    0,
    0,
    0,
    0,
    0,
    0,
    0,
    0,
    0,
    0,
    0,
    0,
    0,
    0,
    0,
    0,
    0,
    0,
    0,
    0,
    0,
    0,
    0,
    0,
    0,
    0,
    0,
    0,
    0,
    0,
    0,
    0,
    0,
    0,
    0,
    0,
    0,
    0,
    0,
    0,
    0,
    0,
    0,
    0,
    0,
    0,
    0,
    0,
    0,
    0,
    0,
    0,
    0,
    0,
    0,
    0,
    0,
    0,
    0,
    0,
    0,
    0,
    0,
    0,
    0,
    0,
    0,
    0,
    0,
    0,
    0,
    0,
    0,
    0,
    0,
    0,
    0,
    0,
    0,
    0,
    0,
    0,
    0,
    0,
    0,
    0,
    0,
    0,
    0,
    0,
    0,
    0,
    0,
    0,
    0,
    0,
    0,
    0,
    0,
    0,
    0,
    0,
    0,
    0,
    0,
    0,
    0,
    0,
    0,
    0,
    0,
    0,
    0,
    0,
    0,
    0,
    0,
    0,
    0,
    0,
    0,
    0,
    0,
    0,
    0,
    0,
    0,
    0,
    0,
    0,
    0,
    0,
    0,
    0,
    0,
    0,
    0,
    0,
    0,
    0,
    0,
    0,
    0,
    0,
    0,
    0,
    0,
    0,
    0,
    0,
    0,
    0,
    0,
    0,
    0,
    0,
    0,
    0,
    0,
    0,
    0,
    0,
    0,
    0,
    0,
    0,
    0,
    0,
    0,
    0,
    0,
    0,
    0,
    0,
    0,
    0,
    0,
    0,
    0,
    0,
    0,
    0,
    0,
    0,
    0,
    0,
    0,
    0,
    0,
    0,
    0,
    0,
    0,
    0,
    0,
    0,
    0,
    0,
    0,
    0,
    0,
    0,
    0,
    0,
    0,
    0,
    0,
    0,
    0,
    0,
    0,
    0,
    0,
    0,
    0,
    0,
    0,
    0,
    0,
    0,
    0,
    0,
    0,
    0,
    0,
    0,
    0,
    0,
    0,
    0,
    0,
    0,
    0,
    0,
    0,
    0,
    0,
    0,
    0,
    0,
    0,
    0,
    0,
    0,
    0,
    0,
    0,
    0,
    0,
    0,
    0,
    0,
    0,
    0,
    0,
    0,
    0,
    0,
    0,
    0,
    0,
    0,
    0,
    0,
    0,
    0,
    0,
    0,
    0,
    0,
    0,
    0,
    0,
    0,
    0,
    0,
    0,
    0,
    0,
    0,
    0,
    0,
    0,
    0,
    0,
    0,
    0,
    0,
    0,
    0,
    0,
    0,
    0,
    0,
    0,
    0,
    0,
    0,
    0,
    0,
    0,
    0,
    0,
    0,
    0,
    0,
    0,
    0,
    0,
    0,
    0,
    0,
    0,
    0,
    0,
    0,
    0,
    0,
    0,
    0,
    0,
    0,
    0,
    0,
    0,
    0,
    0,
    0,
    0,
    0,
    0,
    0,
    0,
    0,
    0,
    0,
    0,
    0,
    0,
    0,
    0,
    0,
    0,
    0,
    0,
    0,
    0,
    0,
    0,
    0,
    0,
    0,
    0,
    0,
    0,
    0,
    0,
    0,
    0,
    0,
    0,
    0,
    0,
    0,
    0,
    0,
    0,
    0,
    0,
    0,
    0,
    0,
    0,
    0,
    0,
    0,
    0,
    0,
    0,
    0,
    0,
    0,
    0,
    0,
    0,
    0,
    0,
    0,
    0,
    0,
    0,
    0,
    0,
    0,
    0,
    0,
    0,
    0,
    0,
    0,
    0,
    0,
    0,
    0,
    0,
    0,
    0,
    0,
    0,
    0,
    0,
    0,
    0,
    0,
    0,
    0,
    0,
    0,
    0,
    0,
    0,
    0,
    0,
    0,
    0,
    0,
    0,
    0,
    0,
    0,
    0,
    0,
    0,
    0,
    0,
    0,
    0,
    0,
    0,
    0,
    0,
    0,
    0,
    0,
    0,
    0,
    0,
    0,
    0,
    0,
    0,
    0,
    0,
    0,
    0,
    0,
    0,
    0,
    0,
    0,
    0,
    0,
    0,
    0,
    0,
    0,
    0,
    0,
    0,
    0,
    0,
    0,
    0,
    0,
    0,
    0,
    0,
    0,
    0,
    0,
    0,
    0,
    0,
    0,
    0,
    0,
    0,
    0,
    0,
    0,
    0,
    0,
    0,
    0,
    0,
    0,
    0,
    0,
    0,
    0,
    0,
    0,
    0,
    0,
    0,
    0,
    0,
    0,
    0,
    0,
    0,
    0,
    0,
    0,
    0,
    0,
    0,
    0,
    0,
    0,
    0,
    0,
    0,
    0,
    0,
    0,
    0,
    0,
    0,
    0,
    0,
    0,
    0,
    0,
    0,
    0,
    0,
    0,
    0,
    0,
    0,
    0,
    0,
    0,
    0,
    0,
    0,
    0,
    0,
    0,
    0,
    0,
    0,
    0,
    0,
    0,
    0,
    0,
    0,
    0,
    0,
    0,
    0,
    0,
    0,
    0,
    0,
    0,
    0,
    0,
    0,
    0,
    0,
    0,
    0,
    0,
    0,
    0,
    0,
    0,
    0,
    0,
    0,
    0,
    0,
    0,
    0,
    0,
    0,
    0,
    0,
    0,
    0,
    0,
    0,
    0,
    0,
    0,
    0,
    0,
    0,
    0,
    0,
    0,
    0,
    0,
    0,
    0,
    0,
    0,
    0,
    0,
    0,
    0,
    0,
    0,
    0,
    0,
    0,
    0,
    0,
    0,
    0,
    0,
    0,
    0,
    0,
    0,
    0,
    0,
    0,
    0,
    0,
    0,
    0,
    0,
    0,
    0,
    0,
    0,
    0,
    0,
    0,
    0,
    0,
    0,
    0,
    0,
    0,
    0,
    0,
    0,
    0,
    0,
    0,
    0,
    0,
    0,
    0,
    0,
    0,
    0,
    0,
    0,
    0,
    0,
    0,
    0,
    0,
    0,
    0,
    0,
    0,
    0,
    0,
    0,
    0,
    0,
    0,
    0,
    0,
    0,
    0,
    0,
    0,
    0,
    0,
    0,
    0,
    0,
    0,
    0,
    0,
    0,
    0,
    0,
    0,
    0,
    0,
    0,
    0,
    0,
    0,
    0,
    0,
    0,
    0,
    0,
    0,
    0,
    0,
    0,
    0,
    0,
    0,
    0,
    0,
    0,
    0,
    0,
    0,
    0,
    0,
    0,
    0,
    0,
    0,
    0,
    0,
    0,
    0,
    0,
    0,
    0,
    0,
    0,
    0,
    0,
    0,
    0,
    0,
    0,
    0,
    0,
    0,
    0,
    0,
    0,
    0,
    0,
    0,
    0,
    0,
    0,
    0,
    0,
    0,
    0,
    0,
    0,
    0,
    0,
    0,
    0,
    0,
    0,
    0,
    0,
    0,
    0,
    0,
    0,
    0,
    0,
    0,
    0,
    0,
    0,
    0,
    0,
    0,
    0,
    0,
    0,
    0,
    0,
    0,
    0,
    0,
    0,
    0,
    0,
    0,
    0,
    0,
    0,
    0,
    0,
    0,
    0,
    0,
    0,
    0,
    0,
    0,
    0,
    0,
    0,
    0,
    0,
    0,
    0,
    0,
    0,
    0,
    0,
    0,
    0,
    0,
    0,
    0,
    0,
    0,
    0,
    0,
    0,
    0,
    0,
    0,
    0,
    0,
    0,
    0,
    0,
    0,
    0,
    0,
    0,
    0,
    0,
    0,
    0,
    0,
    0,
    0,
    0,
    0,
    0,
    0,
    0,
    0,
    0,
    0,
    0,
    0,
    0,
    0,
    0,
    0,
    0,
    0,
    0,
    0,
    0,
    0,
    0,
    0,
    0,
    0,
    0,
    0,
    0,
    0,
    0,
    0,
    0,
    0,
    0,
    0,
    0,
    0,
    0,
    0,
    0,
    0,
    0,
    0,
    0,
    0,
    0,
    0,
    0,
    0,
    0,
    0,
    0,
    0,
    0,
    0,
    0,
    0,
    0,
    0,
    0,
    0,
    0,
    0,
    0,
    0,
    0,
    0,
    0,
    0,
    0,
    0,
    0,
    0,
    0,
    0,
    0,
    0,
    0,
    0,
    0,
    0,
    0,
    0,
    0,
    0,
    0,
    0,
    0,
    0,
    0,
    0,
    0,
    0,
    0,
    0,
    0,
    0,
    0,
    0,
    0,
    0,
    0,
    0,
    0,
    0,
    0,
    0,
    0,
    0,
    0,
    0,
    0,
    0,
    0,
    0,
    0,
    0,
    0,
    0,
    0,
    0,
    0,
    0,
    0,
    0,
    0,
    0,
    0,
    0,
    0,
    0,
    0,
    0,
    0,
    0,
    0,
    0,
    0,
    0,
    0,
    0,
    0,
    0,
    0,
    0,
    0,
    0,
    0,
    0,
    0,
    0,
    0,
    0,
    0,
    0,
    0,
    0,
    0,
    0,
    0,
    0,
    0,
    0,
    0,
    0,
    0,
    0,
    0,
    0,
    0,
    0,
    0,
    0,
    0,
    0,
    0,
    0,
    0,
    0,
    0,
    0,
    0,
    0,
    0,
    0,
    0,
    0,
    0,
    0,
    0,
    0,
    0,
    0,
    0,
    0,
    0,
    0,
    0,
    0,
    0,
    0,
    0,
    0,
    0,
    0,
    0,
    0,
    0,
    0,
    0,
    0,
    0,
    0,
    0,
    0,
    0,
    0,
    0,
    0,
    0,
    0,
    0,
    0,
    0,
    0,
    0,
    0,
    0,
    0,
    0,
    0,
    0,
    0,
    0,
    0,
    0,
    0,
    0,
    0,
    0,
    0,
    0,
    0,
    0,
    0,
    0,
    0,
    0,
    0,
    0,
    0,
    0,
    0,
    0,
    0,
    0,
    0,
    0,
    0,
    0,
    0,
    0,
    0,
    0,
    0,
    0,
    0,
    0,
    0,
    0,
    0,
    0,
    0,
    0,
    0,
    0,
    0,
    0,
    0,
    0,
    0,
    0,
    0,
    0,
    0,
    0,
    0,
    0,
    0,
    0,
    0,
    0,
    0,
    0,
    0,
    0,
    0,
    0,
    0,
    0,
    0,
    0,
    0,
    0,
    0,
    0,
    0,
    0,
    0,
    0,
    0,
    0,
    0,
    0,
    0,
    0,
    0,
    0,
    0,
    0,
    0,
    0,
    0,
    0,
    0,
    0,
    0,
    0,
    0,
    0,
    0,
    0,
    0,
    0,
    0,
    0,
    0,
    0,
    0,
    0,
    0,
    0,
    0,
    0,
    0,
    0,
    0,
    0,
    0,
    0,
    0,
    0,
    0,
    0,
    0,
    0,
    0,
    0,
    0,
    0,
    0,
    0,
    0,
    0,
    0,
    0,
    0,
    0,
    0,
    0,
    0,
    0,
    0,
    0,
    0,
    0,
    0,
    0,
    0,
    0,
    0,
    0,
    0,
    0,
    0,
    0,
    0,
    0,
    0,
    0,
    0,
    0,
    0,
    0,
    0,
    0,
    0,
    0,
    0,
    0,
    0,
    0,
    0,
    0,
    0,
    0,
    0,
    0,
    0,
    0,
    0,
    0,
    0,
    0,
    0,
    0,
    0,
    0,
    0,
    0,
    0,
    0,
    0,
    0,
    0,
    0,
    0,
    0,
    0,
    0,
    0,
    0,
    0,
    0,
    0,
    0,
    0,
    0,
    0,
    0,
    0,
    0,
    0,
    0,
    0,
    0,
    0,
    0,
    0,
    0,
    0,
    0,
    0,
    0,
    0,
    0,
    0,
    0,
    0,
    0,
    0,
    0,
    0,
    0,
    0,
    0,
    0,
    0,
    0,
    0,
    0,
    0,
    0,
    0,
    0,
    0,
    0,
    0,
    0,
    0,
    0,
    0,
    0,
    0,
    0,
    0,
    0,
    0,
    0,
    0,
    0,
    0,
    0,
    0,
    0,
    0,
    0,
    0,
    0,
    0,
    0,
    0,
    0,
    0,
    0,
    0,
    0,
    0,
    0,
    0,
    0,
    0,
    0,
    0,
    0,
    0,
    0,
    0,
    0,
    0,
    0,
    0,
    0,
    0,
    0,
    0,
    0,
    0,
    0,
    0,
    0,
    0,
    0,
    0,
    0,
    0,
    0,
    0,
    0,
    0,
    0,
    0,
    0,
    0,
    0,
    0,
    0,
    0,
    0,
    0,
    0,
    0,
    0,
    0,
    0,
    0,
    0,
    0,
    0,
    0,
    0,
    0,
    0,
    0,
    0,
    0,
    0,
    0,
    0,
    0,
    0,
    0,
    0,
    0,
    0,
    0,
    0,
    0,
    0,
    0,
    0,
    0,
    0,
    0,
    0,
    0,
    0,
    0,
    0,
    0,
    0,
    0,
    0,
    0,
    0,
    0,
    0,
    0,
    0,
    0,
    0,
    0,
    0,
    0,
    0,
    0,
    0,
    0,
    0,
    0,
    0,
    0,
    0,
    0,
    0,
    0,
    0,
    0,
    0,
    0,
    0,
    0,
    0,
    0,
    0,
    0,
    0,
    0,
    0,
    0,
    0,
    0,
    0,
    0,
    0,
    0,
    0,
    0,
    0,
    0,
    0,
    0,
    0,
    0,
    0,
    0,
    0,
    0,
    0,
    0,
    0,
    0,
    0,
    0,
    0,
    0,
    0,
    0,
    0,
    0,
    0,
    0,
    0,
    0,
    0,
    0,
    0,
    0,
    0,
    0,
    0,
    0,
    0,
    0,
    0,
    0,
    0,
    0,
    0,
    0,
    0,
    0,
    0,
    0,
    0,
    0,
    0,
    0,
    0,
    0,
    0,
    0,
    0,
    0,
    0,
    0,
    0,
    0,
    0,
    0,
    0,
    0,
    0,
    0,
    0,
    0,
    0,
    0,
    0,
    0,
    0,
    0,
    0,
    0,
    0,
    0,
    0,
    0,
    0,
    0,
    0,
    0,
    0,
    0,
    0,
    0,
    0,
    0,
    0,
    0,
    0,
    0,
    0,
    0,
    0,
    0,
    0,
    0,
    0,
    0,
    0,
    0,
    0,
    0,
    0,
    0,
    0,
    0,
    0,
    0,
    0,
    0,
    0,
    0,
    0,
    0,
    0,
    0,
    0,
    0,
    0,
    0,
    0,
    0,
    0,
    0,
    0,
    0,
    0,
    0,
    0,
    0,
    0,
    0,
    0,
    0,
    0,
    0,
    0,
    0,
    0,
    0,
    0,
    0,
    0,
    0,
    0,
    0,
    0,
    0,
    0,
    0,
    0,
    0,
    0,
    0,
    0,
    0,
    0,
    0,
    0,
    0,
    0,
    0,
    0,
    0,
    0,
    0,
    0,
    0,
    0,
    0,
    0,
    0,
    0,
    0,
    0,
    0,
    0,
    0,
    0,
    0,
    0,
    0,
    0,
    0,
    0,
    0,
    0,
    0,
    0,
    0,
    0,
    0,
    0,
    0,
    0,
    0,
    0,
    0,
    0,
    0,
    0,
    0,
    0,
    0,
    0,
    0,
    0,
    0,
    0,
    0,
    0,
    0,
    0,
    0,
    0,
    0,
    0,
    0,
    0,
    0,
    0,
    0,
    0,
    34,
    0,
    0,
    0,
    0,
    0,
    0,
    0,
    0,
    0,
    0,
    34,
    0,
    0,
    0,
    0,
    0,
    0,
    0,
    0,
    0,
    0,
    0,
    0,
    0,
    0,
    0,
    0,
    0,
    0,
    0,
    0,
    0,
    0,
    0,
    0,
    0,
    0,
    0,
    0,
    0,
    0,
    0,
    0,
    0,
    0,
    0,
    0,
    0,
    0,
    0,
    0,
    0,
    0,
    0,
    0,
    0,
    0,
    0,
    0,
    0,
    0,
    0,
    0,
    0,
    0,
    0,
    0,
    0,
    0,
    0,
    0,
    0,
    0,
    0,
    0,
    0,
    0,
    0,
    0,
    0,
    0,
    0,
    0,
    0,
    0,
    0,
    0,
    0,
    0,
    0,
    0,
    0,
    0,
    0,
    0,
    0,
    0,
    0,
    0,
    0,
    0,
    0,
    0,
    0,
    0,
    0,
    0,
    0,
    0,
    0,
    0,
    0,
    0,
    0,
    0,
    0,
    0,
    0,
    0,
    0,
    0,
    0,
    0,
    0,
    0,
    0,
    0,
    0,
    0,
    0,
    0,
    0,
    0,
    0,
    0,
    0,
    0,
    0,
    0,
    0,
    0,
    0,
    0,
    0,
    0,
    0,
    0,
    0,
    0,
    0,
    0,
    0,
    0,
    0,
    0,
    0,
    0,
    0,
    0,
    0,
    0,
    0,
    0,
    0,
    0,
    0,
    0,
    0,
    0,
    0,
    0,
    0,
    0,
    0,
    0,
    0,
    0,
    0,
    0,
    0,
    0,
    0,
    0,
    0,
    0,
    0,
    0,
    0,
    0,
    0,
    0,
    0,
    0,
    0,
    0,
    0,
    0,
    0,
    0,
    0,
    0,
    0,
    0,
    0,
    0,
    0,
    0,
    0,
    0,
    0,
    0,
    0,
    0,
    0,
    0,
    0,
    0,
    0,
    0,
    0,
    0,
    0,
    0,
    0,
    0,
    0,
    0,
    0,
    0,
    0,
    0,
    0,
    0,
    0,
    0,
    0,
    0,
    0,
    0,
    0,
    0,
    0,
    0,
    0,
    0,
    0,
    0,
    0,
    0,
    0,
    0,
    0,
    0,
    0,
    0,
    0,
    0,
    0,
    0,
    0,
    0,
    0,
    0,
    0,
    0,
    0,
    0,
    0,
    0,
    0,
    0,
    0,
    0,
    0,
    0,
    0,
    0,
    0,
    0,
    0,
    0,
    0,
    0,
    0,
    0,
    0,
    0,
    0,
    0,
    0,
    0,
    0,
    0,
    0,
    0,
    0,
    0,
    0,
    0,
    0,
    0,
    0,
    0,
    0,
    0,
    0,
    0,
    0,
    0,
    0,
    0,
    0,
    0,
    0,
    0,
    0,
    0,
    0,
    0,
    0,
    0,
    0,
    0,
    0,
    0,
    0,
    0,
    0,
    0,
    0,
    0,
    0,
    0,
    0,
    0,
    0,
    0,
    0,
    0,
    0,
    0,
    0,
    0,
    0,
    0,
    0,
    0,
    0,
    0,
    0,
    0,
    0,
    0,
    0,
    0,
    0,
    0,
    0,
    0,
    0,
    0,
    0,
    0,
    0,
    0,
    0,
    0,
    0,
    0,
    0,
    0,
    0,
    0,
    0,
    0,
    0,
    0,
    0,
    0,
    0,
    0,
    0,
    0,
    0,
    0,
    0,
    0,
    0,
    0,
    0,
    0,
    0,
    0,
    0,
    0,
    0,
    0,
    0,
    0,
    0,
    0,
    0,
    0,
    0,
    0,
    0,
    0,
    0,
    0,
    0,
    0,
    0,
    0,
    0,
    0,
    0,
    0,
    0,
    0,
    0,
    0,
    0,
    0,
    0,
    0,
    0,
    0,
    0,
    0,
    0,
    0,
    0,
    0,
    0,
    0,
    0,
    0,
    0,
    0,
    0,
    0,
    0,
    0,
    0,
    0,
    0,
    0,
    0,
    0,
    0,
    0,
    0,
    0,
    0,
    0,
    0,
    0,
    0,
    0,
    0,
    0,
    0,
    0,
    0,
    0,
    0,
    0,
    0,
    0,
    0,
    0,
    0,
    0,
    0,
    0,
    0,
    0,
    0,
    0,
    0,
    0,
    0,
    0,
    0,
    0,
    0,
    0,
    0,
    0,
    0,
    0,
    0,
    0,
    0,
    0,
    0,
    0,
    0,
    0,
    0,
    0,
    0,
    0,
    0,
    0,
    0,
    0,
    0,
    0,
    0,
    0,
    0,
    0,
    0,
    0,
    0,
    0,
    0,
    0,
    0,
    0,
    0,
    0,
    0,
    0,
    0,
    0,
    0,
    0,
    0,
    0,
    0,
    0,
    0,
    0,
    0,
    0,
    0,
    0,
    0,
    0,
    0,
    0,
    0,
    0,
    0,
    0,
    0,
    0,
    0,
    0,
    0,
    0,
    0,
    0,
    0,
    0,
    0,
    0,
    0,
    0,
    0,
    0,
    0,
    0,
    0,
    0,
    0,
    0,
    0,
    0,
    0,
    0,
    0,
    0,
    0,
    0,
    0,
    0,
    0,
    0,
    0,
    0,
    0,
    0,
    0,
    0,
    0,
    0,
    0,
    0,
    0,
    0,
    0,
    0,
    0,
    0,
    0,
    0,
    0,
    0,
    0,
    0,
    0,
    0,
    0,
    0,
    0,
    0,
    0,
    0,
    0,
    0,
    0,
    0,
    0,
    0,
    0,
    0,
    0,
    0,
    0,
    0,
    0,
    0,
    0
   ],
   "properties": [
    {
     "name": "gv2layer",
     "type": "string",
     "value": "Non-Collidables"
    },
    {
     "name": "z",
     "type": "int",
     "value": 4
    },
    {
     "name": "collision",
     "type": "bool",
     "value": false
    }
   ]
  },
  {
   "type": "objectgroup",
   "id": 6,
   "name": "Non-Collidables \u00b7obj",
   "x": 0,
   "y": 0,
   "opacity": 1,
   "visible": true,
   "draworder": "index",
   "objects": [
    {
     "id": 8,
     "gid": 73,
     "name": "gk1_111_0_0",
     "x": 640,
     "y": 320,
     "width": 192,
     "height": 256,
     "visible": true
    },
    {
     "id": 9,
     "gid": 73,
     "name": "gk1_111_0_0",
     "x": 640,
     "y": 512,
     "width": 192,
     "height": 256,
     "visible": true
    }
   ],
   "properties": [
    {
     "name": "gv2layer",
     "type": "string",
     "value": "Non-Collidables"
    },
    {
     "name": "z",
     "type": "int",
     "value": 4
    },
    {
     "name": "collision",
     "type": "bool",
     "value": false
    }
   ]
  },
  {
   "type": "tilelayer",
   "id": 7,
   "name": "Collidables",
   "width": 59,
   "height": 48,
   "x": 0,
   "y": 0,
   "opacity": 1,
   "visible": true,
   "data": [
    128,
    128,
    128,
    128,
    128,
    128,
    128,
    128,
    128,
    128,
    128,
    128,
    128,
    128,
    128,
    128,
    128,
    128,
    128,
    128,
    128,
    128,
    128,
    128,
    128,
    128,
    128,
    128,
    128,
    128,
    128,
    128,
    128,
    128,
    128,
    128,
    128,
    128,
    128,
    128,
    128,
    128,
    128,
    128,
    128,
    128,
    128,
    128,
    128,
    128,
    128,
    128,
    128,
    128,
    128,
    128,
    128,
    128,
    128,
    0,
    0,
    0,
    0,
    0,
    0,
    0,
    0,
    0,
    0,
    0,
    0,
    0,
    0,
    0,
    0,
    0,
    0,
    0,
    0,
    0,
    0,
    0,
    0,
    0,
    0,
    0,
    0,
    0,
    0,
    0,
    0,
    0,
    0,
    0,
    0,
    0,
    0,
    0,
    0,
    0,
    0,
    0,
    0,
    0,
    0,
    0,
    0,
    0,
    0,
    0,
    0,
    0,
    0,
    0,
    0,
    0,
    0,
    0,
    0,
    0,
    0,
    0,
    0,
    0,
    0,
    0,
    0,
    0,
    0,
    0,
    0,
    0,
    0,
    0,
    0,
    0,
    0,
    0,
    0,
    0,
    0,
    0,
    0,
    0,
    0,
    0,
    0,
    0,
    0,
    0,
    0,
    0,
    0,
    0,
    0,
    0,
    0,
    0,
    0,
    0,
    0,
    0,
    0,
    0,
    0,
    0,
    0,
    0,
    0,
    0,
    0,
    0,
    0,
    0,
    0,
    0,
    0,
    0,
    0,
    0,
    0,
    0,
    0,
    0,
    0,
    0,
    0,
    0,
    0,
    0,
    0,
    0,
    0,
    0,
    0,
    0,
    0,
    0,
    0,
    0,
    0,
    0,
    0,
    0,
    0,
    0,
    0,
    0,
    0,
    0,
    0,
    0,
    0,
    0,
    0,
    0,
    0,
    0,
    0,
    0,
    0,
    0,
    0,
    0,
    0,
    0,
    0,
    0,
    0,
    0,
    0,
    0,
    0,
    0,
    0,
    0,
    0,
    0,
    0,
    0,
    0,
    0,
    0,
    0,
    0,
    0,
    0,
    0,
    0,
    0,
    0,
    0,
    0,
    0,
    0,
    0,
    0,
    0,
    0,
    0,
    0,
    0,
    0,
    0,
    0,
    0,
    0,
    0,
    0,
    0,
    0,
    0,
    0,
    0,
    0,
    0,
    0,
    0,
    0,
    0,
    0,
    0,
    0,
    0,
    0,
    0,
    0,
    0,
    0,
    0,
    0,
    0,
    0,
    0,
    0,
    0,
    0,
    0,
    0,
    0,
    0,
    0,
    0,
    0,
    0,
    0,
    0,
    0,
    0,
    0,
    0,
    0,
    0,
    0,
    0,
    0,
    0,
    0,
    0,
    0,
    0,
    0,
    0,
    0,
    0,
    0,
    0,
    0,
    0,
    0,
    0,
    0,
    0,
    0,
    0,
    0,
    0,
    0,
    0,
    0,
    0,
    0,
    0,
    0,
    0,
    0,
    0,
    0,
    0,
    0,
    0,
    0,
    0,
    0,
    0,
    0,
    0,
    0,
    0,
    0,
    0,
    0,
    0,
    0,
    0,
    0,
    0,
    0,
    0,
    0,
    0,
    0,
    0,
    0,
    0,
    0,
    0,
    0,
    0,
    0,
    0,
    0,
    0,
    0,
    0,
    0,
    0,
    0,
    0,
    0,
    0,
    0,
    0,
    0,
    0,
    0,
    0,
    0,
    0,
    0,
    0,
    0,
    0,
    0,
    0,
    0,
    0,
    0,
    0,
    0,
    0,
    0,
    0,
    0,
    0,
    0,
    0,
    0,
    0,
    0,
    0,
    0,
    0,
    0,
    0,
    0,
    0,
    0,
    0,
    0,
    0,
    0,
    0,
    0,
    0,
    0,
    0,
    0,
    0,
    0,
    0,
    0,
    0,
    0,
    0,
    0,
    0,
    0,
    0,
    0,
    0,
    0,
    0,
    0,
    0,
    0,
    0,
    0,
    0,
    0,
    0,
    0,
    0,
    0,
    0,
    0,
    0,
    0,
    0,
    0,
    0,
    0,
    0,
    0,
    0,
    0,
    0,
    0,
    0,
    0,
    0,
    0,
    0,
    0,
    0,
    0,
    0,
    0,
    0,
    0,
    0,
    0,
    0,
    0,
    0,
    0,
    0,
    0,
    0,
    0,
    0,
    0,
    0,
    0,
    0,
    0,
    0,
    0,
    0,
    0,
    0,
    0,
    0,
    0,
    0,
    0,
    0,
    0,
    0,
    0,
    0,
    0,
    0,
    0,
    0,
    0,
    0,
    0,
    0,
    0,
    0,
    0,
    0,
    0,
    0,
    0,
    0,
    0,
    0,
    0,
    102,
    0,
    0,
    0,
    102,
    0,
    0,
    0,
    0,
    0,
    0,
    0,
    0,
    0,
    0,
    0,
    0,
    0,
    0,
    0,
    0,
    0,
    0,
    0,
    0,
    0,
    147,
    153,
    153,
    153,
    150,
    0,
    0,
    0,
    0,
    0,
    0,
    0,
    0,
    0,
    0,
    0,
    0,
    0,
    0,
    0,
    0,
    0,
    0,
    0,
    0,
    0,
    0,
    0,
    0,
    0,
    0,
    0,
    102,
    0,
    0,
    0,
    0,
    0,
    102,
    0,
    0,
    141,
    0,
    0,
    0,
    0,
    0,
    0,
    0,
    0,
    0,
    0,
    0,
    0,
    0,
    0,
    0,
    0,
    0,
    146,
    0,
    0,
    0,
    152,
    0,
    0,
    0,
    0,
    0,
    0,
    0,
    0,
    0,
    0,
    0,
    0,
    0,
    0,
    0,
    0,
    0,
    0,
    0,
    0,
    0,
    0,
    0,
    0,
    0,
    139,
    0,
    0,
    0,
    0,
    0,
    0,
    0,
    0,
    0,
    0,
    0,
    0,
    0,
    0,
    0,
    0,
    0,
    0,
    0,
    0,
    0,
    0,
    0,
    0,
    0,
    0,
    0,
    0,
    146,
    0,
    154,
    0,
    152,
    0,
    0,
    0,
    0,
    0,
    0,
    0,
    0,
    0,
    141,
    0,
    0,
    0,
    0,
    0,
    0,
    0,
    0,
    0,
    0,
    0,
    0,
    0,
    0,
    0,
    0,
    0,
    102,
    0,
    0,
    0,
    0,
    0,
    102,
    0,
    0,
    0,
    0,
    0,
    0,
    0,
    0,
    0,
    0,
    0,
    0,
    0,
    0,
    0,
    0,
    0,
    0,
    0,
    0,
    146,
    0,
    0,
    0,
    152,
    0,
    102,
    0,
    0,
    0,
    0,
    0,
    102,
    0,
    0,
    0,
    0,
    0,
    0,
    0,
    0,
    0,
    0,
    0,
    0,
    0,
    0,
    0,
    0,
    0,
    0,
    0,
    0,
    0,
    0,
    0,
    0,
    0,
    0,
    0,
    0,
    0,
    0,
    0,
    0,
    0,
    0,
    0,
    0,
    0,
    0,
    0,
    0,
    0,
    0,
    0,
    0,
    0,
    0,
    146,
    0,
    154,
    0,
    152,
    0,
    0,
    0,
    0,
    0,
    0,
    0,
    0,
    0,
    0,
    0,
    0,
    0,
    0,
    0,
    0,
    0,
    0,
    0,
    0,
    0,
    0,
    0,
    0,
    0,
    0,
    0,
    102,
    0,
    0,
    0,
    0,
    0,
    102,
    0,
    0,
    0,
    0,
    0,
    0,
    0,
    0,
    0,
    0,
    0,
    0,
    0,
    0,
    0,
    0,
    0,
    0,
    0,
    0,
    146,
    0,
    0,
    0,
    152,
    0,
    102,
    0,
    0,
    0,
    0,
    0,
    102,
    0,
    0,
    0,
    0,
    0,
    0,
    0,
    0,
    0,
    0,
    0,
    0,
    0,
    0,
    0,
    0,
    0,
    139,
    0,
    0,
    0,
    102,
    0,
    102,
    0,
    0,
    0,
    0,
    141,
    0,
    0,
    0,
    0,
    0,
    37,
    40,
    43,
    39,
    33,
    33,
    39,
    37,
    40,
    43,
    0,
    0,
    148,
    149,
    149,
    149,
    151,
    0,
    0,
    0,
    0,
    0,
    0,
    0,
    0,
    0,
    141,
    0,
    0,
    0,
    0,
    0,
    0,
    0,
    0,
    0,
    0,
    0,
    0,
    0,
    0,
    0,
    0,
    0,
    0,
    0,
    0,
    0,
    0,
    0,
    0,
    0,
    0,
    0,
    0,
    0,
    0,
    0,
    0,
    0,
    0,
    0,
    0,
    0,
    0,
    0,
    0,
    0,
    0,
    0,
    0,
    0,
    0,
    0,
    0,
    0,
    0,
    102,
    0,
    0,
    0,
    0,
    0,
    102,
    0,
    0,
    0,
    0,
    0,
    0,
    0,
    0,
    0,
    0,
    0,
    0,
    0,
    0,
    0,
    0,
    0,
    0,
    0,
    0,
    0,
    102,
    0,
    102,
    0,
    0,
    101,
    0,
    101,
    0,
    101,
    0,
    101,
    0,
    101,
    0,
    102,
    0,
    0,
    0,
    0,
    102,
    0,
    102,
    0,
    102,
    0,
    102,
    0,
    102,
    0,
    102,
    0,
    0,
    102,
    0,
    102,
    0,
    0,
    0,
    0,
    0,
    0,
    0,
    0,
    0,
    0,
    0,
    0,
    0,
    0,
    0,
    0,
    0,
    0,
    0,
    0,
    141,
    0,
    0,
    0,
    0,
    0,
    0,
    0,
    0,
    0,
    0,
    0,
    0,
    0,
    0,
    0,
    0,
    0,
    0,
    0,
    0,
    0,
    0,
    0,
    0,
    0,
    0,
    0,
    0,
    0,
    0,
    0,
    0,
    0,
    0,
    0,
    0,
    0,
    0,
    0,
    0,
    139,
    0,
    0,
    0,
    0,
    0,
    0,
    0,
    0,
    0,
    0,
    0,
    0,
    0,
    0,
    0,
    0,
    0,
    0,
    0,
    0,
    101,
    0,
    101,
    0,
    0,
    102,
    0,
    102,
    0,
    102,
    0,
    102,
    0,
    102,
    0,
    101,
    0,
    0,
    0,
    0,
    101,
    0,
    102,
    0,
    102,
    0,
    102,
    0,
    102,
    0,
    102,
    0,
    0,
    102,
    0,
    102,
    0,
    0,
    0,
    0,
    0,
    0,
    0,
    0,
    0,
    0,
    0,
    0,
    0,
    0,
    0,
    0,
    0,
    0,
    0,
    0,
    0,
    0,
    0,
    0,
    0,
    0,
    0,
    0,
    0,
    0,
    0,
    0,
    0,
    0,
    0,
    0,
    0,
    0,
    0,
    0,
    0,
    0,
    0,
    0,
    0,
    0,
    0,
    0,
    0,
    0,
    0,
    0,
    0,
    0,
    0,
    0,
    0,
    0,
    0,
    0,
    0,
    0,
    0,
    0,
    0,
    0,
    0,
    0,
    0,
    0,
    0,
    0,
    0,
    0,
    0,
    0,
    0,
    0,
    0,
    0,
    141,
    0,
    0,
    0,
    141,
    0,
    0,
    141,
    0,
    0,
    139,
    0,
    0,
    0,
    141,
    0,
    0,
    102,
    0,
    0,
    0,
    0,
    102,
    0,
    0,
    139,
    0,
    0,
    0,
    0,
    141,
    0,
    0,
    0,
    141,
    0,
    0,
    0,
    0,
    139,
    0,
    0,
    0,
    0,
    0,
    0,
    0,
    0,
    0,
    0,
    0,
    0,
    0,
    0,
    0,
    0,
    0,
    0,
    0,
    0,
    0,
    0,
    0,
    0,
    0,
    0,
    0,
    0,
    0,
    0,
    0,
    0,
    0,
    0,
    0,
    0,
    0,
    0,
    0,
    0,
    0,
    0,
    0,
    0,
    0,
    0,
    0,
    0,
    0,
    0,
    0,
    0,
    0,
    0,
    0,
    0,
    0,
    0,
    0,
    0,
    0,
    0,
    0,
    0,
    0,
    0,
    0,
    0,
    0,
    0,
    0,
    0,
    0,
    0,
    0,
    0,
    0,
    0,
    0,
    0,
    0,
    0,
    0,
    0,
    0,
    0,
    0,
    0,
    0,
    0,
    0,
    35,
    38,
    41,
    0,
    0,
    0,
    0,
    0,
    0,
    0,
    0,
    35,
    38,
    41,
    0,
    0,
    0,
    0,
    0,
    0,
    0,
    0,
    0,
    0,
    0,
    0,
    0,
    0,
    0,
    0,
    0,
    0,
    0,
    0,
    0,
    0,
    0,
    0,
    0,
    0,
    0,
    0,
    0,
    0,
    0,
    0,
    0,
    0,
    0,
    0,
    0,
    0,
    0,
    0,
    0,
    0,
    0,
    0,
    0,
    0,
    0,
    0,
    0,
    102,
    0,
    0,
    0,
    0,
    102,
    0,
    0,
    0,
    0,
    0,
    0,
    0,
    0,
    0,
    0,
    0,
    0,
    0,
    0,
    0,
    0,
    0,
    0,
    0,
    0,
    0,
    0,
    0,
    0,
    0,
    0,
    0,
    0,
    0,
    0,
    0,
    0,
    0,
    0,
    0,
    0,
    0,
    0,
    0,
    0,
    0,
    0,
    0,
    0,
    0,
    0,
    0,
    0,
    0,
    35,
    38,
    41,
    0,
    0,
    0,
    0,
    0,
    0,
    0,
    0,
    35,
    38,
    41,
    0,
    0,
    0,
    0,
    0,
    0,
    0,
    0,
    0,
    0,
    0,
    0,
    0,
    0,
    0,
    0,
    0,
    0,
    0,
    0,
    0,
    0,
    0,
    0,
    0,
    0,
    0,
    0,
    0,
    0,
    0,
    0,
    0,
    0,
    0,
    0,
    0,
    0,
    0,
    0,
    0,
    0,
    0,
    0,
    0,
    0,
    0,
    0,
    0,
    102,
    0,
    0,
    0,
    0,
    102,
    0,
    0,
    0,
    0,
    0,
    0,
    0,
    0,
    0,
    0,
    0,
    0,
    0,
    0,
    0,
    0,
    0,
    0,
    0,
    0,
    0,
    0,
    0,
    0,
    0,
    0,
    0,
    0,
    0,
    0,
    0,
    0,
    0,
    0,
    0,
    0,
    0,
    0,
    0,
    0,
    0,
    0,
    0,
    0,
    0,
    0,
    0,
    0,
    0,
    0,
    0,
    0,
    0,
    0,
    0,
    0,
    0,
    0,
    0,
    0,
    0,
    0,
    0,
    0,
    0,
    0,
    0,
    0,
    0,
    0,
    0,
    0,
    0,
    0,
    0,
    0,
    0,
    0,
    0,
    0,
    0,
    0,
    0,
    0,
    0,
    0,
    0,
    0,
    0,
    0,
    0,
    0,
    0,
    0,
    0,
    0,
    0,
    0,
    0,
    0,
    0,
    0,
    0,
    0,
    0,
    0,
    0,
    0,
    0,
    0,
    0,
    0,
    102,
    0,
    0,
    0,
    0,
    102,
    0,
    0,
    0,
    0,
    0,
    0,
    0,
    0,
    0,
    0,
    0,
    0,
    0,
    0,
    0,
    0,
    0,
    0,
    0,
    0,
    0,
    0,
    0,
    0,
    0,
    0,
    0,
    0,
    0,
    0,
    0,
    0,
    0,
    0,
    0,
    0,
    0,
    0,
    0,
    0,
    0,
    0,
    0,
    0,
    0,
    0,
    0,
    0,
    0,
    0,
    0,
    0,
    0,
    0,
    0,
    0,
    0,
    0,
    0,
    0,
    0,
    0,
    0,
    0,
    0,
    0,
    0,
    0,
    0,
    0,
    0,
    0,
    0,
    0,
    0,
    0,
    0,
    0,
    0,
    0,
    0,
    0,
    0,
    0,
    0,
    0,
    0,
    0,
    0,
    0,
    0,
    0,
    0,
    0,
    0,
    0,
    0,
    0,
    0,
    0,
    0,
    0,
    0,
    0,
    0,
    0,
    0,
    0,
    0,
    0,
    0,
    0,
    102,
    0,
    0,
    0,
    0,
    102,
    0,
    0,
    0,
    0,
    0,
    0,
    0,
    0,
    0,
    0,
    0,
    0,
    0,
    0,
    0,
    0,
    0,
    0,
    0,
    0,
    0,
    0,
    0,
    0,
    0,
    0,
    0,
    0,
    0,
    0,
    0,
    0,
    0,
    0,
    0,
    0,
    0,
    0,
    0,
    0,
    0,
    0,
    0,
    0,
    0,
    0,
    0,
    0,
    0,
    0,
    0,
    0,
    0,
    0,
    0,
    0,
    0,
    0,
    0,
    0,
    0,
    0,
    0,
    0,
    0,
    0,
    0,
    0,
    0,
    0,
    0,
    0,
    0,
    0,
    0,
    0,
    0,
    0,
    0,
    0,
    0,
    0,
    0,
    0,
    0,
    0,
    0,
    0,
    0,
    0,
    0,
    0,
    0,
    0,
    0,
    0,
    0,
    0,
    0,
    0,
    0,
    0,
    0,
    0,
    0,
    0,
    0,
    0,
    0,
    0,
    0,
    0,
    102,
    0,
    0,
    0,
    0,
    102,
    0,
    0,
    0,
    0,
    0,
    0,
    0,
    0,
    0,
    0,
    0,
    0,
    0,
    0,
    0,
    0,
    0,
    0,
    0,
    0,
    0,
    0,
    0,
    0,
    0,
    0,
    0,
    0,
    0,
    0,
    0,
    0,
    0,
    0,
    0,
    0,
    0,
    0,
    0,
    0,
    0,
    0,
    0,
    0,
    0,
    0,
    0,
    0,
    0,
    0,
    0,
    0,
    0,
    0,
    0,
    0,
    0,
    0,
    0,
    0,
    0,
    0,
    0,
    0,
    0,
    0,
    0,
    0,
    0,
    0,
    0,
    0,
    0,
    0,
    0,
    0,
    0,
    0,
    0,
    0,
    0,
    0,
    0,
    0,
    0,
    0,
    0,
    0,
    0,
    0,
    0,
    0,
    0,
    0,
    0,
    0,
    0,
    0,
    0,
    0,
    0,
    0,
    0,
    0,
    0,
    0,
    0,
    0,
    0,
    0,
    0,
    0,
    102,
    0,
    0,
    0,
    0,
    102,
    0,
    0,
    0,
    0,
    0,
    0,
    0,
    0,
    0,
    0,
    0,
    0,
    0,
    0,
    0,
    0,
    0,
    0,
    0,
    0,
    0,
    0,
    0,
    0,
    0,
    0,
    0,
    0,
    0,
    0,
    0,
    0,
    0,
    0,
    0,
    0,
    0,
    0,
    0,
    0,
    0,
    0,
    0,
    0,
    0,
    0,
    0,
    0,
    0,
    0,
    0,
    0,
    0,
    0,
    0,
    0,
    0,
    0,
    0,
    0,
    0,
    0,
    0,
    0,
    0,
    0,
    0,
    0,
    0,
    0,
    0,
    0,
    0,
    0,
    0,
    0,
    0,
    0,
    0,
    0,
    0,
    0,
    0,
    0,
    0,
    0,
    0,
    0,
    0,
    0,
    0,
    0,
    0,
    0,
    0,
    0,
    0,
    0,
    0,
    0,
    0,
    0,
    0,
    0,
    0,
    0,
    0,
    0,
    0,
    0,
    0,
    0,
    0,
    0,
    0,
    0,
    0,
    0,
    0,
    0,
    0,
    0,
    0,
    0,
    0,
    0,
    0,
    0,
    0,
    0,
    0,
    0,
    0,
    0,
    0,
    0,
    0,
    0,
    0,
    0,
    0,
    0,
    0,
    0,
    0,
    0,
    0,
    0,
    0,
    0,
    0,
    0,
    0,
    0,
    0,
    0,
    0,
    0,
    0,
    0,
    0,
    0,
    0,
    0,
    0,
    0,
    0,
    36,
    39,
    42,
    0,
    0,
    0,
    0,
    0,
    0,
    0,
    0,
    36,
    39,
    42,
    0,
    0,
    0,
    0,
    0,
    0,
    0,
    0,
    0,
    0,
    0,
    0,
    0,
    0,
    0,
    0,
    0,
    0,
    0,
    0,
    0,
    0,
    0,
    0,
    0,
    0,
    0,
    0,
    0,
    0,
    0,
    0,
    0,
    0,
    0,
    0,
    0,
    0,
    0,
    0,
    0,
    0,
    0,
    0,
    0,
    0,
    0,
    0,
    0,
    0,
    0,
    0,
    0,
    0,
    0,
    0,
    0,
    0,
    0,
    0,
    0,
    0,
    0,
    0,
    0,
    0,
    0,
    0,
    0,
    0,
    0,
    0,
    0,
    0,
    0,
    0,
    0,
    0,
    0,
    0,
    0,
    0,
    0,
    0,
    0,
    0,
    0,
    0,
    0,
    0,
    0,
    0,
    0,
    0,
    0,
    0,
    0,
    0,
    0,
    0,
    0,
    0,
    102,
    0,
    102,
    0,
    102,
    0,
    102,
    0,
    0,
    0,
    0,
    102,
    0,
    102,
    0,
    102,
    0,
    102,
    0,
    0,
    0,
    0,
    0,
    0,
    0,
    0,
    0,
    0,
    0,
    0,
    0,
    0,
    0,
    0,
    0,
    0,
    0,
    0,
    0,
    0,
    0,
    0,
    0,
    0,
    0,
    0,
    0,
    0,
    0,
    0,
    0,
    0,
    0,
    0,
    0,
    0,
    0,
    0,
    0,
    0,
    0,
    0,
    0,
    0,
    0,
    0,
    0,
    0,
    0,
    0,
    0,
    0,
    0,
    0,
    0,
    0,
    0,
    0,
    0,
    0,
    0,
    0,
    0,
    0,
    0,
    0,
    0,
    0,
    0,
    0,
    0,
    0,
    0,
    0,
    0,
    0,
    0,
    0,
    0,
    0,
    0,
    0,
    0,
    0,
    0,
    0,
    0,
    0,
    0,
    0,
    0,
    0,
    0,
    0,
    0,
    0,
    0,
    0,
    0,
    0,
    0,
    0,
    0,
    0,
    0,
    0,
    0,
    0,
    0,
    0,
    0,
    0,
    0,
    0,
    0,
    0,
    0,
    0,
    0,
    0,
    0,
    0,
    0,
    0,
    0,
    0,
    0,
    0,
    0,
    0,
    0,
    0,
    0,
    0,
    0,
    0,
    0,
    0,
    0,
    0,
    0,
    0,
    0,
    0,
    0,
    0,
    0,
    0,
    0,
    0,
    0,
    0,
    0,
    0,
    0,
    0,
    0,
    0,
    0,
    0,
    0,
    0,
    0,
    0,
    0,
    0,
    0,
    0,
    0,
    0,
    0,
    0,
    0,
    0,
    0,
    0,
    0,
    0,
    0,
    0,
    0,
    0,
    0,
    0,
    0,
    0,
    0,
    0,
    0,
    0,
    0,
    0,
    0,
    0,
    0,
    0,
    0,
    0,
    0,
    0,
    0,
    0,
    0,
    0,
    0,
    0,
    0,
    0,
    0,
    0,
    0,
    0,
    0,
    0,
    0,
    0,
    0,
    0,
    0,
    0,
    0,
    0,
    0,
    0,
    0,
    0,
    0,
    0,
    0,
    0,
    0,
    0,
    0,
    0,
    0,
    0,
    0,
    0,
    0,
    0,
    0,
    0,
    0,
    0,
    0,
    0,
    0,
    0,
    0,
    0,
    0,
    0,
    0,
    0,
    0,
    0,
    0,
    0,
    0,
    0,
    0,
    0,
    0,
    0,
    0,
    0,
    0,
    0,
    0,
    0,
    0,
    0,
    0,
    0,
    0,
    0,
    0,
    0,
    0,
    0,
    0,
    0,
    0,
    0,
    0,
    0,
    0,
    0,
    0,
    0,
    0,
    0,
    0,
    0,
    0,
    0,
    0,
    0,
    0,
    0,
    0,
    0,
    0,
    0,
    0,
    0,
    0,
    0,
    0,
    0,
    0,
    0,
    0,
    0,
    0,
    0,
    0,
    0,
    0,
    0,
    0,
    0,
    0,
    0,
    0,
    0,
    0,
    0,
    0,
    0,
    0,
    0,
    0,
    0,
    0,
    0,
    0,
    0,
    0,
    0,
    0,
    0,
    0,
    0,
    0,
    0,
    0,
    0,
    0,
    0,
    0,
    0,
    0,
    0,
    0,
    0,
    0,
    0,
    0,
    0,
    0,
    0,
    0,
    0,
    0,
    0,
    0,
    0,
    0,
    0,
    0,
    0,
    0,
    0,
    0,
    0,
    0,
    0,
    0,
    0,
    0,
    0,
    0,
    0,
    0,
    0,
    0,
    0,
    0,
    0,
    0,
    0,
    0,
    0,
    0,
    0,
    0,
    0,
    0,
    0,
    0,
    0,
    0,
    0,
    0,
    0,
    0,
    0,
    0,
    0,
    0,
    0,
    0,
    0,
    0,
    0,
    0,
    0,
    0,
    0,
    0,
    0,
    0,
    0,
    0,
    0,
    0,
    0,
    0,
    0,
    0,
    0,
    0,
    0,
    0,
    0,
    0,
    0,
    0,
    0,
    0,
    0,
    0,
    0,
    0,
    0,
    0,
    0,
    0,
    0,
    0,
    0,
    0,
    0,
    0,
    0,
    0,
    0,
    0,
    0,
    0,
    0,
    0,
    0,
    0,
    0,
    0,
    0,
    0,
    0,
    0,
    0,
    0,
    0,
    0,
    0,
    0,
    0,
    0,
    0,
    0,
    0,
    0,
    0,
    0,
    0,
    0,
    0,
    0,
    0,
    0,
    0
   ],
   "properties": [
    {
     "name": "gv2layer",
     "type": "string",
     "value": "Collidables"
    },
    {
     "name": "z",
     "type": "int",
     "value": 5
    },
    {
     "name": "collision",
     "type": "bool",
     "value": false
    }
   ]
  },
  {
   "type": "objectgroup",
   "id": 8,
   "name": "Collidables \u00b7obj",
   "x": 0,
   "y": 0,
   "opacity": 1,
   "visible": true,
   "draworder": "index",
   "objects": [
    {
     "id": 10,
     "gid": 136,
     "name": "gk1_19_0_0",
     "x": 640,
     "y": 640,
     "width": 192,
     "height": 192,
     "visible": true
    },
    {
     "id": 11,
     "gid": 160,
     "name": "gk2_1_0_0",
     "x": 704,
     "y": 1344,
     "width": 192,
     "height": 256,
     "visible": true
    },
    {
     "id": 12,
     "gid": 109,
     "name": "gk1_130_0_0",
     "x": 704,
     "y": 2176,
     "width": 192,
     "height": 64,
     "visible": true
    },
    {
     "id": 13,
     "gid": 111,
     "name": "gk1_133_0_0",
     "x": 704,
     "y": 2240,
     "width": 192,
     "height": 64,
     "visible": true
    },
    {
     "id": 14,
     "gid": 109,
     "name": "gk1_130_0_0",
     "x": 704,
     "y": 2304,
     "width": 192,
     "height": 64,
     "visible": true
    },
    {
     "id": 15,
     "gid": 105,
     "name": "gk1_126_0_0",
     "x": 704,
     "y": 2368,
     "width": 192,
     "height": 64,
     "visible": true
    },
    {
     "id": 16,
     "gid": 160,
     "name": "gk2_1_0_0",
     "x": 1024,
     "y": 1984,
     "width": 192,
     "height": 256,
     "visible": true
    },
    {
     "id": 17,
     "gid": 31,
     "name": "gk1_103_0_0",
     "x": 1664,
     "y": 2432,
     "width": 256,
     "height": 128,
     "visible": true
    },
    {
     "id": 18,
     "gid": 159,
     "name": "gk1_82_0_0",
     "x": 2304,
     "y": 640,
     "width": 64,
     "height": 128,
     "visible": true
    },
    {
     "id": 19,
     "gid": 159,
     "name": "gk1_82_0_0",
     "x": 2304,
     "y": 768,
     "width": 64,
     "height": 128,
     "visible": true
    },
    {
     "id": 20,
     "gid": 159,
     "name": "gk1_82_0_0",
     "x": 2304,
     "y": 896,
     "width": 64,
     "height": 128,
     "visible": true
    },
    {
     "id": 21,
     "gid": 160,
     "name": "gk2_1_0_0",
     "x": 2368,
     "y": 1280,
     "width": 192,
     "height": 256,
     "visible": true
    },
    {
     "id": 22,
     "gid": 109,
     "name": "gk1_130_0_0",
     "x": 2368,
     "y": 2240,
     "width": 192,
     "height": 64,
     "visible": true
    },
    {
     "id": 23,
     "gid": 111,
     "name": "gk1_133_0_0",
     "x": 2368,
     "y": 2304,
     "width": 192,
     "height": 64,
     "visible": true
    },
    {
     "id": 24,
     "gid": 106,
     "name": "gk1_127_0_0",
     "x": 2368,
     "y": 2368,
     "width": 192,
     "height": 64,
     "visible": true
    },
    {
     "id": 25,
     "gid": 158,
     "name": "gk1_81_0_0",
     "x": 2432,
     "y": 640,
     "width": 64,
     "height": 128,
     "visible": true
    },
    {
     "id": 26,
     "gid": 158,
     "name": "gk1_81_0_0",
     "x": 2432,
     "y": 768,
     "width": 64,
     "height": 128,
     "visible": true
    },
    {
     "id": 27,
     "gid": 158,
     "name": "gk1_81_0_0",
     "x": 2432,
     "y": 896,
     "width": 64,
     "height": 128,
     "visible": true
    },
    {
     "id": 28,
     "gid": 160,
     "name": "gk2_1_0_0",
     "x": 2688,
     "y": 1600,
     "width": 192,
     "height": 256,
     "visible": true
    },
    {
     "id": 29,
     "gid": 108,
     "name": "gk1_129_0_0",
     "x": 2688,
     "y": 2240,
     "width": 192,
     "height": 64,
     "visible": true
    },
    {
     "id": 30,
     "gid": 108,
     "name": "gk1_129_0_0",
     "x": 2688,
     "y": 2304,
     "width": 192,
     "height": 64,
     "visible": true
    },
    {
     "id": 31,
     "gid": 107,
     "name": "gk1_128_0_0",
     "x": 2688,
     "y": 2368,
     "width": 192,
     "height": 64,
     "visible": true
    },
    {
     "id": 32,
     "gid": 135,
     "name": "gk1_17_0_0",
     "x": 2752,
     "y": 704,
     "width": 192,
     "height": 384,
     "visible": true
    },
    {
     "id": 33,
     "gid": 160,
     "name": "gk2_1_0_0",
     "x": 3008,
     "y": 1984,
     "width": 192,
     "height": 256,
     "visible": true
    },
    {
     "id": 34,
     "gid": 160,
     "name": "gk2_1_0_0",
     "x": 384,
     "y": 1664,
     "width": 192,
     "height": 256,
     "visible": true
    },
    {
     "id": 35,
     "gid": 110,
     "name": "gk1_131_0_0",
     "x": 384,
     "y": 2304,
     "width": 192,
     "height": 64,
     "visible": true
    },
    {
     "id": 36,
     "gid": 107,
     "name": "gk1_128_0_0",
     "x": 384,
     "y": 2368,
     "width": 192,
     "height": 64,
     "visible": true
    }
   ],
   "properties": [
    {
     "name": "gv2layer",
     "type": "string",
     "value": "Collidables"
    },
    {
     "name": "z",
     "type": "int",
     "value": 5
    },
    {
     "name": "collision",
     "type": "bool",
     "value": false
    }
   ]
  },
  {
   "type": "tilelayer",
   "id": 9,
   "name": "Other",
   "width": 59,
   "height": 48,
   "x": 0,
   "y": 0,
   "opacity": 1,
   "visible": true,
   "data": [
    0,
    0,
    0,
    0,
    0,
    0,
    0,
    0,
    0,
    0,
    0,
    0,
    0,
    0,
    0,
    0,
    0,
    0,
    0,
    0,
    0,
    0,
    0,
    0,
    0,
    0,
    0,
    0,
    0,
    0,
    0,
    0,
    0,
    0,
    0,
    0,
    0,
    0,
    0,
    0,
    0,
    0,
    0,
    0,
    0,
    0,
    0,
    0,
    0,
    0,
    0,
    0,
    0,
    0,
    0,
    0,
    0,
    0,
    0,
    0,
    0,
    0,
    0,
    0,
    0,
    0,
    0,
    0,
    0,
    0,
    0,
    0,
    0,
    0,
    0,
    0,
    0,
    0,
    0,
    0,
    0,
    0,
    0,
    0,
    0,
    0,
    0,
    0,
    0,
    0,
    0,
    0,
    0,
    0,
    0,
    0,
    0,
    0,
    0,
    0,
    0,
    0,
    0,
    0,
    0,
    0,
    0,
    0,
    0,
    0,
    0,
    0,
    0,
    0,
    0,
    0,
    0,
    0,
    0,
    0,
    0,
    0,
    0,
    0,
    0,
    0,
    0,
    0,
    0,
    0,
    0,
    0,
    0,
    0,
    0,
    0,
    0,
    0,
    0,
    0,
    0,
    0,
    0,
    0,
    0,
    0,
    0,
    0,
    0,
    0,
    0,
    0,
    0,
    0,
    0,
    0,
    0,
    0,
    0,
    0,
    0,
    0,
    0,
    0,
    0,
    0,
    0,
    0,
    0,
    0,
    0,
    0,
    0,
    0,
    0,
    0,
    0,
    0,
    0,
    0,
    0,
    0,
    0,
    0,
    0,
    0,
    0,
    0,
    0,
    0,
    0,
    0,
    0,
    0,
    0,
    0,
    0,
    0,
    0,
    0,
    0,
    0,
    0,
    0,
    0,
    0,
    0,
    0,
    0,
    0,
    0,
    0,
    0,
    0,
    0,
    0,
    0,
    0,
    0,
    0,
    0,
    0,
    0,
    0,
    0,
    0,
    0,
    0,
    0,
    0,
    0,
    0,
    0,
    0,
    0,
    0,
    0,
    0,
    0,
    0,
    0,
    0,
    0,
    0,
    0,
    0,
    0,
    0,
    0,
    0,
    0,
    0,
    0,
    0,
    0,
    0,
    0,
    0,
    0,
    0,
    0,
    0,
    0,
    0,
    0,
    0,
    0,
    0,
    0,
    0,
    0,
    0,
    0,
    0,
    0,
    0,
    0,
    0,
    0,
    0,
    0,
    0,
    0,
    0,
    0,
    0,
    0,
    0,
    0,
    0,
    0,
    0,
    0,
    0,
    0,
    0,
    0,
    0,
    0,
    0,
    0,
    0,
    0,
    0,
    0,
    0,
    0,
    0,
    0,
    0,
    0,
    0,
    0,
    0,
    0,
    0,
    0,
    0,
    0,
    0,
    0,
    0,
    0,
    0,
    0,
    0,
    0,
    0,
    0,
    0,
    0,
    0,
    0,
    0,
    0,
    0,
    0,
    0,
    0,
    0,
    0,
    0,
    0,
    0,
    0,
    0,
    0,
    0,
    0,
    0,
    0,
    0,
    0,
    0,
    0,
    0,
    0,
    0,
    0,
    0,
    0,
    0,
    0,
    0,
    0,
    0,
    0,
    0,
    0,
    0,
    0,
    0,
    0,
    0,
    0,
    0,
    0,
    0,
    0,
    0,
    0,
    0,
    0,
    0,
    0,
    0,
    0,
    0,
    0,
    0,
    0,
    0,
    0,
    0,
    0,
    0,
    0,
    0,
    0,
    0,
    0,
    0,
    0,
    0,
    0,
    0,
    0,
    0,
    0,
    0,
    0,
    0,
    0,
    0,
    0,
    0,
    0,
    0,
    0,
    0,
    0,
    0,
    0,
    0,
    0,
    0,
    0,
    0,
    0,
    0,
    0,
    0,
    0,
    0,
    0,
    0,
    0,
    0,
    0,
    0,
    0,
    0,
    0,
    0,
    0,
    0,
    0,
    0,
    0,
    0,
    0,
    0,
    0,
    0,
    0,
    0,
    0,
    0,
    0,
    0,
    0,
    0,
    0,
    0,
    0,
    0,
    0,
    0,
    0,
    0,
    0,
    0,
    0,
    0,
    0,
    0,
    0,
    0,
    0,
    0,
    0,
    0,
    0,
    0,
    0,
    0,
    0,
    0,
    0,
    0,
    0,
    0,
    0,
    0,
    0,
    0,
    0,
    0,
    0,
    0,
    0,
    0,
    0,
    0,
    0,
    0,
    0,
    0,
    0,
    0,
    0,
    0,
    0,
    0,
    0,
    0,
    0,
    0,
    0,
    0,
    0,
    0,
    0,
    0,
    0,
    0,
    0,
    0,
    0,
    0,
    0,
    0,
    0,
    0,
    0,
    0,
    0,
    0,
    0,
    0,
    0,
    0,
    0,
    0,
    0,
    0,
    0,
    0,
    0,
    0,
    0,
    0,
    0,
    0,
    0,
    0,
    0,
    0,
    0,
    0,
    0,
    0,
    0,
    0,
    0,
    0,
    0,
    0,
    0,
    0,
    0,
    0,
    0,
    0,
    0,
    0,
    0,
    0,
    0,
    0,
    0,
    0,
    0,
    0,
    0,
    0,
    0,
    0,
    0,
    0,
    0,
    0,
    0,
    0,
    0,
    0,
    0,
    0,
    0,
    0,
    0,
    0,
    0,
    0,
    0,
    0,
    0,
    0,
    0,
    0,
    0,
    0,
    0,
    0,
    0,
    0,
    0,
    0,
    0,
    0,
    0,
    0,
    0,
    0,
    0,
    0,
    0,
    0,
    0,
    0,
    0,
    0,
    0,
    0,
    0,
    0,
    0,
    0,
    0,
    0,
    0,
    0,
    0,
    0,
    0,
    0,
    0,
    0,
    0,
    0,
    0,
    0,
    0,
    0,
    0,
    0,
    0,
    0,
    0,
    0,
    0,
    0,
    0,
    0,
    0,
    0,
    0,
    0,
    0,
    0,
    0,
    0,
    0,
    0,
    0,
    0,
    0,
    0,
    0,
    0,
    0,
    0,
    0,
    0,
    0,
    0,
    0,
    0,
    0,
    0,
    0,
    0,
    0,
    0,
    0,
    0,
    0,
    0,
    0,
    0,
    0,
    0,
    0,
    0,
    0,
    0,
    0,
    0,
    0,
    0,
    0,
    0,
    0,
    0,
    0,
    0,
    0,
    0,
    0,
    0,
    0,
    0,
    0,
    0,
    0,
    0,
    0,
    0,
    0,
    0,
    0,
    0,
    0,
    0,
    0,
    0,
    0,
    0,
    0,
    0,
    0,
    0,
    0,
    0,
    0,
    0,
    0,
    0,
    0,
    0,
    0,
    0,
    0,
    0,
    0,
    0,
    0,
    0,
    0,
    0,
    0,
    0,
    0,
    0,
    0,
    0,
    0,
    0,
    0,
    0,
    0,
    0,
    0,
    0,
    0,
    0,
    0,
    0,
    0,
    0,
    0,
    0,
    0,
    0,
    0,
    0,
    0,
    0,
    0,
    0,
    0,
    0,
    0,
    0,
    0,
    0,
    0,
    0,
    0,
    0,
    0,
    0,
    0,
    0,
    0,
    0,
    0,
    0,
    0,
    0,
    0,
    0,
    0,
    0,
    0,
    0,
    0,
    0,
    0,
    0,
    0,
    0,
    0,
    0,
    0,
    0,
    0,
    0,
    0,
    0,
    0,
    0,
    0,
    0,
    0,
    0,
    0,
    0,
    0,
    0,
    0,
    0,
    0,
    0,
    0,
    0,
    0,
    0,
    0,
    0,
    0,
    0,
    0,
    0,
    0,
    0,
    0,
    0,
    0,
    0,
    0,
    0,
    0,
    0,
    0,
    0,
    0,
    0,
    0,
    0,
    0,
    0,
    0,
    0,
    0,
    0,
    0,
    0,
    0,
    0,
    0,
    0,
    0,
    0,
    0,
    0,
    0,
    0,
    0,
    0,
    0,
    0,
    0,
    0,
    0,
    0,
    0,
    0,
    0,
    0,
    0,
    0,
    0,
    0,
    0,
    0,
    0,
    0,
    0,
    117,
    0,
    0,
    0,
    0,
    0,
    0,
    0,
    0,
    0,
    0,
    0,
    0,
    0,
    0,
    0,
    0,
    0,
    0,
    0,
    0,
    0,
    0,
    0,
    0,
    0,
    0,
    0,
    0,
    0,
    0,
    0,
    0,
    0,
    0,
    0,
    0,
    0,
    0,
    0,
    0,
    0,
    0,
    0,
    0,
    0,
    0,
    0,
    0,
    0,
    0,
    0,
    0,
    0,
    0,
    0,
    0,
    0,
    0,
    115,
    0,
    0,
    0,
    0,
    0,
    0,
    0,
    0,
    0,
    0,
    0,
    0,
    0,
    0,
    0,
    0,
    0,
    0,
    0,
    0,
    0,
    0,
    0,
    0,
    0,
    0,
    0,
    0,
    0,
    0,
    0,
    0,
    0,
    0,
    0,
    0,
    0,
    0,
    0,
    0,
    0,
    0,
    0,
    0,
    0,
    0,
    0,
    0,
    0,
    0,
    0,
    0,
    0,
    0,
    0,
    0,
    0,
    0,
    0,
    0,
    0,
    0,
    0,
    0,
    0,
    0,
    0,
    0,
    0,
    0,
    0,
    0,
    0,
    0,
    0,
    0,
    0,
    0,
    0,
    0,
    0,
    0,
    0,
    0,
    0,
    0,
    0,
    0,
    0,
    0,
    0,
    0,
    0,
    0,
    0,
    0,
    0,
    0,
    0,
    0,
    0,
    0,
    0,
    0,
    0,
    0,
    0,
    0,
    0,
    0,
    0,
    0,
    0,
    0,
    0,
    0,
    0,
    0,
    0,
    0,
    0,
    0,
    0,
    0,
    0,
    0,
    0,
    0,
    0,
    0,
    0,
    0,
    0,
    0,
    0,
    0,
    0,
    0,
    0,
    0,
    0,
    0,
    0,
    0,
    0,
    0,
    0,
    0,
    0,
    0,
    0,
    0,
    0,
    0,
    0,
    0,
    0,
    0,
    0,
    0,
    0,
    0,
    0,
    0,
    0,
    0,
    0,
    0,
    0,
    0,
    0,
    0,
    0,
    0,
    0,
    0,
    0,
    0,
    0,
    0,
    0,
    0,
    0,
    0,
    0,
    0,
    0,
    0,
    0,
    0,
    0,
    0,
    0,
    0,
    0,
    0,
    0,
    0,
    0,
    0,
    0,
    0,
    0,
    0,
    0,
    0,
    0,
    0,
    0,
    0,
    0,
    0,
    0,
    0,
    0,
    0,
    0,
    0,
    0,
    0,
    0,
    0,
    0,
    0,
    0,
    0,
    0,
    0,
    0,
    0,
    0,
    0,
    0,
    0,
    0,
    0,
    0,
    0,
    0,
    0,
    0,
    0,
    0,
    0,
    0,
    0,
    0,
    0,
    0,
    0,
    0,
    0,
    0,
    0,
    0,
    0,
    0,
    0,
    0,
    0,
    0,
    0,
    0,
    0,
    0,
    0,
    0,
    0,
    0,
    0,
    0,
    0,
    0,
    0,
    0,
    0,
    0,
    0,
    0,
    0,
    0,
    0,
    0,
    0,
    0,
    0,
    0,
    0,
    0,
    0,
    0,
    0,
    0,
    0,
    0,
    0,
    0,
    0,
    0,
    0,
    0,
    0,
    0,
    0,
    0,
    0,
    0,
    0,
    0,
    0,
    0,
    0,
    0,
    0,
    0,
    0,
    0,
    0,
    0,
    0,
    0,
    0,
    0,
    0,
    0,
    0,
    0,
    0,
    0,
    0,
    0,
    0,
    0,
    0,
    0,
    0,
    0,
    0,
    0,
    0,
    0,
    0,
    0,
    0,
    0,
    0,
    0,
    0,
    0,
    0,
    0,
    0,
    0,
    0,
    0,
    0,
    0,
    0,
    0,
    0,
    0,
    0,
    0,
    0,
    0,
    0,
    0,
    0,
    0,
    0,
    0,
    0,
    0,
    0,
    0,
    0,
    0,
    0,
    0,
    0,
    0,
    0,
    0,
    0,
    0,
    0,
    0,
    0,
    0,
    0,
    0,
    0,
    0,
    0,
    0,
    0,
    0,
    0,
    0,
    0,
    0,
    0,
    0,
    0,
    0,
    0,
    0,
    0,
    0,
    0,
    0,
    0,
    0,
    0,
    0,
    0,
    0,
    0,
    0,
    0,
    0,
    0,
    0,
    0,
    0,
    0,
    0,
    0,
    0,
    0,
    0,
    0,
    0,
    0,
    0,
    0,
    0,
    0,
    0,
    0,
    0,
    0,
    0,
    0,
    0,
    0,
    0,
    0,
    0,
    0,
    0,
    0,
    0,
    0,
    0,
    0,
    0,
    0,
    0,
    0,
    0,
    0,
    0,
    0,
    0,
    0,
    0,
    0,
    0,
    0,
    0,
    0,
    0,
    0,
    0,
    0,
    0,
    0,
    0,
    0,
    0,
    0,
    0,
    0,
    0,
    0,
    0,
    0,
    0,
    0,
    0,
    0,
    0,
    0,
    0,
    0,
    0,
    0,
    0,
    0,
    0,
    0,
    0,
    0,
    0,
    0,
    0,
    0,
    0,
    0,
    0,
    0,
    0,
    0,
    0,
    0,
    0,
    0,
    0,
    0,
    0,
    0,
    0,
    0,
    0,
    0,
    0,
    0,
    118,
    0,
    0,
    0,
    0,
    0,
    0,
    0,
    0,
    0,
    0,
    0,
    0,
    0,
    0,
    0,
    0,
    0,
    0,
    0,
    0,
    0,
    0,
    0,
    0,
    0,
    0,
    0,
    0,
    0,
    0,
    0,
    0,
    0,
    0,
    0,
    0,
    0,
    0,
    0,
    0,
    0,
    0,
    0,
    0,
    0,
    0,
    0,
    0,
    0,
    0,
    0,
    0,
    0,
    0,
    0,
    0,
    0,
    0,
    116,
    133,
    0,
    0,
    0,
    0,
    0,
    0,
    0,
    0,
    0,
    0,
    0,
    0,
    0,
    0,
    0,
    0,
    0,
    0,
    0,
    0,
    0,
    0,
    0,
    0,
    0,
    0,
    0,
    0,
    0,
    0,
    0,
    0,
    0,
    0,
    0,
    0,
    0,
    0,
    0,
    0,
    0,
    0,
    0,
    0,
    0,
    0,
    0,
    0,
    0,
    0,
    0,
    0,
    0,
    0,
    0,
    0,
    0,
    0,
    0,
    0,
    0,
    0,
    0,
    0,
    0,
    0,
    0,
    0,
    0,
    0,
    0,
    0,
    0,
    0,
    0,
    0,
    0,
    0,
    0,
    0,
    0,
    0,
    0,
    0,
    0,
    0,
    0,
    0,
    0,
    0,
    0,
    0,
    0,
    0,
    0,
    0,
    0,
    0,
    0,
    0,
    0,
    0,
    0,
    0,
    0,
    0,
    0,
    0,
    0,
    0,
    0,
    0,
    0,
    0,
    0,
    0,
    0,
    0,
    0,
    0,
    0,
    0,
    0,
    0,
    0,
    0,
    0,
    0,
    0,
    0,
    0,
    0,
    0,
    0,
    0,
    0,
    0,
    0,
    0,
    0,
    0,
    0,
    0,
    0,
    0,
    0,
    0,
    0,
    0,
    0,
    0,
    0,
    0,
    0,
    0,
    0,
    0,
    0,
    0,
    0,
    0,
    0,
    0,
    0,
    0,
    0,
    0,
    0,
    0,
    0,
    0,
    0,
    0,
    0,
    0,
    0,
    0,
    0,
    0,
    0,
    0,
    0,
    0,
    0,
    0,
    0,
    0,
    0,
    0,
    0,
    0,
    0,
    0,
    0,
    0,
    0,
    0,
    0,
    0,
    0,
    0,
    0,
    0,
    0,
    0,
    0,
    0,
    0,
    0,
    0,
    0,
    0,
    0,
    0,
    0,
    0,
    0,
    0,
    0,
    0,
    0,
    0,
    0,
    0,
    0,
    0,
    0,
    0,
    0,
    0,
    0,
    0,
    0,
    0,
    0,
    0,
    0,
    0,
    0,
    0,
    0,
    0,
    0,
    0,
    0,
    0,
    0,
    0,
    0,
    0,
    0,
    0,
    0,
    0,
    0,
    0,
    0,
    0,
    0,
    0,
    0,
    0,
    0,
    0,
    0,
    0,
    0,
    0,
    0,
    0,
    0,
    0,
    0,
    0,
    0,
    0,
    0,
    0,
    0,
    0,
    0,
    0,
    0,
    0,
    0,
    0,
    0,
    0,
    0,
    0,
    0,
    0,
    0,
    0,
    0,
    0,
    0,
    0,
    0,
    0,
    0,
    0,
    0,
    0,
    0,
    0,
    0,
    0,
    0,
    0,
    0,
    0,
    0,
    0,
    0,
    0,
    0,
    0,
    0,
    0,
    0,
    0,
    0,
    0,
    0,
    0,
    0,
    0,
    0,
    0,
    0,
    0,
    0,
    0,
    0,
    0,
    0,
    0,
    0,
    0,
    0,
    0,
    0,
    0,
    0,
    0,
    0,
    0,
    0,
    0,
    0,
    0,
    0,
    0,
    0,
    0,
    0,
    0,
    0,
    0,
    0,
    0,
    0,
    0,
    0,
    0,
    0,
    0,
    0,
    0,
    0,
    0,
    0,
    0,
    0,
    0,
    0,
    0,
    0,
    0,
    0,
    0,
    0,
    0,
    0,
    0,
    0,
    0,
    0,
    0,
    0,
    0,
    0,
    0,
    0,
    0,
    0,
    0,
    0,
    0,
    0,
    0,
    0,
    0,
    0,
    0,
    0,
    0,
    0,
    0,
    0,
    0,
    0,
    0,
    0,
    0,
    0,
    0,
    0,
    0,
    0,
    0,
    0,
    0,
    0,
    0,
    0,
    0,
    0,
    0,
    0,
    0,
    0,
    0,
    0,
    0,
    0,
    0,
    0,
    0,
    0,
    0,
    0,
    0,
    0,
    0,
    0,
    0,
    0,
    0,
    0,
    0,
    0,
    0,
    0,
    0,
    0,
    0,
    0,
    0,
    0,
    0,
    0,
    0,
    0,
    0,
    0,
    0,
    0,
    0,
    0,
    0,
    0,
    0,
    0,
    0,
    0,
    0,
    0,
    0,
    0,
    0,
    0,
    0,
    0,
    0,
    0,
    0,
    0,
    0,
    0,
    0,
    0,
    0,
    0,
    0,
    0,
    0,
    0,
    0,
    0,
    0,
    0,
    0,
    0,
    0,
    0,
    0,
    0,
    0,
    0,
    0,
    0,
    0,
    0,
    0,
    0,
    0,
    0,
    0,
    0,
    0,
    0,
    0,
    0,
    0,
    0,
    0,
    0,
    0,
    0,
    0,
    0,
    0,
    0,
    0,
    0,
    0,
    0,
    0,
    0,
    0,
    0,
    0,
    0,
    0,
    0,
    0,
    0,
    0,
    0,
    0,
    0,
    0,
    0,
    0,
    0,
    0,
    0,
    0,
    0,
    0,
    0,
    0,
    0,
    0,
    0,
    0,
    0,
    0,
    0,
    0,
    0,
    0,
    0,
    0,
    0,
    0,
    0,
    0,
    0,
    0,
    0,
    0,
    0,
    0,
    0,
    0,
    0,
    0,
    0,
    0,
    0,
    0,
    0,
    0,
    0,
    0,
    0,
    0,
    0,
    0,
    0,
    0,
    0,
    0,
    0,
    0,
    0,
    0,
    0,
    0,
    0,
    0,
    0,
    0,
    0,
    0,
    0,
    0,
    0,
    0,
    0,
    0,
    0,
    0,
    0,
    0,
    0,
    0,
    0,
    0,
    0,
    0,
    0,
    0,
    0,
    0,
    0,
    0,
    0,
    0,
    0,
    0,
    0,
    0,
    0,
    0,
    0,
    0,
    0,
    0,
    0,
    0,
    0,
    0,
    0,
    0,
    0,
    0,
    0,
    0,
    0,
    0,
    0,
    0,
    0,
    118,
    0,
    0,
    0,
    0,
    0,
    0,
    0,
    0,
    0,
    0,
    0,
    0,
    0,
    0,
    0,
    0,
    0,
    0,
    0,
    0,
    0,
    0,
    0,
    0,
    0,
    0,
    0,
    0,
    0,
    131,
    0,
    0,
    0,
    0,
    0,
    0,
    0,
    0,
    0,
    0,
    0,
    0,
    0,
    0,
    0,
    0,
    0,
    0,
    0,
    0,
    0,
    0,
    0,
    133,
    0,
    0,
    0,
    0,
    116,
    0,
    0,
    0,
    0,
    0,
    0,
    0,
    0,
    0,
    0,
    0,
    0,
    0,
    0,
    0,
    0,
    0,
    0,
    0,
    0,
    0,
    0,
    0,
    0,
    0,
    0,
    0,
    0,
    0,
    0,
    0,
    0,
    0,
    0,
    0,
    0,
    0,
    0,
    0,
    0,
    0,
    129,
    129,
    0,
    0,
    0,
    0,
    0,
    0,
    0,
    0,
    0,
    0,
    0,
    0,
    0,
    0,
    0,
    0,
    0,
    0,
    0,
    0,
    0,
    0,
    0,
    0,
    0,
    0,
    0,
    0,
    0,
    0,
    0,
    0,
    0,
    0,
    0,
    0,
    0,
    0,
    0,
    0,
    0,
    0,
    0,
    0,
    0,
    0,
    0,
    0,
    0,
    0,
    0,
    0,
    0,
    0,
    0,
    0,
    0,
    130,
    130,
    0,
    0,
    0,
    0,
    0,
    0,
    0,
    0,
    0,
    0,
    0,
    0,
    0,
    0,
    0,
    0,
    0,
    0,
    0,
    0,
    0,
    0,
    0,
    0,
    133,
    0,
    0,
    0,
    0,
    0,
    0,
    0,
    0,
    0,
    0,
    0,
    0,
    0,
    0,
    0,
    0,
    0,
    0,
    0,
    0,
    0,
    0,
    0,
    0,
    0,
    0,
    0,
    0,
    0,
    0,
    0,
    0,
    0,
    0,
    0,
    0,
    0,
    0,
    0,
    0,
    0,
    0,
    0,
    0,
    0,
    0,
    0,
    0,
    0,
    0,
    0,
    0,
    0,
    0,
    0,
    0,
    0,
    0,
    0,
    0,
    0,
    0,
    0,
    0,
    0,
    0,
    0,
    0,
    0,
    0,
    0,
    0,
    0,
    0,
    0,
    0,
    0,
    0,
    0,
    0,
    0,
    0,
    0,
    0,
    0,
    0,
    0,
    0,
    0,
    0,
    0,
    0,
    0,
    0,
    0,
    0,
    0,
    0,
    0,
    0,
    0,
    0,
    0,
    0,
    0,
    0,
    0,
    0,
    0,
    0,
    0,
    0,
    0,
    0,
    0,
    0,
    0,
    0,
    0,
    0,
    0,
    0,
    0,
    0,
    0,
    0,
    0,
    0,
    0,
    0,
    0,
    0,
    0,
    0,
    0,
    0,
    0,
    0,
    0,
    0,
    0,
    0,
    0,
    0,
    0,
    0,
    0,
    0,
    0,
    0,
    0,
    0,
    0,
    0,
    0,
    0,
    0,
    0,
    0,
    0,
    0,
    0,
    0,
    0,
    0,
    0,
    0,
    0,
    0,
    0,
    0,
    0,
    0,
    0,
    0,
    0,
    0,
    0,
    0,
    0,
    0,
    0,
    0,
    0,
    0,
    0,
    0,
    0,
    0,
    0,
    0,
    0,
    0,
    0,
    0,
    0,
    0,
    0,
    0,
    0,
    0,
    0,
    0,
    0,
    0,
    0,
    0,
    0,
    0,
    0,
    0,
    0,
    0,
    0,
    0,
    0,
    0,
    0,
    0,
    0,
    0,
    0,
    0,
    0,
    0,
    0,
    0,
    0,
    0,
    0,
    0,
    0,
    0,
    0,
    0,
    0,
    0,
    0,
    0,
    0,
    0,
    0,
    0,
    0,
    0,
    0,
    0,
    0,
    0,
    0,
    0,
    0,
    0,
    0,
    0,
    0,
    0,
    0,
    0,
    0,
    0,
    0,
    0,
    0,
    0,
    0,
    0,
    0,
    0,
    0,
    0,
    0,
    0,
    0,
    0,
    0,
    0,
    0,
    0,
    0,
    0,
    0,
    0,
    0,
    0,
    0,
    0,
    0,
    0,
    0,
    0,
    0,
    0,
    0,
    0,
    0,
    0,
    0,
    0,
    0,
    0,
    0,
    0,
    0,
    0,
    0,
    0,
    0,
    0,
    0,
    0,
    0,
    0,
    0,
    0,
    0,
    0,
    0,
    0,
    0,
    0,
    0,
    0,
    0,
    0,
    0,
    0,
    0,
    0,
    0,
    0,
    0,
    0,
    0,
    0,
    0,
    0,
    0,
    0,
    0,
    0,
    0,
    0,
    0,
    0,
    0,
    0,
    0,
    0,
    0,
    0,
    0,
    0,
    0,
    0,
    0,
    0,
    0,
    0,
    0,
    0,
    0,
    0,
    0,
    0,
    0,
    0,
    0,
    0,
    0,
    0,
    0,
    0,
    0,
    0,
    0,
    0,
    0,
    0,
    0,
    0,
    0,
    0,
    0,
    0,
    0,
    0,
    0,
    0,
    0,
    0,
    0,
    0,
    0,
    0,
    0,
    0,
    0,
    0,
    0,
    0,
    0,
    0,
    0,
    0,
    0,
    0,
    0,
    0,
    0,
    0,
    0,
    0,
    0,
    0,
    0,
    0,
    0,
    0,
    0
   ],
   "properties": [
    {
     "name": "gv2layer",
     "type": "string",
     "value": "Other"
    },
    {
     "name": "z",
     "type": "int",
     "value": 6
    },
    {
     "name": "collision",
     "type": "bool",
     "value": false
    }
   ]
  },
  {
   "type": "objectgroup",
   "id": 10,
   "name": "Other \u00b7obj",
   "x": 0,
   "y": 0,
   "opacity": 1,
   "visible": true,
   "draworder": "index",
   "objects": [
    {
     "id": 37,
     "gid": 132,
     "name": "gk1_173_0_0",
     "x": 832,
     "y": 2304,
     "width": 64,
     "height": 128,
     "visible": true
    },
    {
     "id": 38,
     "gid": 134,
     "name": "gk1_176_0_0",
     "x": 1472,
     "y": 1536,
     "width": 64,
     "height": 128,
     "visible": true
    },
    {
     "id": 39,
     "gid": 134,
     "name": "gk1_176_0_0",
     "x": 2368,
     "y": 2304,
     "width": 64,
     "height": 128,
     "visible": true
    },
    {
     "id": 40,
     "gid": 134,
     "name": "gk1_176_0_0",
     "x": 3264,
     "y": 2432,
     "width": 64,
     "height": 128,
     "visible": true
    }
   ],
   "properties": [
    {
     "name": "gv2layer",
     "type": "string",
     "value": "Other"
    },
    {
     "name": "z",
     "type": "int",
     "value": 6
    },
    {
     "name": "collision",
     "type": "bool",
     "value": false
    }
   ]
  },
  {
   "type": "tilelayer",
   "id": 11,
   "name": "Tops",
   "width": 59,
   "height": 48,
   "x": 0,
   "y": 0,
   "opacity": 1,
   "visible": true,
   "data": [
    0,
    0,
    0,
    0,
    0,
    0,
    0,
    0,
    0,
    0,
    0,
    0,
    0,
    0,
    0,
    0,
    0,
    0,
    0,
    0,
    0,
    0,
    0,
    0,
    0,
    0,
    0,
    0,
    0,
    0,
    0,
    0,
    0,
    0,
    0,
    0,
    0,
    0,
    0,
    0,
    0,
    0,
    0,
    0,
    0,
    0,
    0,
    0,
    0,
    0,
    0,
    0,
    0,
    0,
    0,
    0,
    0,
    0,
    0,
    0,
    0,
    0,
    0,
    0,
    0,
    0,
    0,
    0,
    0,
    0,
    0,
    0,
    0,
    0,
    0,
    0,
    0,
    0,
    0,
    0,
    0,
    0,
    0,
    0,
    0,
    0,
    0,
    0,
    0,
    0,
    0,
    0,
    0,
    0,
    0,
    0,
    0,
    0,
    0,
    0,
    0,
    0,
    0,
    0,
    0,
    0,
    0,
    0,
    0,
    0,
    0,
    0,
    0,
    0,
    0,
    0,
    0,
    0,
    0,
    0,
    0,
    0,
    0,
    0,
    0,
    0,
    0,
    0,
    0,
    0,
    0,
    0,
    0,
    0,
    0,
    0,
    0,
    0,
    0,
    0,
    0,
    0,
    0,
    0,
    0,
    0,
    0,
    0,
    0,
    0,
    0,
    0,
    0,
    0,
    0,
    0,
    0,
    0,
    0,
    0,
    0,
    0,
    0,
    0,
    0,
    0,
    0,
    0,
    0,
    0,
    0,
    0,
    0,
    0,
    0,
    0,
    0,
    0,
    0,
    0,
    0,
    0,
    0,
    0,
    0,
    0,
    0,
    0,
    0,
    0,
    0,
    0,
    0,
    0,
    0,
    0,
    0,
    0,
    0,
    0,
    0,
    0,
    0,
    0,
    0,
    0,
    0,
    0,
    0,
    0,
    0,
    0,
    0,
    0,
    0,
    0,
    0,
    0,
    0,
    0,
    0,
    0,
    0,
    0,
    0,
    0,
    0,
    0,
    0,
    0,
    0,
    0,
    0,
    0,
    0,
    0,
    0,
    0,
    0,
    0,
    0,
    0,
    0,
    0,
    0,
    0,
    0,
    0,
    0,
    0,
    0,
    0,
    0,
    0,
    0,
    0,
    0,
    0,
    0,
    0,
    0,
    0,
    0,
    0,
    0,
    0,
    0,
    0,
    0,
    0,
    0,
    0,
    0,
    0,
    0,
    0,
    0,
    0,
    0,
    0,
    0,
    0,
    0,
    0,
    0,
    0,
    0,
    0,
    0,
    0,
    0,
    0,
    0,
    0,
    0,
    0,
    0,
    0,
    0,
    0,
    0,
    0,
    0,
    0,
    0,
    0,
    0,
    0,
    0,
    0,
    0,
    0,
    0,
    0,
    0,
    0,
    0,
    0,
    0,
    0,
    0,
    0,
    0,
    0,
    0,
    0,
    0,
    0,
    0,
    0,
    0,
    0,
    0,
    0,
    0,
    0,
    0,
    0,
    0,
    0,
    0,
    0,
    0,
    0,
    0,
    0,
    0,
    0,
    0,
    0,
    0,
    0,
    0,
    0,
    0,
    0,
    0,
    0,
    0,
    0,
    0,
    0,
    0,
    0,
    0,
    0,
    0,
    0,
    0,
    0,
    0,
    0,
    0,
    0,
    0,
    0,
    0,
    0,
    0,
    0,
    0,
    0,
    0,
    0,
    0,
    0,
    0,
    0,
    0,
    0,
    0,
    0,
    0,
    0,
    0,
    0,
    0,
    0,
    0,
    0,
    0,
    0,
    0,
    0,
    0,
    0,
    0,
    0,
    0,
    0,
    0,
    0,
    0,
    0,
    0,
    0,
    0,
    0,
    0,
    0,
    0,
    0,
    0,
    0,
    0,
    0,
    0,
    0,
    0,
    0,
    0,
    0,
    0,
    0,
    0,
    0,
    0,
    0,
    0,
    0,
    49,
    54,
    0,
    0,
    0,
    0,
    0,
    0,
    0,
    0,
    0,
    0,
    0,
    0,
    0,
    0,
    0,
    0,
    0,
    0,
    0,
    0,
    0,
    0,
    0,
    0,
    0,
    0,
    0,
    0,
    0,
    0,
    0,
    0,
    0,
    0,
    0,
    0,
    0,
    0,
    0,
    103,
    0,
    0,
    0,
    103,
    0,
    0,
    0,
    0,
    0,
    0,
    0,
    0,
    45,
    24,
    24,
    24,
    51,
    50,
    55,
    56,
    24,
    24,
    24,
    58,
    0,
    0,
    0,
    0,
    0,
    0,
    0,
    0,
    0,
    0,
    0,
    0,
    0,
    0,
    0,
    0,
    0,
    0,
    0,
    0,
    0,
    0,
    0,
    0,
    0,
    0,
    0,
    0,
    0,
    0,
    0,
    0,
    0,
    103,
    0,
    0,
    0,
    0,
    0,
    103,
    0,
    0,
    0,
    0,
    0,
    0,
    0,
    46,
    0,
    0,
    0,
    50,
    50,
    55,
    55,
    0,
    0,
    0,
    59,
    0,
    0,
    0,
    0,
    0,
    0,
    0,
    0,
    0,
    0,
    0,
    0,
    0,
    0,
    0,
    0,
    0,
    0,
    0,
    0,
    0,
    0,
    0,
    0,
    0,
    0,
    0,
    0,
    0,
    0,
    0,
    0,
    0,
    0,
    0,
    0,
    0,
    0,
    0,
    0,
    0,
    0,
    0,
    0,
    0,
    0,
    0,
    46,
    0,
    0,
    0,
    50,
    50,
    55,
    55,
    0,
    0,
    0,
    59,
    0,
    0,
    0,
    0,
    0,
    0,
    0,
    0,
    0,
    0,
    0,
    0,
    0,
    0,
    0,
    0,
    0,
    0,
    0,
    0,
    0,
    0,
    0,
    0,
    0,
    0,
    0,
    0,
    0,
    0,
    0,
    0,
    0,
    103,
    0,
    0,
    0,
    0,
    0,
    103,
    0,
    0,
    0,
    0,
    0,
    0,
    0,
    46,
    0,
    0,
    0,
    50,
    50,
    55,
    55,
    0,
    0,
    0,
    59,
    0,
    0,
    0,
    0,
    0,
    0,
    0,
    103,
    0,
    0,
    0,
    0,
    0,
    103,
    0,
    0,
    0,
    0,
    0,
    0,
    0,
    0,
    0,
    0,
    0,
    0,
    0,
    0,
    0,
    0,
    0,
    0,
    0,
    0,
    0,
    0,
    0,
    0,
    0,
    0,
    0,
    0,
    0,
    0,
    0,
    0,
    0,
    46,
    0,
    0,
    0,
    50,
    50,
    55,
    55,
    0,
    0,
    0,
    59,
    0,
    0,
    0,
    0,
    0,
    0,
    0,
    0,
    0,
    0,
    0,
    0,
    0,
    0,
    0,
    0,
    0,
    0,
    0,
    0,
    0,
    0,
    0,
    0,
    0,
    0,
    0,
    0,
    0,
    0,
    0,
    0,
    0,
    103,
    0,
    0,
    0,
    0,
    0,
    103,
    0,
    0,
    0,
    0,
    0,
    0,
    0,
    46,
    0,
    0,
    0,
    50,
    52,
    57,
    55,
    0,
    0,
    0,
    59,
    0,
    0,
    0,
    0,
    0,
    0,
    0,
    103,
    0,
    0,
    0,
    0,
    0,
    103,
    0,
    0,
    0,
    0,
    0,
    0,
    0,
    0,
    0,
    0,
    0,
    0,
    0,
    0,
    0,
    0,
    0,
    0,
    0,
    0,
    0,
    103,
    0,
    103,
    0,
    0,
    0,
    0,
    0,
    0,
    0,
    0,
    0,
    47,
    53,
    53,
    53,
    53,
    53,
    53,
    53,
    53,
    53,
    53,
    60,
    0,
    0,
    0,
    0,
    0,
    0,
    0,
    0,
    0,
    0,
    0,
    0,
    0,
    0,
    0,
    0,
    0,
    0,
    0,
    0,
    0,
    0,
    0,
    0,
    0,
    0,
    0,
    0,
    0,
    0,
    0,
    0,
    0,
    0,
    0,
    0,
    0,
    0,
    0,
    0,
    0,
    0,
    0,
    0,
    0,
    0,
    0,
    48,
    0,
    0,
    0,
    0,
    0,
    0,
    0,
    0,
    0,
    0,
    61,
    0,
    0,
    0,
    0,
    0,
    0,
    0,
    103,
    0,
    0,
    0,
    0,
    0,
    103,
    0,
    0,
    0,
    0,
    0,
    0,
    0,
    0,
    0,
    0,
    0,
    0,
    0,
    0,
    0,
    0,
    0,
    0,
    0,
    0,
    0,
    103,
    0,
    103,
    0,
    0,
    103,
    0,
    103,
    0,
    103,
    0,
    103,
    0,
    103,
    0,
    103,
    0,
    0,
    0,
    0,
    103,
    0,
    103,
    0,
    103,
    0,
    103,
    0,
    103,
    0,
    103,
    0,
    0,
    103,
    0,
    103,
    0,
    0,
    0,
    0,
    0,
    0,
    0,
    0,
    0,
    0,
    0,
    0,
    0,
    0,
    0,
    0,
    0,
    0,
    0,
    0,
    0,
    0,
    0,
    0,
    0,
    0,
    0,
    0,
    0,
    0,
    0,
    0,
    0,
    0,
    0,
    0,
    0,
    0,
    0,
    0,
    0,
    0,
    0,
    0,
    0,
    0,
    0,
    0,
    0,
    0,
    0,
    0,
    0,
    0,
    0,
    0,
    0,
    0,
    0,
    0,
    0,
    0,
    0,
    0,
    0,
    0,
    0,
    0,
    0,
    0,
    0,
    0,
    0,
    0,
    0,
    0,
    0,
    0,
    0,
    0,
    0,
    0,
    103,
    0,
    103,
    0,
    0,
    103,
    0,
    103,
    0,
    103,
    0,
    103,
    0,
    103,
    0,
    103,
    0,
    0,
    0,
    0,
    103,
    0,
    103,
    0,
    103,
    0,
    103,
    0,
    103,
    0,
    103,
    0,
    0,
    103,
    0,
    103,
    0,
    0,
    0,
    0,
    0,
    0,
    0,
    0,
    0,
    0,
    0,
    0,
    0,
    0,
    0,
    0,
    0,
    0,
    0,
    0,
    0,
    0,
    0,
    0,
    0,
    0,
    0,
    0,
    0,
    0,
    0,
    0,
    0,
    0,
    0,
    0,
    0,
    0,
    0,
    0,
    0,
    0,
    0,
    0,
    0,
    0,
    0,
    0,
    0,
    0,
    0,
    0,
    0,
    0,
    0,
    0,
    0,
    0,
    0,
    0,
    0,
    0,
    0,
    0,
    0,
    0,
    0,
    0,
    0,
    0,
    0,
    0,
    0,
    0,
    0,
    0,
    0,
    0,
    0,
    0,
    0,
    0,
    0,
    0,
    0,
    0,
    0,
    0,
    0,
    0,
    0,
    0,
    0,
    0,
    0,
    0,
    0,
    103,
    0,
    0,
    0,
    0,
    103,
    0,
    0,
    0,
    0,
    0,
    0,
    0,
    0,
    0,
    0,
    0,
    0,
    0,
    0,
    0,
    0,
    0,
    0,
    0,
    0,
    0,
    0,
    0,
    0,
    0,
    0,
    0,
    0,
    0,
    0,
    0,
    0,
    0,
    0,
    0,
    0,
    0,
    0,
    0,
    0,
    0,
    0,
    0,
    0,
    0,
    0,
    0,
    0,
    19,
    71,
    71,
    71,
    71,
    71,
    71,
    71,
    71,
    71,
    71,
    71,
    71,
    71,
    71,
    27,
    0,
    0,
    0,
    0,
    0,
    0,
    0,
    0,
    0,
    0,
    0,
    0,
    0,
    0,
    0,
    0,
    0,
    0,
    0,
    0,
    0,
    0,
    0,
    0,
    0,
    0,
    0,
    0,
    0,
    0,
    0,
    0,
    0,
    0,
    0,
    0,
    0,
    0,
    0,
    0,
    0,
    0,
    0,
    23,
    25,
    25,
    25,
    72,
    72,
    72,
    72,
    72,
    72,
    72,
    72,
    53,
    53,
    53,
    30,
    0,
    0,
    0,
    0,
    0,
    0,
    0,
    0,
    0,
    0,
    0,
    0,
    0,
    0,
    0,
    0,
    0,
    0,
    0,
    0,
    0,
    0,
    0,
    0,
    0,
    0,
    0,
    0,
    0,
    0,
    0,
    0,
    0,
    0,
    0,
    0,
    0,
    0,
    0,
    0,
    0,
    0,
    0,
    22,
    0,
    0,
    0,
    29,
    103,
    0,
    0,
    0,
    0,
    103,
    22,
    0,
    0,
    0,
    29,
    0,
    0,
    0,
    0,
    0,
    0,
    0,
    0,
    0,
    0,
    0,
    0,
    0,
    0,
    0,
    0,
    0,
    0,
    0,
    0,
    0,
    0,
    0,
    0,
    0,
    0,
    0,
    0,
    0,
    0,
    0,
    0,
    0,
    0,
    0,
    0,
    0,
    0,
    0,
    0,
    0,
    0,
    0,
    23,
    25,
    25,
    25,
    30,
    0,
    0,
    0,
    0,
    0,
    0,
    21,
    25,
    25,
    25,
    30,
    0,
    0,
    0,
    0,
    0,
    0,
    0,
    0,
    0,
    0,
    0,
    0,
    0,
    0,
    0,
    0,
    0,
    0,
    0,
    0,
    0,
    0,
    0,
    0,
    0,
    0,
    0,
    0,
    0,
    0,
    0,
    0,
    0,
    0,
    0,
    0,
    0,
    0,
    0,
    0,
    0,
    0,
    0,
    0,
    0,
    0,
    0,
    0,
    103,
    0,
    0,
    0,
    0,
    103,
    0,
    0,
    0,
    0,
    0,
    0,
    0,
    0,
    0,
    0,
    0,
    0,
    0,
    0,
    0,
    0,
    0,
    0,
    0,
    0,
    0,
    0,
    0,
    0,
    0,
    0,
    0,
    0,
    0,
    0,
    0,
    0,
    0,
    0,
    0,
    0,
    0,
    0,
    0,
    0,
    0,
    0,
    0,
    0,
    0,
    0,
    0,
    0,
    0,
    0,
    0,
    0,
    0,
    0,
    0,
    0,
    0,
    0,
    0,
    0,
    0,
    0,
    0,
    0,
    0,
    0,
    0,
    0,
    0,
    0,
    0,
    0,
    0,
    0,
    0,
    0,
    0,
    0,
    0,
    0,
    0,
    0,
    0,
    0,
    0,
    0,
    0,
    0,
    0,
    0,
    0,
    0,
    0,
    0,
    0,
    0,
    0,
    0,
    0,
    0,
    0,
    0,
    0,
    0,
    0,
    0,
    0,
    19,
    24,
    24,
    24,
    27,
    103,
    0,
    0,
    0,
    0,
    103,
    19,
    24,
    24,
    24,
    27,
    0,
    0,
    0,
    0,
    0,
    0,
    0,
    0,
    0,
    0,
    0,
    0,
    0,
    0,
    0,
    0,
    0,
    0,
    0,
    0,
    0,
    0,
    0,
    0,
    0,
    0,
    0,
    0,
    0,
    0,
    0,
    0,
    0,
    0,
    0,
    0,
    0,
    0,
    0,
    0,
    0,
    0,
    0,
    22,
    0,
    0,
    0,
    28,
    0,
    0,
    0,
    0,
    0,
    0,
    22,
    0,
    0,
    0,
    28,
    0,
    0,
    0,
    0,
    0,
    0,
    0,
    0,
    0,
    0,
    0,
    0,
    0,
    0,
    0,
    0,
    0,
    0,
    0,
    0,
    0,
    0,
    0,
    0,
    0,
    0,
    0,
    0,
    0,
    0,
    0,
    0,
    0,
    0,
    0,
    0,
    0,
    0,
    0,
    0,
    0,
    0,
    0,
    20,
    0,
    0,
    0,
    29,
    103,
    0,
    0,
    0,
    0,
    103,
    20,
    0,
    0,
    0,
    29,
    0,
    0,
    0,
    0,
    0,
    0,
    0,
    0,
    0,
    0,
    0,
    0,
    0,
    0,
    0,
    0,
    0,
    0,
    0,
    0,
    0,
    0,
    0,
    0,
    0,
    0,
    0,
    0,
    0,
    0,
    0,
    0,
    0,
    0,
    0,
    0,
    0,
    0,
    0,
    0,
    0,
    0,
    0,
    20,
    0,
    0,
    0,
    29,
    0,
    0,
    0,
    0,
    0,
    0,
    20,
    0,
    0,
    0,
    29,
    0,
    0,
    0,
    0,
    0,
    0,
    0,
    0,
    0,
    0,
    0,
    0,
    0,
    0,
    0,
    0,
    0,
    0,
    0,
    0,
    0,
    0,
    0,
    0,
    0,
    0,
    0,
    0,
    0,
    0,
    0,
    0,
    0,
    0,
    0,
    0,
    0,
    0,
    0,
    0,
    0,
    0,
    0,
    20,
    0,
    0,
    0,
    29,
    103,
    0,
    0,
    0,
    0,
    103,
    20,
    0,
    0,
    0,
    29,
    0,
    0,
    0,
    0,
    0,
    0,
    0,
    0,
    0,
    0,
    0,
    0,
    0,
    0,
    0,
    0,
    0,
    0,
    0,
    0,
    0,
    0,
    0,
    0,
    0,
    0,
    0,
    0,
    0,
    0,
    0,
    0,
    0,
    0,
    0,
    0,
    0,
    0,
    0,
    0,
    0,
    0,
    0,
    20,
    0,
    0,
    0,
    29,
    0,
    0,
    0,
    0,
    0,
    0,
    20,
    0,
    0,
    0,
    29,
    0,
    0,
    0,
    0,
    0,
    0,
    0,
    0,
    0,
    0,
    0,
    0,
    0,
    0,
    0,
    0,
    0,
    0,
    0,
    0,
    0,
    0,
    0,
    0,
    0,
    0,
    0,
    0,
    0,
    0,
    0,
    0,
    0,
    0,
    0,
    0,
    0,
    0,
    0,
    0,
    0,
    0,
    0,
    20,
    0,
    0,
    0,
    29,
    103,
    0,
    0,
    0,
    0,
    103,
    20,
    0,
    0,
    0,
    29,
    0,
    0,
    0,
    0,
    0,
    0,
    0,
    0,
    0,
    0,
    0,
    0,
    0,
    0,
    0,
    0,
    0,
    0,
    0,
    0,
    0,
    0,
    0,
    0,
    0,
    0,
    0,
    0,
    0,
    0,
    0,
    0,
    0,
    0,
    0,
    0,
    0,
    0,
    0,
    0,
    0,
    0,
    0,
    20,
    0,
    0,
    0,
    29,
    0,
    0,
    0,
    0,
    0,
    0,
    20,
    0,
    0,
    0,
    29,
    0,
    0,
    0,
    0,
    0,
    0,
    0,
    0,
    0,
    0,
    0,
    0,
    0,
    0,
    0,
    0,
    0,
    0,
    0,
    0,
    0,
    0,
    0,
    0,
    0,
    0,
    0,
    0,
    0,
    0,
    0,
    0,
    0,
    0,
    0,
    0,
    0,
    0,
    0,
    0,
    0,
    0,
    0,
    20,
    0,
    0,
    0,
    29,
    0,
    0,
    0,
    0,
    0,
    0,
    20,
    0,
    0,
    0,
    29,
    0,
    0,
    0,
    0,
    0,
    0,
    0,
    0,
    0,
    0,
    0,
    0,
    0,
    0,
    0,
    0,
    0,
    0,
    0,
    0,
    0,
    0,
    0,
    0,
    0,
    0,
    0,
    0,
    0,
    0,
    0,
    0,
    0,
    0,
    0,
    0,
    0,
    0,
    0,
    0,
    0,
    0,
    0,
    23,
    26,
    26,
    26,
    30,
    0,
    0,
    0,
    0,
    0,
    0,
    23,
    26,
    26,
    26,
    30,
    0,
    0,
    0,
    0,
    0,
    0,
    0,
    0,
    0,
    0,
    0,
    0,
    0,
    0,
    0,
    0,
    0,
    0,
    0,
    0,
    0,
    0,
    0,
    0,
    0,
    0,
    0,
    0,
    0,
    0,
    0,
    0,
    0,
    0,
    0,
    0,
    0,
    0,
    0,
    0,
    0,
    0,
    0,
    0,
    0,
    0,
    0,
    0,
    0,
    0,
    0,
    0,
    0,
    0,
    0,
    0,
    0,
    0,
    0,
    0,
    0,
    0,
    0,
    0,
    0,
    0,
    0,
    0,
    0,
    0,
    0,
    0,
    0,
    0,
    0,
    0,
    0,
    0,
    0,
    0,
    0,
    0,
    0,
    0,
    0,
    0,
    0,
    0,
    0,
    0,
    0,
    0,
    0,
    0,
    0,
    0,
    0,
    0,
    0,
    0,
    0,
    103,
    0,
    103,
    0,
    103,
    0,
    103,
    0,
    0,
    0,
    0,
    103,
    0,
    103,
    0,
    103,
    0,
    103,
    0,
    0,
    0,
    0,
    0,
    0,
    0,
    0,
    0,
    0,
    0,
    0,
    0,
    0,
    0,
    0,
    0,
    0,
    0,
    0,
    0,
    0,
    0,
    0,
    0,
    0,
    0,
    0,
    0,
    0,
    0,
    0,
    0,
    0,
    0,
    0,
    0,
    0,
    0,
    0,
    0,
    0,
    0,
    0,
    0,
    0,
    0,
    0,
    0,
    0,
    0,
    0,
    0,
    0,
    0,
    0,
    0,
    0,
    0,
    0,
    0,
    0,
    0,
    0,
    0,
    0,
    0,
    0,
    0,
    0,
    0,
    0,
    0,
    0,
    0,
    0,
    0,
    0,
    0,
    0,
    0,
    0,
    0,
    0,
    0,
    0,
    0,
    0,
    0,
    0,
    0,
    0,
    0,
    0,
    0,
    0,
    0,
    0,
    0,
    0,
    0,
    0,
    0,
    0,
    0,
    0,
    0,
    0,
    0,
    0,
    0,
    0,
    0,
    0,
    0,
    0,
    0,
    0,
    0,
    0,
    0,
    0,
    0,
    0,
    0,
    0,
    0,
    0,
    0,
    0,
    0,
    0,
    0,
    0,
    0,
    0,
    0,
    0,
    0,
    0,
    0,
    0,
    0,
    0,
    0,
    0,
    0,
    0,
    0,
    0,
    0,
    0,
    0,
    0,
    0,
    0,
    0,
    0,
    0,
    0,
    0,
    0,
    0,
    0,
    0,
    0,
    0,
    0,
    0,
    0,
    0,
    0,
    0,
    0,
    0,
    0,
    0,
    0,
    0,
    0,
    0,
    0,
    0,
    0,
    0,
    0,
    0,
    0,
    0,
    0,
    0,
    0,
    0,
    0,
    0,
    0,
    0,
    0,
    0,
    0,
    0,
    0,
    0,
    0,
    0,
    0,
    0,
    0,
    0,
    0,
    0,
    0,
    0,
    0,
    0,
    0,
    0,
    0,
    0,
    0,
    0,
    0,
    0,
    0,
    0,
    0,
    0,
    0,
    0,
    0,
    0,
    0,
    0,
    0,
    0,
    0,
    0,
    0,
    0,
    0,
    0,
    0,
    0,
    0,
    0,
    0,
    0,
    0,
    0,
    0,
    0,
    0,
    0,
    0,
    0,
    0,
    0,
    0,
    0,
    0,
    0,
    0,
    0,
    0,
    0,
    0,
    0,
    0,
    0,
    0,
    0,
    0,
    0,
    0,
    0,
    0,
    0,
    0,
    0,
    0,
    0,
    0,
    0,
    0,
    0,
    0,
    0,
    0,
    0,
    0,
    0,
    0,
    0,
    0,
    0,
    0,
    0,
    0,
    0,
    0,
    0,
    0,
    0,
    0,
    0,
    0,
    0,
    0,
    0,
    0,
    0,
    0,
    0,
    0,
    0,
    0,
    0,
    0,
    0,
    0,
    0,
    0,
    0,
    0,
    0,
    0,
    0,
    0,
    0,
    0,
    0,
    0,
    0,
    0,
    0,
    0,
    0,
    0,
    0,
    0,
    0,
    0,
    0,
    0,
    0,
    0,
    0,
    0,
    0,
    0,
    0,
    0,
    0,
    0,
    0,
    0,
    0,
    0,
    0,
    0,
    0,
    0,
    0,
    0,
    0,
    0,
    0,
    0,
    0,
    0,
    0,
    0,
    0,
    0,
    0,
    0,
    0,
    0,
    0,
    0,
    0,
    0,
    0,
    0,
    0,
    0,
    0,
    0,
    0,
    0,
    0,
    0,
    0,
    0,
    0,
    0,
    0,
    0,
    0,
    0,
    0,
    0,
    0,
    0,
    0,
    0,
    0,
    0,
    0,
    0,
    0,
    0,
    0,
    0,
    0,
    0,
    0,
    0,
    0,
    0,
    0,
    0,
    0,
    0,
    0,
    0,
    0,
    0,
    0,
    0,
    0,
    0,
    0,
    0,
    0,
    0,
    0,
    0,
    0,
    0,
    0,
    0,
    0,
    0,
    0,
    0,
    0,
    0,
    0,
    0,
    0,
    0,
    0,
    0,
    0,
    0,
    0,
    0,
    0,
    0,
    0,
    0,
    0,
    0,
    0,
    0,
    0,
    0,
    0,
    0,
    0,
    0,
    0,
    0,
    0,
    0,
    0,
    0,
    0,
    0,
    0,
    0,
    0,
    0,
    0,
    0,
    0,
    0,
    0,
    0,
    0,
    0,
    0,
    0,
    0,
    0,
    0,
    0,
    0,
    0,
    0,
    0,
    0,
    0,
    0,
    0,
    0,
    0,
    0,
    0,
    0,
    0,
    0,
    0,
    0,
    0,
    0,
    0,
    0,
    0,
    0,
    0,
    0,
    0,
    0,
    0,
    0,
    0,
    0,
    0,
    0,
    0,
    0,
    0,
    0,
    0,
    0,
    0,
    0,
    0,
    0,
    0,
    0,
    0,
    0,
    0,
    0,
    0,
    0,
    0,
    0,
    0,
    0
   ],
   "properties": [
    {
     "name": "gv2layer",
     "type": "string",
     "value": "Tops"
    },
    {
     "name": "z",
     "type": "int",
     "value": 7
    },
    {
     "name": "collision",
     "type": "bool",
     "value": false
    }
   ]
  },
  {
   "type": "objectgroup",
   "id": 12,
   "name": "Tops \u00b7obj",
   "x": 0,
   "y": 0,
   "opacity": 1,
   "visible": true,
   "draworder": "index",
   "objects": [
    {
     "id": 41,
     "gid": 74,
     "name": "gk1_112_0_0",
     "x": 640,
     "y": 128,
     "width": 192,
     "height": 192,
     "visible": true
    },
    {
     "id": 42,
     "gid": 142,
     "name": "gk1_33_0_0",
     "x": 704,
     "y": 1216,
     "width": 192,
     "height": 128,
     "visible": true
    },
    {
     "id": 43,
     "gid": 113,
     "name": "gk1_136_0_0",
     "x": 704,
     "y": 1984,
     "width": 192,
     "height": 192,
     "visible": true
    },
    {
     "id": 44,
     "gid": 142,
     "name": "gk1_33_0_0",
     "x": 896,
     "y": 1216,
     "width": 192,
     "height": 128,
     "visible": true
    },
    {
     "id": 45,
     "gid": 161,
     "name": "gk2_4_0_0",
     "x": 896,
     "y": 1536,
     "width": 64,
     "height": 128,
     "visible": true
    },
    {
     "id": 46,
     "gid": 142,
     "name": "gk1_33_0_0",
     "x": 1024,
     "y": 832,
     "width": 192,
     "height": 128,
     "visible": true
    },
    {
     "id": 47,
     "gid": 142,
     "name": "gk1_33_0_0",
     "x": 1024,
     "y": 512,
     "width": 192,
     "height": 128,
     "visible": true
    },
    {
     "id": 48,
     "gid": 140,
     "name": "gk1_31_0_0",
     "x": 1088,
     "y": 1216,
     "width": 192,
     "height": 128,
     "visible": true
    },
    {
     "id": 49,
     "gid": 142,
     "name": "gk1_33_0_0",
     "x": 1344,
     "y": 1216,
     "width": 192,
     "height": 128,
     "visible": true
    },
    {
     "id": 50,
     "gid": 44,
     "name": "gk1_107_0_0",
     "x": 1344,
     "y": 1792,
     "width": 192,
     "height": 64,
     "visible": true
    },
    {
     "id": 51,
     "gid": 44,
     "name": "gk1_107_0_0",
     "x": 1344,
     "y": 1856,
     "width": 192,
     "height": 64,
     "visible": true
    },
    {
     "id": 52,
     "gid": 44,
     "name": "gk1_107_0_0",
     "x": 1344,
     "y": 1920,
     "width": 192,
     "height": 64,
     "visible": true
    },
    {
     "id": 53,
     "gid": 44,
     "name": "gk1_107_0_0",
     "x": 1344,
     "y": 1984,
     "width": 192,
     "height": 64,
     "visible": true
    },
    {
     "id": 54,
     "gid": 44,
     "name": "gk1_107_0_0",
     "x": 1344,
     "y": 2048,
     "width": 192,
     "height": 64,
     "visible": true
    },
    {
     "id": 55,
     "gid": 44,
     "name": "gk1_107_0_0",
     "x": 1344,
     "y": 2112,
     "width": 192,
     "height": 64,
     "visible": true
    },
    {
     "id": 56,
     "gid": 44,
     "name": "gk1_107_0_0",
     "x": 1344,
     "y": 2176,
     "width": 192,
     "height": 64,
     "visible": true
    },
    {
     "id": 57,
     "gid": 44,
     "name": "gk1_107_0_0",
     "x": 1344,
     "y": 2240,
     "width": 192,
     "height": 64,
     "visible": true
    },
    {
     "id": 58,
     "gid": 44,
     "name": "gk1_107_0_0",
     "x": 1472,
     "y": 640,
     "width": 192,
     "height": 64,
     "visible": true
    },
    {
     "id": 59,
     "gid": 44,
     "name": "gk1_107_0_0",
     "x": 1472,
     "y": 704,
     "width": 192,
     "height": 64,
     "visible": true
    },
    {
     "id": 60,
     "gid": 44,
     "name": "gk1_107_0_0",
     "x": 1472,
     "y": 768,
     "width": 192,
     "height": 64,
     "visible": true
    },
    {
     "id": 61,
     "gid": 44,
     "name": "gk1_107_0_0",
     "x": 1472,
     "y": 832,
     "width": 192,
     "height": 64,
     "visible": true
    },
    {
     "id": 62,
     "gid": 44,
     "name": "gk1_107_0_0",
     "x": 1472,
     "y": 576,
     "width": 192,
     "height": 64,
     "visible": true
    },
    {
     "id": 63,
     "gid": 32,
     "name": "gk1_104_0_0",
     "x": 1600,
     "y": 2240,
     "width": 384,
     "height": 192,
     "visible": true
    },
    {
     "id": 64,
     "gid": 44,
     "name": "gk1_107_0_0",
     "x": 1920,
     "y": 640,
     "width": 192,
     "height": 64,
     "visible": true
    },
    {
     "id": 65,
     "gid": 44,
     "name": "gk1_107_0_0",
     "x": 1920,
     "y": 704,
     "width": 192,
     "height": 64,
     "visible": true
    },
    {
     "id": 66,
     "gid": 44,
     "name": "gk1_107_0_0",
     "x": 1920,
     "y": 768,
     "width": 192,
     "height": 64,
     "visible": true
    },
    {
     "id": 67,
     "gid": 44,
     "name": "gk1_107_0_0",
     "x": 1920,
     "y": 832,
     "width": 192,
     "height": 64,
     "visible": true
    },
    {
     "id": 68,
     "gid": 44,
     "name": "gk1_107_0_0",
     "x": 1920,
     "y": 576,
     "width": 192,
     "height": 64,
     "visible": true
    },
    {
     "id": 69,
     "gid": 140,
     "name": "gk1_31_0_0",
     "x": 2048,
     "y": 1216,
     "width": 192,
     "height": 128,
     "visible": true
    },
    {
     "id": 70,
     "gid": 44,
     "name": "gk1_107_0_0",
     "x": 2048,
     "y": 1792,
     "width": 192,
     "height": 64,
     "visible": true
    },
    {
     "id": 71,
     "gid": 44,
     "name": "gk1_107_0_0",
     "x": 2048,
     "y": 1856,
     "width": 192,
     "height": 64,
     "visible": true
    },
    {
     "id": 72,
     "gid": 44,
     "name": "gk1_107_0_0",
     "x": 2048,
     "y": 1920,
     "width": 192,
     "height": 64,
     "visible": true
    },
    {
     "id": 73,
     "gid": 44,
     "name": "gk1_107_0_0",
     "x": 2048,
     "y": 1984,
     "width": 192,
     "height": 64,
     "visible": true
    },
    {
     "id": 74,
     "gid": 44,
     "name": "gk1_107_0_0",
     "x": 2048,
     "y": 2048,
     "width": 192,
     "height": 64,
     "visible": true
    },
    {
     "id": 75,
     "gid": 44,
     "name": "gk1_107_0_0",
     "x": 2048,
     "y": 2112,
     "width": 192,
     "height": 64,
     "visible": true
    },
    {
     "id": 76,
     "gid": 44,
     "name": "gk1_107_0_0",
     "x": 2048,
     "y": 2176,
     "width": 192,
     "height": 64,
     "visible": true
    },
    {
     "id": 77,
     "gid": 44,
     "name": "gk1_107_0_0",
     "x": 2048,
     "y": 2240,
     "width": 192,
     "height": 64,
     "visible": true
    },
    {
     "id": 78,
     "gid": 162,
     "name": "gk2_5_0_0",
     "x": 2304,
     "y": 1472,
     "width": 64,
     "height": 128,
     "visible": true
    },
    {
     "id": 79,
     "gid": 142,
     "name": "gk1_33_0_0",
     "x": 2368,
     "y": 1216,
     "width": 192,
     "height": 128,
     "visible": true
    },
    {
     "id": 80,
     "gid": 113,
     "name": "gk1_136_0_0",
     "x": 2368,
     "y": 2048,
     "width": 192,
     "height": 192,
     "visible": true
    },
    {
     "id": 81,
     "gid": 142,
     "name": "gk1_33_0_0",
     "x": 2624,
     "y": 1216,
     "width": 192,
     "height": 128,
     "visible": true
    },
    {
     "id": 82,
     "gid": 112,
     "name": "gk1_135_0_0",
     "x": 2688,
     "y": 2048,
     "width": 192,
     "height": 192,
     "visible": true
    },
    {
     "id": 83,
     "gid": 100,
     "name": "gk1_117_0_0",
     "x": 2688,
     "y": 576,
     "width": 320,
     "height": 384,
     "visible": true
    },
    {
     "id": 84,
     "gid": 161,
     "name": "gk2_4_0_0",
     "x": 2880,
     "y": 1792,
     "width": 64,
     "height": 128,
     "visible": true
    },
    {
     "id": 85,
     "gid": 140,
     "name": "gk1_31_0_0",
     "x": 2944,
     "y": 1216,
     "width": 192,
     "height": 128,
     "visible": true
    },
    {
     "id": 86,
     "gid": 140,
     "name": "gk1_31_0_0",
     "x": 3008,
     "y": 1024,
     "width": 192,
     "height": 128,
     "visible": true
    },
    {
     "id": 87,
     "gid": 142,
     "name": "gk1_33_0_0",
     "x": 3072,
     "y": 832,
     "width": 192,
     "height": 128,
     "visible": true
    },
    {
     "id": 88,
     "gid": 142,
     "name": "gk1_33_0_0",
     "x": 3072,
     "y": 576,
     "width": 192,
     "height": 128,
     "visible": true
    },
    {
     "id": 89,
     "gid": 140,
     "name": "gk1_31_0_0",
     "x": 320,
     "y": 832,
     "width": 192,
     "height": 128,
     "visible": true
    },
    {
     "id": 90,
     "gid": 140,
     "name": "gk1_31_0_0",
     "x": 320,
     "y": 576,
     "width": 192,
     "height": 128,
     "visible": true
    },
    {
     "id": 91,
     "gid": 142,
     "name": "gk1_33_0_0",
     "x": 384,
     "y": 1024,
     "width": 192,
     "height": 128,
     "visible": true
    },
    {
     "id": 92,
     "gid": 114,
     "name": "gk1_137_0_0",
     "x": 384,
     "y": 2112,
     "width": 192,
     "height": 192,
     "visible": true
    },
    {
     "id": 93,
     "gid": 142,
     "name": "gk1_33_0_0",
     "x": 448,
     "y": 1216,
     "width": 192,
     "height": 128,
     "visible": true
    },
    {
     "id": 94,
     "gid": 161,
     "name": "gk2_4_0_0",
     "x": 576,
     "y": 1856,
     "width": 64,
     "height": 128,
     "visible": true
    }
   ],
   "properties": [
    {
     "name": "gv2layer",
     "type": "string",
     "value": "Tops"
    },
    {
     "name": "z",
     "type": "int",
     "value": 7
    },
    {
     "name": "collision",
     "type": "bool",
     "value": false
    }
   ]
  },
  {
   "type": "tilelayer",
   "id": 13,
   "name": "Colliders",
   "width": 59,
   "height": 48,
   "x": 0,
   "y": 0,
   "opacity": 1,
   "visible": true,
   "data": [
    163,
    163,
    163,
    163,
    163,
    163,
    163,
    163,
    163,
    163,
    163,
    163,
    163,
    163,
    163,
    163,
    163,
    163,
    163,
    163,
    163,
    163,
    163,
    163,
    163,
    163,
    163,
    163,
    163,
    163,
    163,
    163,
    163,
    163,
    163,
    163,
    163,
    163,
    163,
    163,
    163,
    163,
    163,
    163,
    163,
    163,
    163,
    163,
    163,
    163,
    163,
    163,
    163,
    163,
    163,
    163,
    163,
    163,
    163,
    0,
    0,
    0,
    0,
    0,
    0,
    0,
    0,
    0,
    0,
    0,
    0,
    0,
    0,
    0,
    0,
    0,
    0,
    0,
    0,
    0,
    0,
    0,
    0,
    0,
    0,
    0,
    0,
    0,
    0,
    0,
    0,
    0,
    0,
    0,
    0,
    0,
    0,
    0,
    0,
    0,
    0,
    0,
    0,
    0,
    0,
    0,
    0,
    0,
    0,
    0,
    0,
    0,
    0,
    0,
    0,
    0,
    0,
    0,
    0,
    0,
    0,
    0,
    0,
    0,
    0,
    0,
    0,
    0,
    0,
    0,
    0,
    0,
    0,
    0,
    0,
    0,
    0,
    0,
    0,
    0,
    0,
    0,
    0,
    0,
    0,
    0,
    0,
    0,
    0,
    0,
    0,
    0,
    0,
    0,
    0,
    0,
    0,
    0,
    0,
    0,
    0,
    0,
    0,
    0,
    0,
    0,
    0,
    0,
    0,
    0,
    0,
    0,
    0,
    0,
    0,
    0,
    0,
    0,
    0,
    0,
    0,
    0,
    0,
    0,
    0,
    0,
    0,
    163,
    163,
    163,
    0,
    0,
    0,
    0,
    0,
    0,
    0,
    0,
    0,
    0,
    0,
    0,
    0,
    0,
    0,
    0,
    0,
    0,
    0,
    0,
    0,
    0,
    0,
    0,
    0,
    0,
    0,
    0,
    0,
    0,
    0,
    0,
    0,
    0,
    0,
    0,
    0,
    0,
    0,
    0,
    0,
    0,
    0,
    0,
    0,
    0,
    0,
    0,
    0,
    0,
    0,
    0,
    0,
    0,
    0,
    0,
    163,
    163,
    163,
    0,
    0,
    0,
    0,
    0,
    0,
    0,
    0,
    0,
    0,
    0,
    0,
    0,
    0,
    0,
    0,
    0,
    0,
    0,
    0,
    0,
    0,
    0,
    0,
    0,
    0,
    0,
    0,
    0,
    0,
    0,
    0,
    0,
    0,
    0,
    0,
    0,
    0,
    0,
    0,
    0,
    0,
    0,
    0,
    0,
    0,
    0,
    0,
    0,
    0,
    0,
    0,
    0,
    0,
    0,
    0,
    163,
    163,
    163,
    0,
    0,
    0,
    0,
    0,
    0,
    0,
    0,
    0,
    0,
    0,
    0,
    0,
    0,
    0,
    0,
    0,
    0,
    0,
    0,
    0,
    0,
    0,
    0,
    0,
    0,
    0,
    0,
    0,
    0,
    0,
    0,
    0,
    0,
    0,
    0,
    0,
    0,
    0,
    0,
    0,
    0,
    0,
    0,
    0,
    0,
    0,
    0,
    0,
    0,
    0,
    0,
    0,
    0,
    0,
    0,
    163,
    163,
    163,
    0,
    0,
    0,
    0,
    0,
    0,
    0,
    0,
    0,
    0,
    0,
    0,
    0,
    0,
    0,
    0,
    0,
    0,
    0,
    0,
    0,
    0,
    0,
    0,
    0,
    0,
    0,
    0,
    0,
    0,
    0,
    0,
    0,
    0,
    0,
    0,
    0,
    0,
    0,
    0,
    0,
    0,
    0,
    0,
    0,
    0,
    0,
    0,
    0,
    0,
    0,
    0,
    0,
    0,
    0,
    0,
    163,
    163,
    163,
    0,
    0,
    0,
    0,
    0,
    0,
    0,
    0,
    0,
    0,
    0,
    0,
    0,
    0,
    0,
    0,
    0,
    0,
    0,
    0,
    0,
    0,
    0,
    0,
    0,
    0,
    0,
    0,
    0,
    0,
    0,
    0,
    0,
    0,
    0,
    0,
    0,
    0,
    0,
    0,
    0,
    0,
    0,
    0,
    0,
    0,
    0,
    0,
    0,
    0,
    0,
    0,
    0,
    0,
    0,
    0,
    163,
    163,
    163,
    0,
    0,
    0,
    0,
    0,
    0,
    0,
    0,
    0,
    0,
    163,
    163,
    163,
    0,
    0,
    0,
    0,
    163,
    163,
    163,
    0,
    0,
    0,
    0,
    0,
    0,
    0,
    0,
    0,
    0,
    0,
    0,
    0,
    0,
    0,
    0,
    0,
    0,
    0,
    0,
    0,
    0,
    0,
    0,
    0,
    0,
    0,
    0,
    0,
    0,
    0,
    0,
    0,
    0,
    0,
    163,
    163,
    163,
    163,
    163,
    0,
    0,
    0,
    0,
    0,
    0,
    0,
    0,
    0,
    0,
    0,
    0,
    0,
    0,
    0,
    0,
    0,
    0,
    0,
    0,
    0,
    163,
    163,
    163,
    163,
    163,
    0,
    0,
    0,
    0,
    0,
    0,
    0,
    0,
    0,
    0,
    0,
    0,
    0,
    0,
    0,
    0,
    0,
    0,
    0,
    0,
    0,
    0,
    0,
    0,
    0,
    0,
    0,
    163,
    0,
    163,
    163,
    163,
    0,
    163,
    0,
    0,
    163,
    0,
    0,
    0,
    0,
    0,
    0,
    0,
    0,
    0,
    0,
    0,
    0,
    0,
    0,
    0,
    0,
    0,
    163,
    163,
    0,
    163,
    163,
    0,
    0,
    0,
    0,
    0,
    0,
    0,
    0,
    0,
    0,
    0,
    0,
    0,
    0,
    0,
    0,
    0,
    0,
    0,
    0,
    0,
    0,
    0,
    0,
    0,
    163,
    0,
    0,
    0,
    163,
    163,
    163,
    0,
    0,
    0,
    0,
    163,
    163,
    163,
    0,
    0,
    0,
    0,
    0,
    0,
    0,
    0,
    0,
    0,
    0,
    0,
    0,
    0,
    0,
    163,
    0,
    163,
    0,
    163,
    0,
    0,
    0,
    163,
    163,
    163,
    0,
    0,
    0,
    163,
    0,
    0,
    0,
    0,
    0,
    0,
    0,
    0,
    0,
    0,
    0,
    0,
    0,
    0,
    0,
    0,
    0,
    163,
    0,
    163,
    163,
    163,
    0,
    163,
    0,
    0,
    163,
    163,
    163,
    0,
    0,
    0,
    0,
    0,
    0,
    0,
    0,
    0,
    0,
    0,
    0,
    0,
    0,
    0,
    163,
    163,
    0,
    163,
    163,
    0,
    163,
    0,
    163,
    163,
    163,
    0,
    163,
    0,
    0,
    0,
    0,
    0,
    0,
    0,
    0,
    0,
    0,
    0,
    0,
    0,
    0,
    0,
    0,
    0,
    0,
    0,
    0,
    0,
    0,
    0,
    0,
    0,
    0,
    0,
    0,
    163,
    163,
    163,
    0,
    0,
    0,
    0,
    0,
    0,
    0,
    0,
    0,
    0,
    0,
    0,
    0,
    0,
    0,
    163,
    0,
    163,
    0,
    163,
    0,
    0,
    0,
    163,
    163,
    163,
    0,
    0,
    0,
    0,
    0,
    0,
    0,
    0,
    0,
    0,
    0,
    0,
    0,
    0,
    0,
    0,
    0,
    0,
    0,
    0,
    0,
    163,
    0,
    0,
    0,
    0,
    0,
    163,
    0,
    0,
    0,
    0,
    0,
    0,
    0,
    0,
    0,
    0,
    0,
    0,
    0,
    0,
    0,
    0,
    0,
    0,
    0,
    0,
    163,
    163,
    0,
    163,
    163,
    0,
    163,
    0,
    163,
    0,
    163,
    0,
    163,
    0,
    0,
    0,
    0,
    0,
    0,
    0,
    0,
    0,
    0,
    0,
    0,
    0,
    0,
    0,
    0,
    0,
    163,
    0,
    0,
    0,
    163,
    0,
    163,
    0,
    0,
    0,
    0,
    163,
    0,
    0,
    0,
    0,
    0,
    163,
    163,
    163,
    163,
    0,
    0,
    163,
    163,
    163,
    163,
    0,
    0,
    163,
    163,
    163,
    163,
    163,
    0,
    0,
    0,
    163,
    0,
    163,
    0,
    0,
    0,
    163,
    0,
    0,
    0,
    0,
    0,
    0,
    0,
    0,
    0,
    0,
    0,
    0,
    0,
    0,
    0,
    0,
    0,
    0,
    0,
    0,
    0,
    0,
    0,
    0,
    0,
    0,
    0,
    0,
    0,
    0,
    0,
    0,
    0,
    0,
    0,
    0,
    0,
    0,
    0,
    0,
    0,
    0,
    0,
    0,
    0,
    0,
    0,
    0,
    0,
    0,
    163,
    0,
    0,
    0,
    0,
    0,
    163,
    0,
    0,
    0,
    0,
    0,
    0,
    0,
    0,
    0,
    0,
    0,
    0,
    0,
    0,
    0,
    0,
    0,
    0,
    0,
    0,
    0,
    163,
    0,
    163,
    0,
    0,
    163,
    0,
    163,
    0,
    163,
    0,
    163,
    0,
    163,
    0,
    163,
    0,
    0,
    0,
    0,
    163,
    0,
    163,
    0,
    163,
    0,
    163,
    0,
    163,
    0,
    163,
    0,
    0,
    163,
    0,
    163,
    0,
    0,
    0,
    0,
    0,
    0,
    0,
    0,
    0,
    0,
    0,
    0,
    0,
    0,
    0,
    0,
    0,
    0,
    0,
    0,
    163,
    0,
    0,
    0,
    0,
    0,
    0,
    0,
    0,
    0,
    0,
    0,
    0,
    0,
    0,
    0,
    0,
    0,
    0,
    0,
    0,
    0,
    0,
    0,
    0,
    0,
    0,
    0,
    0,
    0,
    0,
    0,
    0,
    0,
    0,
    0,
    0,
    0,
    0,
    0,
    0,
    163,
    0,
    0,
    0,
    0,
    0,
    0,
    0,
    0,
    0,
    0,
    0,
    0,
    0,
    0,
    0,
    0,
    0,
    0,
    0,
    0,
    163,
    0,
    163,
    0,
    0,
    163,
    0,
    163,
    0,
    163,
    0,
    163,
    0,
    163,
    0,
    163,
    0,
    0,
    0,
    0,
    163,
    0,
    163,
    0,
    163,
    0,
    163,
    0,
    163,
    0,
    163,
    0,
    0,
    163,
    0,
    163,
    0,
    0,
    0,
    0,
    0,
    0,
    0,
    0,
    0,
    0,
    0,
    0,
    0,
    0,
    0,
    0,
    0,
    0,
    0,
    0,
    0,
    0,
    0,
    0,
    0,
    0,
    0,
    0,
    0,
    0,
    0,
    0,
    0,
    0,
    0,
    0,
    0,
    0,
    0,
    0,
    0,
    0,
    0,
    0,
    0,
    0,
    0,
    0,
    0,
    0,
    163,
    163,
    163,
    0,
    0,
    0,
    0,
    0,
    0,
    0,
    0,
    0,
    0,
    0,
    0,
    0,
    0,
    0,
    0,
    0,
    0,
    0,
    0,
    0,
    0,
    0,
    0,
    0,
    0,
    0,
    163,
    0,
    0,
    163,
    163,
    163,
    0,
    163,
    0,
    0,
    163,
    0,
    163,
    163,
    163,
    163,
    163,
    163,
    0,
    0,
    0,
    0,
    163,
    163,
    163,
    163,
    163,
    163,
    0,
    163,
    163,
    163,
    0,
    0,
    163,
    0,
    0,
    0,
    0,
    163,
    0,
    0,
    0,
    0,
    0,
    0,
    0,
    0,
    0,
    0,
    0,
    0,
    0,
    0,
    0,
    0,
    0,
    0,
    0,
    0,
    0,
    0,
    163,
    163,
    163,
    0,
    0,
    0,
    0,
    0,
    0,
    163,
    163,
    163,
    163,
    163,
    163,
    0,
    0,
    0,
    0,
    163,
    163,
    0,
    0,
    0,
    163,
    0,
    163,
    163,
    163,
    0,
    0,
    0,
    0,
    0,
    0,
    0,
    0,
    0,
    0,
    0,
    0,
    0,
    0,
    0,
    0,
    0,
    0,
    0,
    0,
    0,
    0,
    0,
    0,
    0,
    0,
    0,
    0,
    0,
    0,
    163,
    163,
    163,
    0,
    0,
    0,
    0,
    0,
    0,
    163,
    163,
    163,
    163,
    163,
    0,
    0,
    0,
    0,
    0,
    0,
    163,
    163,
    163,
    163,
    163,
    0,
    163,
    163,
    163,
    0,
    0,
    0,
    0,
    0,
    0,
    0,
    0,
    0,
    0,
    0,
    0,
    0,
    0,
    0,
    0,
    0,
    0,
    0,
    0,
    0,
    0,
    0,
    0,
    0,
    0,
    0,
    0,
    0,
    0,
    163,
    163,
    163,
    0,
    0,
    0,
    0,
    0,
    0,
    163,
    163,
    163,
    163,
    163,
    163,
    0,
    0,
    0,
    0,
    163,
    163,
    163,
    163,
    163,
    163,
    163,
    0,
    0,
    0,
    0,
    0,
    0,
    0,
    0,
    0,
    0,
    0,
    0,
    0,
    0,
    0,
    0,
    0,
    0,
    0,
    0,
    0,
    0,
    0,
    0,
    0,
    0,
    0,
    0,
    0,
    0,
    0,
    0,
    0,
    0,
    0,
    0,
    163,
    0,
    0,
    0,
    0,
    0,
    0,
    163,
    163,
    163,
    0,
    0,
    0,
    0,
    0,
    0,
    0,
    0,
    163,
    163,
    163,
    0,
    0,
    0,
    0,
    0,
    0,
    0,
    163,
    163,
    163,
    0,
    0,
    0,
    0,
    0,
    0,
    0,
    0,
    0,
    0,
    0,
    0,
    0,
    0,
    0,
    0,
    0,
    0,
    0,
    0,
    163,
    163,
    163,
    0,
    0,
    0,
    0,
    0,
    0,
    0,
    0,
    0,
    0,
    0,
    0,
    0,
    0,
    0,
    0,
    163,
    0,
    0,
    0,
    0,
    163,
    0,
    0,
    0,
    0,
    0,
    0,
    0,
    0,
    0,
    0,
    0,
    163,
    163,
    163,
    0,
    0,
    0,
    0,
    0,
    0,
    0,
    0,
    0,
    0,
    0,
    0,
    0,
    0,
    0,
    0,
    0,
    0,
    0,
    0,
    163,
    163,
    163,
    0,
    0,
    0,
    0,
    0,
    0,
    0,
    0,
    0,
    0,
    0,
    163,
    163,
    163,
    163,
    163,
    0,
    0,
    0,
    0,
    0,
    0,
    163,
    163,
    163,
    163,
    163,
    0,
    0,
    0,
    0,
    0,
    0,
    163,
    163,
    163,
    0,
    0,
    0,
    0,
    0,
    0,
    0,
    0,
    0,
    0,
    0,
    0,
    0,
    0,
    0,
    0,
    0,
    0,
    0,
    0,
    163,
    163,
    163,
    0,
    0,
    0,
    0,
    0,
    0,
    0,
    0,
    0,
    0,
    0,
    163,
    0,
    0,
    0,
    163,
    163,
    0,
    0,
    0,
    0,
    163,
    163,
    0,
    0,
    0,
    163,
    0,
    0,
    0,
    0,
    0,
    0,
    163,
    163,
    163,
    0,
    0,
    0,
    0,
    0,
    0,
    0,
    0,
    0,
    0,
    0,
    0,
    0,
    0,
    0,
    0,
    0,
    0,
    0,
    0,
    163,
    163,
    163,
    0,
    0,
    0,
    0,
    0,
    0,
    0,
    0,
    0,
    0,
    0,
    163,
    0,
    0,
    0,
    163,
    0,
    0,
    0,
    0,
    0,
    0,
    163,
    0,
    0,
    0,
    163,
    0,
    0,
    0,
    0,
    0,
    0,
    0,
    0,
    0,
    163,
    0,
    0,
    0,
    0,
    0,
    0,
    0,
    0,
    0,
    0,
    0,
    0,
    0,
    0,
    0,
    0,
    0,
    0,
    0,
    0,
    0,
    0,
    163,
    0,
    0,
    0,
    0,
    0,
    0,
    0,
    0,
    0,
    0,
    163,
    0,
    0,
    0,
    163,
    163,
    0,
    0,
    0,
    0,
    163,
    163,
    0,
    0,
    0,
    163,
    0,
    0,
    0,
    0,
    0,
    0,
    0,
    0,
    0,
    0,
    0,
    0,
    0,
    0,
    0,
    0,
    0,
    0,
    0,
    0,
    0,
    0,
    0,
    0,
    0,
    0,
    0,
    0,
    0,
    0,
    0,
    0,
    0,
    0,
    0,
    0,
    0,
    0,
    0,
    163,
    163,
    163,
    0,
    163,
    0,
    0,
    0,
    163,
    0,
    0,
    0,
    0,
    0,
    0,
    163,
    0,
    0,
    0,
    163,
    0,
    0,
    0,
    0,
    0,
    0,
    0,
    0,
    0,
    0,
    0,
    163,
    163,
    163,
    0,
    0,
    0,
    0,
    0,
    0,
    0,
    0,
    0,
    0,
    0,
    0,
    0,
    0,
    0,
    0,
    0,
    0,
    0,
    0,
    163,
    163,
    163,
    0,
    0,
    163,
    163,
    163,
    0,
    163,
    0,
    0,
    0,
    163,
    163,
    0,
    0,
    0,
    0,
    163,
    163,
    0,
    0,
    0,
    163,
    0,
    0,
    0,
    0,
    0,
    0,
    0,
    0,
    0,
    0,
    0,
    163,
    163,
    163,
    0,
    0,
    0,
    0,
    0,
    0,
    0,
    0,
    0,
    0,
    0,
    0,
    0,
    0,
    0,
    0,
    0,
    0,
    0,
    0,
    163,
    163,
    163,
    0,
    0,
    163,
    163,
    163,
    0,
    163,
    0,
    0,
    0,
    163,
    0,
    0,
    0,
    0,
    0,
    0,
    163,
    0,
    0,
    0,
    163,
    0,
    163,
    163,
    163,
    0,
    0,
    163,
    163,
    163,
    0,
    0,
    163,
    163,
    163,
    0,
    0,
    0,
    0,
    0,
    0,
    0,
    0,
    0,
    0,
    0,
    0,
    0,
    0,
    0,
    163,
    163,
    163,
    0,
    0,
    163,
    163,
    163,
    0,
    0,
    163,
    163,
    163,
    0,
    163,
    0,
    0,
    0,
    163,
    163,
    0,
    0,
    0,
    0,
    163,
    163,
    0,
    0,
    0,
    163,
    0,
    163,
    163,
    163,
    0,
    0,
    163,
    163,
    163,
    0,
    0,
    163,
    163,
    163,
    0,
    0,
    0,
    0,
    0,
    0,
    0,
    0,
    0,
    0,
    0,
    0,
    0,
    0,
    0,
    163,
    163,
    163,
    0,
    0,
    163,
    163,
    163,
    0,
    0,
    0,
    0,
    0,
    0,
    163,
    0,
    0,
    0,
    163,
    0,
    0,
    0,
    0,
    0,
    0,
    163,
    0,
    0,
    0,
    163,
    0,
    163,
    163,
    163,
    0,
    0,
    163,
    163,
    163,
    0,
    0,
    0,
    0,
    0,
    0,
    0,
    0,
    0,
    0,
    0,
    0,
    0,
    0,
    0,
    0,
    0,
    0,
    0,
    0,
    163,
    163,
    163,
    0,
    0,
    163,
    163,
    163,
    0,
    0,
    0,
    0,
    0,
    0,
    163,
    163,
    163,
    163,
    163,
    0,
    0,
    0,
    0,
    0,
    0,
    163,
    163,
    163,
    163,
    163,
    0,
    163,
    163,
    163,
    0,
    0,
    163,
    163,
    163,
    0,
    0,
    0,
    0,
    0,
    0,
    0,
    0,
    0,
    0,
    0,
    0,
    0,
    0,
    0,
    0,
    0,
    0,
    0,
    0,
    163,
    163,
    163,
    0,
    0,
    163,
    163,
    163,
    0,
    0,
    0,
    0,
    0,
    0,
    0,
    163,
    163,
    163,
    0,
    0,
    0,
    0,
    0,
    0,
    0,
    0,
    163,
    163,
    163,
    0,
    0,
    163,
    163,
    163,
    0,
    0,
    163,
    163,
    163,
    0,
    0,
    0,
    0,
    0,
    0,
    0,
    0,
    0,
    0,
    0,
    0,
    0,
    0,
    0,
    0,
    0,
    0,
    0,
    0,
    0,
    0,
    0,
    0,
    0,
    0,
    0,
    0,
    0,
    0,
    0,
    0,
    0,
    0,
    0,
    0,
    0,
    0,
    0,
    0,
    0,
    0,
    0,
    0,
    0,
    0,
    0,
    0,
    0,
    0,
    0,
    0,
    0,
    0,
    0,
    0,
    0,
    0,
    0,
    0,
    0,
    0,
    0,
    0,
    0,
    0,
    0,
    0,
    0,
    0,
    0,
    0,
    0,
    0,
    0,
    0,
    0,
    0,
    0,
    0,
    0,
    0,
    0,
    0,
    0,
    0,
    0,
    0,
    0,
    0,
    0,
    0,
    163,
    0,
    163,
    0,
    163,
    0,
    163,
    163,
    0,
    0,
    163,
    163,
    0,
    163,
    0,
    163,
    0,
    163,
    0,
    0,
    0,
    0,
    0,
    0,
    0,
    0,
    0,
    0,
    0,
    0,
    0,
    0,
    163,
    0,
    0,
    0,
    0,
    0,
    0,
    0,
    0,
    0,
    0,
    0,
    0,
    0,
    0,
    0,
    0,
    0,
    0,
    0,
    0,
    0,
    0,
    0,
    0,
    0,
    0,
    0,
    0,
    0,
    0,
    0,
    0,
    0,
    0,
    0,
    0,
    0,
    0,
    0,
    0,
    0,
    0,
    0,
    0,
    0,
    0,
    0,
    0,
    0,
    0,
    0,
    0,
    0,
    0,
    0,
    0,
    0,
    0,
    0,
    0,
    0,
    0,
    0,
    0,
    0,
    0,
    0,
    0,
    0,
    0,
    0,
    0,
    0,
    0,
    0,
    0,
    0,
    0,
    0,
    0,
    0,
    0,
    0,
    0,
    0,
    0,
    0,
    0,
    0,
    0,
    0,
    0,
    0,
    0,
    0,
    0,
    0,
    0,
    0,
    0,
    0,
    0,
    0,
    0,
    0,
    0,
    0,
    0,
    0,
    0,
    0,
    0,
    0,
    0,
    0,
    0,
    0,
    0,
    0,
    0,
    0,
    0,
    0,
    0,
    0,
    0,
    0,
    0,
    0,
    0,
    0,
    0,
    0,
    0,
    0,
    0,
    0,
    0,
    0,
    0,
    0,
    0,
    0,
    0,
    0,
    0,
    0,
    0,
    0,
    0,
    0,
    0,
    0,
    0,
    0,
    0,
    0,
    0,
    0,
    0,
    0,
    0,
    0,
    0,
    0,
    0,
    0,
    0,
    0,
    0,
    0,
    0,
    0,
    0,
    0,
    0,
    0,
    0,
    0,
    0,
    0,
    0,
    0,
    0,
    0,
    0,
    0,
    0,
    0,
    0,
    0,
    0,
    0,
    0,
    0,
    0,
    0,
    0,
    0,
    0,
    0,
    0,
    0,
    0,
    0,
    0,
    0,
    0,
    0,
    0,
    0,
    0,
    0,
    0,
    0,
    0,
    0,
    0,
    0,
    0,
    0,
    0,
    0,
    0,
    0,
    0,
    0,
    0,
    0,
    0,
    0,
    0,
    0,
    0,
    0,
    0,
    0,
    0,
    0,
    0,
    0,
    0,
    0,
    0,
    0,
    0,
    0,
    0,
    0,
    0,
    0,
    0,
    0,
    0,
    0,
    0,
    0,
    0,
    0,
    0,
    0,
    0,
    0,
    0,
    0,
    0,
    0,
    0,
    0,
    0,
    0,
    0,
    0,
    0,
    0,
    0,
    0,
    0,
    0,
    0,
    0,
    0,
    0,
    0,
    0,
    0,
    0,
    0,
    0,
    0,
    0,
    0,
    0,
    0,
    0,
    0,
    0,
    0,
    0,
    0,
    0,
    0,
    0,
    0,
    0,
    0,
    0,
    0,
    0,
    0,
    0,
    0,
    0,
    0,
    0,
    0,
    0,
    0,
    0,
    0,
    0,
    0,
    0,
    0,
    0,
    0,
    0,
    0,
    0,
    0,
    0,
    0,
    0,
    0,
    0,
    0,
    0,
    0,
    0,
    0,
    0,
    0,
    0,
    0,
    0,
    0,
    0,
    0,
    0,
    0,
    0,
    0,
    0,
    0,
    0,
    0,
    0,
    0,
    0,
    0,
    0,
    0,
    0,
    0,
    0,
    0,
    0,
    0,
    0,
    0,
    0,
    0,
    0,
    0,
    0,
    0,
    0,
    0,
    0,
    0,
    0,
    0,
    0,
    0,
    0,
    0,
    0,
    0,
    0,
    0,
    0,
    0,
    0,
    0,
    0,
    0,
    0,
    0,
    0,
    0,
    0,
    0,
    0,
    0,
    0,
    0,
    0,
    0,
    0,
    0,
    0,
    0,
    0,
    0,
    0,
    0,
    0,
    0,
    0,
    0,
    0,
    0,
    0,
    0,
    0,
    0,
    0,
    0,
    0,
    0,
    0,
    0,
    0,
    0,
    0,
    0,
    0,
    0,
    0,
    0,
    0,
    0,
    0,
    0,
    0,
    0,
    0,
    0,
    0,
    0,
    0,
    0,
    0,
    0,
    0,
    0,
    0,
    0,
    0,
    0,
    0,
    0,
    0,
    0,
    0,
    0,
    0,
    0,
    0,
    0,
    0,
    0,
    0,
    0,
    0,
    0,
    0,
    0,
    0
   ],
   "properties": [
    {
     "name": "gv2layer",
     "type": "string",
     "value": "Colliders"
    },
    {
     "name": "z",
     "type": "int",
     "value": 5
    },
    {
     "name": "collision",
     "type": "bool",
     "value": true
    }
   ]
  },
  {
   "type": "objectgroup",
   "id": 14,
   "name": "Meta",
   "x": 0,
   "y": 0,
   "opacity": 1,
   "visible": true,
   "draworder": "index",
   "objects": [
    {
     "id": 95,
     "name": "transporter",
     "point": true,
     "x": 1888.0,
     "y": 2976.0,
     "width": 0,
     "height": 0,
     "visible": true,
     "properties": [
      {
       "name": "kind",
       "type": "string",
       "value": "transporter"
      },
      {
       "name": "targetRoom",
       "type": "string",
       "value": "Tokyo"
      },
      {
       "name": "targetX",
       "type": "int",
       "value": 30
      },
      {
       "name": "targetY",
       "type": "int",
       "value": 21
      },
      {
       "name": "hidden",
       "type": "bool",
       "value": false
      }
     ]
    },
    {
     "id": 96,
     "name": "transporter",
     "point": true,
     "x": 1760.0,
     "y": 992.0,
     "width": 0,
     "height": 0,
     "visible": true,
     "properties": [
      {
       "name": "kind",
       "type": "string",
       "value": "transporter"
      },
      {
       "name": "targetRoom",
       "type": "string",
       "value": "Park"
      },
      {
       "name": "targetX",
       "type": "int",
       "value": 28
      },
      {
       "name": "targetY",
       "type": "int",
       "value": 3
      },
      {
       "name": "hidden",
       "type": "bool",
       "value": true
      }
     ]
    },
    {
     "id": 97,
     "name": "transporter",
     "point": true,
     "x": 1824.0,
     "y": 992.0,
     "width": 0,
     "height": 0,
     "visible": true,
     "properties": [
      {
       "name": "kind",
       "type": "string",
       "value": "transporter"
      },
      {
       "name": "targetRoom",
       "type": "string",
       "value": "Park"
      },
      {
       "name": "targetX",
       "type": "int",
       "value": 28
      },
      {
       "name": "targetY",
       "type": "int",
       "value": 3
      },
      {
       "name": "hidden",
       "type": "bool",
       "value": true
      }
     ]
    },
    {
     "id": 98,
     "name": "boundary",
     "x": 0,
     "y": 0,
     "polygon": [
      {
       "x": 0,
       "y": 0
      },
      {
       "x": 3776,
       "y": 0
      },
      {
       "x": 3776,
       "y": 3072
      },
      {
       "x": 0,
       "y": 3072
      }
     ],
     "width": 0,
     "height": 0,
     "visible": true,
     "properties": [
      {
       "name": "kind",
       "type": "string",
       "value": "boundary"
      }
     ]
    }
   ],
   "properties": [
    {
     "name": "gv2meta",
     "type": "bool",
     "value": true
    }
   ]
  }
 ]
}