{
 "type": "map",
 "version": "1.10",
 "tiledversion": "1.11.0",
 "orientation": "orthogonal",
 "renderorder": "right-down",
 "width": 59,
 "height": 44,
 "tilewidth": 64,
 "tileheight": 64,
 "infinite": false,
 "nextlayerid": 9,
 "nextobjectid": 71,
 "properties": [
  {
   "name": "gv2room",
   "type": "string",
   "value": "Park"
  },
  {
   "name": "gv2worldWidth",
   "type": "int",
   "value": 3776
  },
  {
   "name": "gv2worldHeight",
   "type": "int",
   "value": 2816
  }
 ],
 "tilesets": [
  {
   "firstgid": 1,
   "name": "gamev2",
   "tilewidth": 64,
   "tileheight": 64,
   "tilecount": 81,
   "columns": 0,
   "objectalignment": "topleft",
   "grid": {
    "orientation": "orthogonal",
    "width": 64,
    "height": 64
   },
   "tiles": [
    {
     "id": 0,
     "image": "../assets/sprites/bell-closed-red-baseless_0_0.png",
     "imagewidth": 128,
     "imageheight": 128
    },
    {
     "id": 1,
     "image": "../assets/sprites/bell-red-top_0_0.png",
     "imagewidth": 128,
     "imageheight": 128
    },
    {
     "id": 2,
     "image": "../assets/sprites/building-entrance-2_0_0.png",
     "imagewidth": 192,
     "imageheight": 64
    },
    {
     "id": 3,
     "image": "../assets/sprites/dirt-outside-autotile_center.png",
     "imagewidth": 64,
     "imageheight": 64
    },
    {
     "id": 4,
     "image": "../assets/sprites/dirt-outside-autotile_corner-ne.png",
     "imagewidth": 64,
     "imageheight": 64
    },
    {
     "id": 5,
     "image": "../assets/sprites/dirt-outside-autotile_corner-nw.png",
     "imagewidth": 64,
     "imageheight": 64
    },
    {
     "id": 6,
     "image": "../assets/sprites/dirt-outside-autotile_corner-se.png",
     "imagewidth": 64,
     "imageheight": 64
    },
    {
     "id": 7,
     "image": "../assets/sprites/dirt-outside-autotile_corner-sw.png",
     "imagewidth": 64,
     "imageheight": 64
    },
    {
     "id": 8,
     "image": "../assets/sprites/dirt-outside-autotile_edge-e.png",
     "imagewidth": 64,
     "imageheight": 64
    },
    {
     "id": 9,
     "image": "../assets/sprites/dirt-outside-autotile_edge-n.png",
     "imagewidth": 64,
     "imageheight": 64
    },
    {
     "id": 10,
     "image": "../assets/sprites/dirt-outside-autotile_edge-s.png",
     "imagewidth": 64,
     "imageheight": 64
    },
    {
     "id": 11,
     "image": "../assets/sprites/dirt-outside-autotile_edge-w.png",
     "imagewidth": 64,
     "imageheight": 64
    },
    {
     "id": 12,
     "image": "../assets/sprites/fence-barriers_1_2.png",
     "imagewidth": 64,
     "imageheight": 64
    },
    {
     "id": 13,
     "image": "../assets/sprites/flat-grey-brick-autotile_center.png",
     "imagewidth": 64,
     "imageheight": 64
    },
    {
     "id": 14,
     "image": "../assets/sprites/flat-grey-brick-autotile_corner-ne.png",
     "imagewidth": 64,
     "imageheight": 64
    },
    {
     "id": 15,
     "image": "../assets/sprites/flat-grey-brick-autotile_corner-nw.png",
     "imagewidth": 64,
     "imageheight": 64
    },
    {
     "id": 16,
     "image": "../assets/sprites/flat-grey-brick-autotile_corner-se.png",
     "imagewidth": 64,
     "imageheight": 64
    },
    {
     "id": 17,
     "image": "../assets/sprites/flat-grey-brick-autotile_corner-sw.png",
     "imagewidth": 64,
     "imageheight": 64
    },
    {
     "id": 18,
     "image": "../assets/sprites/flat-grey-brick-autotile_edge-e.png",
     "imagewidth": 64,
     "imageheight": 64
    },
    {
     "id": 19,
     "image": "../assets/sprites/flat-grey-brick-autotile_edge-n.png",
     "imagewidth": 64,
     "imageheight": 64
    },
    {
     "id": 20,
     "image": "../assets/sprites/flat-grey-brick-autotile_edge-s.png",
     "imagewidth": 64,
     "imageheight": 64
    },
    {
     "id": 21,
     "image": "../assets/sprites/flat-grey-brick-autotile_edge-w.png",
     "imagewidth": 64,
     "imageheight": 64
    },
    {
     "id": 22,
     "image": "../assets/sprites/collider-marker.png",
     "imagewidth": 64,
     "imageheight": 64
    },
    {
     "id": 23,
     "image": "../assets/sprites/gravel-autotile_center.png",
     "imagewidth": 64,
     "imageheight": 64
    },
    {
     "id": 24,
     "image": "../assets/sprites/gravel-autotile_corner-ne.png",
     "imagewidth": 64,
     "imageheight": 64
    },
    {
     "id": 25,
     "image": "../assets/sprites/gravel-autotile_corner-nw.png",
     "imagewidth": 64,
     "imageheight": 64
    },
    {
     "id": 26,
     "image": "../assets/sprites/gravel-autotile_corner-se.png",
     "imagewidth": 64,
     "imageheight": 64
    },
    {
     "id": 27,
     "image": "../assets/sprites/gravel-autotile_corner-sw.png",
     "imagewidth": 64,
     "imageheight": 64
    },
    {
     "id": 28,
     "image": "../assets/sprites/gravel-autotile_edge-e.png",
     "imagewidth": 64,
     "imageheight": 64
    },
    {
     "id": 29,
     "image": "../assets/sprites/gravel-autotile_edge-n.png",
     "imagewidth": 64,
     "imageheight": 64
    },
    {
     "id": 30,
     "image": "../assets/sprites/gravel-autotile_edge-s.png",
     "imagewidth": 64,
     "imageheight": 64
    },
    {
     "id": 31,
     "image": "../assets/sprites/gravel-autotile_edge-w.png",
     "imagewidth": 64,
     "imageheight": 64
    },
    {
     "id": 32,
     "image": "../assets/sprites/grey-brick-autotile_center.png",
     "imagewidth": 64,
     "imageheight": 64
    },
    {
     "id": 33,
     "image": "../assets/sprites/grey-brick-autotile_corner-ne.png",
     "imagewidth": 64,
     "imageheight": 64
    },
    {
     "id": 34,
     "image": "../assets/sprites/grey-brick-autotile_corner-nw.png",
     "imagewidth": 64,
     "imageheight": 64
    },
    {
     "id": 35,
     "image": "../assets/sprites/grey-brick-autotile_corner-se.png",
     "imagewidth": 64,
     "imageheight": 64
    },
    {
     "id": 36,
     "image": "../assets/sprites/grey-brick-autotile_corner-sw.png",
     "imagewidth": 64,
     "imageheight": 64
    },
    {
     "id": 37,
     "image": "../assets/sprites/grey-brick-autotile_edge-e.png",
     "imagewidth": 64,
     "imageheight": 64
    },
    {
     "id": 38,
     "image": "../assets/sprites/grey-brick-autotile_edge-n.png",
     "imagewidth": 64,
     "imageheight": 64
    },
    {
     "id": 39,
     "image": "../assets/sprites/grey-brick-autotile_edge-s.png",
     "imagewidth": 64,
     "imageheight": 64
    },
    {
     "id": 40,
     "image": "../assets/sprites/grey-brick-autotile_edge-w.png",
     "imagewidth": 64,
     "imageheight": 64
    },
    {
     "id": 41,
     "image": "../assets/sprites/ground-plants-1_0_0.png",
     "imagewidth": 64,
     "imageheight": 64
    },
    {
     "id": 42,
     "image": "../assets/sprites/ground-plants-1_0_1.png",
     "imagewidth": 64,
     "imageheight": 64
    },
    {
     "id": 43,
     "image": "../assets/sprites/ground-plants-1_1_1.png",
     "imagewidth": 64,
     "imageheight": 64
    },
    {
     "id": 44,
     "image": "../assets/sprites/light-concrete-autotile_center.png",
     "imagewidth": 64,
     "imageheight": 64
    },
    {
     "id": 45,
     "image": "../assets/sprites/light-concrete-autotile_corner-ne.png",
     "imagewidth": 64,
     "imageheight": 64
    },
    {
     "id": 46,
     "image": "../assets/sprites/light-concrete-autotile_corner-nw.png",
     "imagewidth": 64,
     "imageheight": 64
    },
    {
     "id": 47,
     "image": "../assets/sprites/light-concrete-autotile_corner-se.png",
     "imagewidth": 64,
     "imageheight": 64
    },
    {
     "id": 48,
     "image": "../assets/sprites/light-concrete-autotile_corner-sw.png",
     "imagewidth": 64,
     "imageheight": 64
    },
    {
     "id": 49,
     "image": "../assets/sprites/light-concrete-autotile_edge-e.png",
     "imagewidth": 64,
     "imageheight": 64
    },
    {
     "id": 50,
     "image": "../assets/sprites/light-concrete-autotile_edge-n.png",
     "imagewidth": 64,
     "imageheight": 64
    },
    {
     "id": 51,
     "image": "../assets/sprites/light-concrete-autotile_edge-s.png",
     "imagewidth": 64,
     "imageheight": 64
    },
    {
     "id": 52,
     "image": "../assets/sprites/light-concrete-autotile_edge-w.png",
     "imagewidth": 64,
     "imageheight": 64
    },
    {
     "id": 53,
     "image": "../assets/sprites/red-pagoda-small-base_0_0.png",
     "imagewidth": 128,
     "imageheight": 192
    },
    {
     "id": 54,
     "image": "../assets/sprites/red-pagoda-small-top_0_0.png",
     "imagewidth": 128,
     "imageheight": 192
    },
    {
     "id": 55,
     "image": "../assets/sprites/red-shrine-top_0_0.png",
     "imagewidth": 320,
     "imageheight": 384
    },
    {
     "id": 56,
     "image": "../assets/sprites/red-vending-machine-bottom_0_0.png",
     "imagewidth": 64,
     "imageheight": 64
    },
    {
     "id": 57,
     "image": "../assets/sprites/red-vending-machine-top_0_0.png",
     "imagewidth": 64,
     "imageheight": 64
    },
    {
     "id": 58,
     "image": "../assets/sprites/road-div-horizontal_0_0.png",
     "imagewidth": 64,
     "imageheight": 64
    },
    {
     "id": 59,
     "image": "../assets/sprites/road-div-vertical_0_0.png",
     "imagewidth": 64,
     "imageheight": 64
    },
    {
     "id": 60,
     "image": "../assets/sprites/road-edge-bottom_0_0.png",
     "imagewidth": 64,
     "imageheight": 64
    },
    {
     "id": 61,
     "image": "../assets/sprites/road-edge-left_0_0.png",
     "imagewidth": 64,
     "imageheight": 64
    },
    {
     "id": 62,
     "image": "../assets/sprites/road-edge-right_0_0.png",
     "imagewidth": 64,
     "imageheight": 64
    },
    {
     "id": 63,
     "image": "../assets/sprites/road-edge-top_0_0.png",
     "imagewidth": 64,
     "imageheight": 64
    },
    {
     "id": 64,
     "image": "../assets/sprites/sakura-small_0_0.png",
     "imagewidth": 64,
     "imageheight": 128
    },
    {
     "id": 65,
     "image": "../assets/sprites/seven-eleven_0_0.png",
     "imagewidth": 192,
     "imageheight": 256
    },
    {
     "id": 66,
     "image": "../assets/sprites/shrine-building_0_0.png",
     "imagewidth": 192,
     "imageheight": 384
    },
    {
     "id": 67,
     "image": "../assets/sprites/shrub-large-circle_0_0.png",
     "imagewidth": 128,
     "imageheight": 128
    },
    {
     "id": 68,
     "image": "../assets/sprites/shrub-small-circle_0_0.png",
     "imagewidth": 64,
     "imageheight": 64
    },
    {
     "id": 69,
     "image": "../assets/sprites/shrubs-1_2_0.png",
     "imagewidth": 64,
     "imageheight": 64
    },
    {
     "id": 70,
     "image": "../assets/sprites/tokyo-tower-feet.png",
     "imagewidth": 512,
     "imageheight": 192
    },
    {
     "id": 71,
     "image": "../assets/sprites/torii-red-feet_0_0.png",
     "imagewidth": 256,
     "imageheight": 128
    },
    {
     "id": 72,
     "image": "../assets/sprites/torii-red-top_0_0.png",
     "imagewidth": 384,
     "imageheight": 192
    },
    {
     "id": 73,
     "image": "../assets/sprites/tree-1-base-shadow_0_0.png",
     "imagewidth": 128,
     "imageheight": 128
    },
    {
     "id": 74,
     "image": "../assets/sprites/tree-1-top_0_0.png",
     "imagewidth": 128,
     "imageheight": 64
    },
    {
     "id": 75,
     "image": "../assets/sprites/tree-2-base-shadow_0_0.png",
     "imagewidth": 128,
     "imageheight": 128
    },
    {
     "id": 76,
     "image": "../assets/sprites/tree-2-top_0_0.png",
     "imagewidth": 128,
     "imageheight": 64
    },
    {
     "id": 77,
     "image": "../assets/sprites/tree-3-base-shadow_0_0.png",
     "imagewidth": 128,
     "imageheight": 64
    },
    {
     "id": 78,
     "image": "../assets/sprites/tree-3-top_0_0.png",
     "imagewidth": 128,
     "imageheight": 128
    },
    {
     "id": 79,
     "image": "../assets/sprites/white-vending-machine-bottom_0_0.png",
     "imagewidth": 64,
     "imageheight": 64
    },
    {
     "id": 80,
     "image": "../assets/sprites/white-vending-machine-top_0_0.png",
     "imagewidth": 64,
     "imageheight": 64
    }
   ],
   "wangsets": [
    {
     "name": "dirt-outside-autotile",
     "type": "mixed",
     "tile": -1,
     "colors": [
      {
       "name": "dirt-outside-autotile",
       "tile": -1,
       "probability": 1,
       "color": "#74d33b"
      }
     ],
     "wangtiles": [
      {
       "tileid": 3,
       "wangid": [
        1,
        1,
        1,
        1,
        1,
        1,
        1,
        1
       ]
      },
      {
       "tileid": 4,
       "wangid": [
        0,
        0,
        0,
        0,
        1,
        1,
        1,
        0
       ]
      },
      {
       "tileid": 5,
       "wangid": [
        0,
        0,
        1,
        1,
        1,
        0,
        0,
        0
       ]
      },
      {
       "tileid": 6,
       "wangid": [
        1,
        0,
        0,
        0,
        0,
        0,
        1,
        1
       ]
      },
      {
       "tileid": 7,
       "wangid": [
        1,
        1,
        1,
        0,
        0,
        0,
        0,
        0
       ]
      },
      {
       "tileid": 8,
       "wangid": [
        1,
        0,
        0,
        0,
        1,
        1,
        1,
        1
       ]
      },
      {
       "tileid": 9,
       "wangid": [
        0,
        0,
        1,
        1,
        1,
        1,
        1,
        0
       ]
      },
      {
       "tileid": 10,
       "wangid": [
        1,
        1,
        1,
        0,
        0,
        0,
        1,
        1
       ]
      },
      {
       "tileid": 11,
       "wangid": [
        1,
        1,
        1,
        1,
        1,
        0,
        0,
        0
       ]
      }
     ]
    },
    {
     "name": "flat-grey-brick-autotile",
     "type": "mixed",
     "tile": -1,
     "colors": [
      {
       "name": "flat-grey-brick-autotile",
       "tile": -1,
       "probability": 1,
       "color": "#25b46d"
      }
     ],
     "wangtiles": [
      {
       "tileid": 13,
       "wangid": [
        1,
        1,
        1,
        1,
        1,
        1,
        1,
        1
       ]
      },
      {
       "tileid": 14,
       "wangid": [
        0,
        0,
        0,
        0,
        1,
        1,
        1,
        0
       ]
      },
      {
       "tileid": 15,
       "wangid": [
        0,
        0,
        1,
        1,
        1,
        0,
        0,
        0
       ]
      },
      {
       "tileid": 16,
       "wangid": [
        1,
        0,
        0,
        0,
        0,
        0,
        1,
        1
       ]
      },
      {
       "tileid": 17,
       "wangid": [
        1,
        1,
        1,
        0,
        0,
        0,
        0,
        0
       ]
      },
      {
       "tileid": 18,
       "wangid": [
        1,
        0,
        0,
        0,
        1,
        1,
        1,
        1
       ]
      },
      {
       "tileid": 19,
       "wangid": [
        0,
        0,
        1,
        1,
        1,
        1,
        1,
        0
       ]
      },
      {
       "tileid": 20,
       "wangid": [
        1,
        1,
        1,
        0,
        0,
        0,
        1,
        1
       ]
      },
      {
       "tileid": 21,
       "wangid": [
        1,
        1,
        1,
        1,
        1,
        0,
        0,
        0
       ]
      }
     ]
    },
    {
     "name": "gravel-autotile",
     "type": "mixed",
     "tile": -1,
     "colors": [
      {
       "name": "gravel-autotile",
       "tile": -1,
       "probability": 1,
       "color": "#a1c42a"
      }
     ],
     "wangtiles": [
      {
       "tileid": 23,
       "wangid": [
        1,
        1,
        1,
        1,
        1,
        1,
        1,
        1
       ]
      },
      {
       "tileid": 24,
       "wangid": [
        0,
        0,
        0,
        0,
        1,
        1,
        1,
        0
       ]
      },
      {
       "tileid": 25,
       "wangid": [
        0,
        0,
        1,
        1,
        1,
        0,
        0,
        0
       ]
      },
      {
       "tileid": 26,
       "wangid": [
        1,
        0,
        0,
        0,
        0,
        0,
        1,
        1
       ]
      },
      {
       "tileid": 27,
       "wangid": [
        1,
        1,
        1,
        0,
        0,
        0,
        0,
        0
       ]
      },
      {
       "tileid": 28,
       "wangid": [
        1,
        0,
        0,
        0,
        1,
        1,
        1,
        1
       ]
      },
      {
       "tileid": 29,
       "wangid": [
        0,
        0,
        1,
        1,
        1,
        1,
        1,
        0
       ]
      },
      {
       "tileid": 30,
       "wangid": [
        1,
        1,
        1,
        0,
        0,
        0,
        1,
        1
       ]
      },
      {
       "tileid": 31,
       "wangid": [
        1,
        1,
        1,
        1,
        1,
        0,
        0,
        0
       ]
      }
     ]
    },
    {
     "name": "grey-brick-autotile",
     "type": "mixed",
     "tile": -1,
     "colors": [
      {
       "name": "grey-brick-autotile",
       "tile": -1,
       "probability": 1,
       "color": "#c5c059"
      }
     ],
     "wangtiles": [
      {
       "tileid": 32,
       "wangid": [
        1,
        1,
        1,
        1,
        1,
        1,
        1,
        1
       ]
      },
      {
       "tileid": 33,
       "wangid": [
        0,
        0,
        0,
        0,
        1,
        1,
        1,
        0
       ]
      },
      {
       "tileid": 34,
       "wangid": [
        0,
        0,
        1,
        1,
        1,
        0,
        0,
        0
       ]
      },
      {
       "tileid": 35,
       "wangid": [
        1,
        0,
        0,
        0,
        0,
        0,
        1,
        1
       ]
      },
      {
       "tileid": 36,
       "wangid": [
        1,
        1,
        1,
        0,
        0,
        0,
        0,
        0
       ]
      },
      {
       "tileid": 37,
       "wangid": [
        1,
        0,
        0,
        0,
        1,
        1,
        1,
        1
       ]
      },
      {
       "tileid": 38,
       "wangid": [
        0,
        0,
        1,
        1,
        1,
        1,
        1,
        0
       ]
      },
      {
       "tileid": 39,
       "wangid": [
        1,
        1,
        1,
        0,
        0,
        0,
        1,
        1
       ]
      },
      {
       "tileid": 40,
       "wangid": [
        1,
        1,
        1,
        1,
        1,
        0,
        0,
        0
       ]
      }
     ]
    },
    {
     "name": "light-concrete-autotile",
     "type": "mixed",
     "tile": -1,
     "colors": [
      {
       "name": "light-concrete-autotile",
       "tile": -1,
       "probability": 1,
       "color": "#e8cc37"
      }
     ],
     "wangtiles": [
      {
       "tileid": 44,
       "wangid": [
        1,
        1,
        1,
        1,
        1,
        1,
        1,
        1
       ]
      },
      {
       "tileid": 45,
       "wangid": [
        0,
        0,
        0,
        0,
        1,
        1,
        1,
        0
       ]
      },
      {
       "tileid": 46,
       "wangid": [
        0,
        0,
        1,
        1,
        1,
        0,
        0,
        0
       ]
      },
      {
       "tileid": 47,
       "wangid": [
        1,
        0,
        0,
        0,
        0,
        0,
        1,
        1
       ]
      },
      {
       "tileid": 48,
       "wangid": [
        1,
        1,
        1,
        0,
        0,
        0,
        0,
        0
       ]
      },
      {
       "tileid": 49,
       "wangid": [
        1,
        0,
        0,
        0,
        1,
        1,
        1,
        1
       ]
      },
      {
       "tileid": 50,
       "wangid": [
        0,
        0,
        1,
        1,
        1,
        1,
        1,
        0
       ]
      },
      {
       "tileid": 51,
       "wangid": [
        1,
        1,
        1,
        0,
        0,
        0,
        1,
        1
       ]
      },
      {
       "tileid": 52,
       "wangid": [
        1,
        1,
        1,
        1,
        1,
        0,
        0,
        0
       ]
      }
     ]
    }
   ]
  }
 ],
 "layers": [
  {
   "type": "tilelayer",
   "id": 1,
   "name": "Floor",
   "width": 59,
   "height": 44,
   "x": 0,
   "y": 0,
   "opacity": 1,
   "visible": true,
   "data": [
    64,
    64,
    64,
    64,
    64,
    64,
    64,
    64,
    64,
    64,
    64,
    64,
    64,
    64,
    64,
    64,
    64,
    64,
    64,
    64,
    64,
    64,
    64,
    64,
    64,
    64,
    64,
    64,
    64,
    64,
    64,
    64,
    64,
    64,
    64,
    64,
    64,
    64,
    64,
    64,
    64,
    64,
    64,
    64,
    64,
    64,
    64,
    64,
    64,
    64,
    64,
    64,
    64,
    64,
    64,
    64,
    64,
    64,
    64,
    60,
    64,
    59,
    59,
    59,
    59,
    59,
    59,
    59,
    59,
    59,
    59,
    59,
    59,
    59,
    59,
    59,
    59,
    59,
    59,
    59,
    59,
    59,
    59,
    59,
    59,
    59,
    59,
    59,
    59,
    59,
    59,
    59,
    59,
    59,
    59,
    59,
    59,
    59,
    59,
    59,
    59,
    59,
    59,
    59,
    59,
    59,
    59,
    59,
    59,
    59,
    59,
    59,
    59,
    59,
    59,
    59,
    59,
    59,
    60,
    63,
    61,
    61,
    61,
    61,
    61,
    61,
    61,
    61,
    61,
    61,
    61,
    61,
    61,
    61,
    61,
    61,
    61,
    61,
    61,
    61,
    61,
    61,
    61,
    61,
    61,
    61,
    61,
    61,
    61,
    61,
    61,
    61,
    61,
    61,
    61,
    61,
    61,
    61,
    61,
    61,
    61,
    61,
    61,
    61,
    61,
    61,
    61,
    61,
    61,
    61,
    61,
    61,
    61,
    61,
    61,
    61,
    61,
    60,
    63,
    16,
    20,
    20,
    20,
    20,
    20,
    20,
    20,
    20,
    20,
    20,
    20,
    20,
    20,
    20,
    20,
    20,
    20,
    20,
    20,
    20,
    20,
    20,
    20,
    20,
    20,
    20,
    20,
    20,
    20,
    20,
    20,
    20,
    20,
    20,
    20,
    20,
    20,
    20,
    20,
    20,
    20,
    20,
    20,
    20,
    20,
    20,
    20,
    20,
    20,
    20,
    15,
    62,
    60,
    63,
    16,
    20,
    60,
    63,
    22,
    14,
    21,
    21,
    21,
    21,
    21,
    21,
    21,
    21,
    21,
    21,
    21,
    21,
    21,
    21,
    21,
    21,
    21,
    21,
    21,
    21,
    21,
    21,
    21,
    21,
    21,
    21,
    21,
    21,
    21,
    21,
    21,
    21,
    21,
    21,
    21,
    21,
    21,
    21,
    21,
    21,
    21,
    21,
    21,
    21,
    21,
    21,
    21,
    21,
    14,
    19,
    62,
    60,
    63,
    22,
    14,
    60,
    63,
    22,
    19,
    26,
    30,
    30,
    30,
    30,
    30,
    30,
    30,
    30,
    30,
    30,
    30,
    30,
    30,
    30,
    30,
    30,
    30,
    30,
    30,
    30,
    30,
    30,
    30,
    30,
    30,
    30,
    30,
    30,
    30,
    30,
    30,
    30,
    30,
    30,
    30,
    30,
    30,
    30,
    30,
    30,
    30,
    30,
    30,
    30,
    30,
    30,
    25,
    22,
    19,
    62,
    60,
    63,
    22,
    19,
    60,
    63,
    22,
    19,
    32,
    24,
    31,
    31,
    31,
    31,
    31,
    31,
    31,
    31,
    31,
    31,
    31,
    31,
    31,
    24,
    24,
    24,
    24,
    24,
    24,
    24,
    24,
    24,
    24,
    24,
    24,
    24,
    24,
    31,
    31,
    31,
    31,
    31,
    31,
    31,
    31,
    31,
    31,
    31,
    31,
    31,
    31,
    31,
    31,
    31,
    24,
    29,
    22,
    19,
    62,
    60,
    63,
    22,
    19,
    60,
    63,
    22,
    19,
    32,
    29,
    47,
    51,
    51,
    51,
    51,
    51,
    51,
    51,
    51,
    51,
    51,
    51,
    46,
    32,
    24,
    24,
    24,
    24,
    24,
    24,
    24,
    24,
    24,
    24,
    24,
    24,
    29,
    47,
    51,
    51,
    51,
    51,
    51,
    51,
    51,
    51,
    51,
    51,
    51,
    51,
    51,
    51,
    51,
    46,
    32,
    29,
    22,
    19,
    62,
    60,
    63,
    22,
    19,
    60,
    63,
    22,
    19,
    32,
    29,
    53,
    45,
    45,
    45,
    45,
    45,
    45,
    45,
    45,
    45,
    45,
    45,
    50,
    32,
    24,
    24,
    24,
    24,
    24,
    24,
    24,
    24,
    24,
    24,
    24,
    24,
    29,
    53,
    52,
    52,
    52,
    52,
    52,
    45,
    45,
    45,
    45,
    45,
    45,
    45,
    45,
    45,
    45,
    50,
    32,
    29,
    22,
    19,
    62,
    60,
    63,
    22,
    19,
    60,
    63,
    22,
    19,
    32,
    29,
    53,
    45,
    45,
    45,
    45,
    45,
    45,
    45,
    45,
    45,
    45,
    45,
    50,
    32,
    24,
    24,
    24,
    24,
    24,
    24,
    24,
    24,
    24,
    24,
    24,
    24,
    29,
    53,
    35,
    39,
    39,
    39,
    34,
    53,
    45,
    45,
    45,
    45,
    45,
    45,
    45,
    45,
    45,
    50,
    32,
    29,
    22,
    19,
    62,
    60,
    63,
    22,
    19,
    60,
    63,
    22,
    19,
    32,
    29,
    53,
    45,
    45,
    45,
    45,
    45,
    45,
    45,
    45,
    45,
    45,
    45,
    50,
    32,
    24,
    24,
    31,
    31,
    31,
    31,
    31,
    31,
    31,
    31,
    24,
    24,
    29,
    53,
    51,
    51,
    51,
    46,
    38,
    53,
    45,
    45,
    45,
    45,
    45,
    45,
    52,
    52,
    45,
    50,
    32,
    29,
    22,
    19,
    62,
    60,
    63,
    22,
    19,
    60,
    63,
    22,
    19,
    32,
    29,
    53,
    45,
    45,
    45,
    45,
    45,
    45,
    45,
    45,
    45,
    45,
    45,
    50,
    32,
    24,
    29,
    6,
    10,
    10,
    10,
    10,
    10,
    10,
    5,
    32,
    24,
    29,
    53,
    45,
    45,
    45,
    50,
    41,
    53,
    45,
    45,
    45,
    45,
    45,
    50,
    35,
    34,
    53,
    50,
    32,
    29,
    22,
    19,
    62,
    60,
    63,
    22,
    19,
    60,
    63,
    22,
    19,
    32,
    29,
    53,
    45,
    45,
    45,
    45,
    45,
    45,
    45,
    45,
    45,
    45,
    45,
    50,
    32,
    24,
    29,
    12,
    4,
    4,
    4,
    4,
    4,
    4,
    9,
    32,
    24,
    29,
    53,
    52,
    52,
    52,
    48,
    38,
    53,
    45,
    45,
    45,
    45,
    45,
    50,
    41,
    38,
    53,
    50,
    32,
    29,
    22,
    19,
    62,
    60,
    63,
    22,
    19,
    60,
    63,
    22,
    19,
    32,
    29,
    53,
    45,
    45,
    45,
    45,
    45,
    45,
    45,
    45,
    45,
    45,
    45,
    50,
    32,
    24,
    29,
    12,
    4,
    4,
    4,
    4,
    4,
    4,
    9,
    32,
    24,
    29,
    53,
    35,
    39,
    39,
    39,
    38,
    53,
    45,
    52,
    45,
    45,
    45,
    50,
    41,
    38,
    53,
    50,
    32,
    29,
    22,
    19,
    62,
    60,
    63,
    22,
    19,
    60,
    63,
    22,
    19,
    32,
    29,
    53,
    45,
    45,
    45,
    45,
    45,
    45,
    45,
    45,
    45,
    45,
    45,
    50,
    32,
    24,
    29,
    12,
    4,
    4,
    4,
    4,
    4,
    4,
    9,
    32,
    24,
    29,
    53,
    51,
    51,
    51,
    46,
    38,
    53,
    50,
    35,
    49,
    52,
    52,
    48,
    41,
    38,
    53,
    50,
    32,
    29,
    22,
    19,
    62,
    60,
    63,
    22,
    19,
    60,
    63,
    22,
    19,
    32,
    29,
    53,
    45,
    45,
    45,
    45,
    45,
    45,
    45,
    45,
    45,
    45,
    45,
    50,
    32,
    24,
    29,
    12,
    4,
    4,
    4,
    4,
    4,
    4,
    9,
    32,
    24,
    29,
    53,
    45,
    45,
    45,
    50,
    41,
    53,
    50,
    41,
    39,
    39,
    39,
    40,
    40,
    36,
    53,
    50,
    32,
    29,
    22,
    19,
    62,
    60,
    63,
    22,
    19,
    60,
    63,
    22,
    19,
    32,
    29,
    53,
    45,
    45,
    45,
    45,
    45,
    45,
    45,
    45,
    45,
    45,
    45,
    50,
    32,
    24,
    29,
    12,
    4,
    4,
    4,
    4,
    4,
    4,
    9,
    32,
    24,
    29,
    53,
    52,
    52,
    52,
    48,
    41,
    49,
    48,
    41,
    38,
    47,
    51,
    51,
    51,
    51,
    45,
    50,
    32,
    29,
    22,
    19,
    62,
    60,
    63,
    22,
    19,
    60,
    63,
    22,
    19,
    32,
    29,
    53,
    45,
    45,
    45,
    45,
    45,
    45,
    45,
    45,
    45,
    45,
    45,
    50,
    32,
    24,
    29,
    8,
    11,
    11,
    4,
    4,
    11,
    11,
    7,
    32,
    24,
    29,
    53,
    35,
    39,
    39,
    40,
    40,
    40,
    39,
    33,
    38,
    53,
    45,
    45,
    45,
    45,
    45,
    50,
    32,
    29,
    22,
    19,
    62,
    60,
    63,
    22,
    19,
    60,
    63,
    22,
    19,
    32,
    29,
    49,
    52,
    52,
    52,
    52,
    52,
    52,
    52,
    52,
    52,
    52,
    52,
    48,
    32,
    24,
    24,
    30,
    30,
    25,
    12,
    9,
    26,
    30,
    30,
    24,
    24,
    29,
    49,
    52,
    51,
    51,
    51,
    51,
    51,
    46,
    37,
    36,
    49,
    52,
    52,
    52,
    52,
    52,
    48,
    32,
    29,
    22,
    19,
    62,
    60,
    63,
    22,
    19,
    60,
    63,
    22,
    19,
    32,
    24,
    30,
    30,
    30,
    30,
    30,
    25,
    6,
    26,
    30,
    30,
    30,
    30,
    30,
    24,
    24,
    24,
    24,
    24,
    29,
    12,
    9,
    32,
    24,
    24,
    24,
    24,
    24,
    30,
    30,
    30,
    30,
    30,
    30,
    30,
    25,
    6,
    5,
    26,
    30,
    30,
    30,
    30,
    30,
    30,
    24,
    29,
    22,
    19,
    62,
    60,
    63,
    22,
    19,
    60,
    63,
    22,
    19,
    32,
    24,
    24,
    24,
    24,
    24,
    24,
    29,
    12,
    32,
    24,
    24,
    24,
    24,
    24,
    24,
    24,
    24,
    24,
    24,
    29,
    12,
    9,
    32,
    24,
    24,
    24,
    24,
    24,
    24,
    24,
    24,
    24,
    24,
    24,
    24,
    29,
    12,
    9,
    32,
    24,
    24,
    24,
    24,
    24,
    24,
    24,
    29,
    22,
    19,
    62,
    60,
    63,
    22,
    19,
    60,
    63,
    22,
    19,
    32,
    24,
    24,
    24,
    24,
    24,
    24,
    27,
    12,
    28,
    24,
    24,
    24,
    24,
    24,
    24,
    24,
    24,
    24,
    24,
    29,
    12,
    9,
    32,
    24,
    24,
    24,
    24,
    24,
    24,
    24,
    24,
    24,
    24,
    24,
    24,
    29,
    12,
    9,
    32,
    24,
    24,
    24,
    24,
    24,
    24,
    24,
    29,
    22,
    19,
    62,
    60,
    63,
    22,
    19,
    60,
    63,
    22,
    19,
    32,
    24,
    24,
    24,
    24,
    31,
    27,
    6,
    4,
    5,
    28,
    31,
    24,
    24,
    24,
    24,
    24,
    24,
    24,
    24,
    29,
    12,
    9,
    32,
    24,
    24,
    24,
    24,
    24,
    24,
    24,
    24,
    24,
    24,
    24,
    24,
    29,
    12,
    9,
    32,
    24,
    24,
    24,
    24,
    24,
    24,
    24,
    29,
    22,
    19,
    62,
    60,
    63,
    22,
    19,
    60,
    63,
    22,
    19,
    32,
    24,
    24,
    24,
    27,
    6,
    10,
    4,
    4,
    4,
    10,
    5,
    28,
    24,
    24,
    24,
    24,
    24,
    24,
    24,
    29,
    12,
    9,
    32,
    24,
    24,
    24,
    24,
    24,
    24,
    24,
    24,
    24,
    24,
    24,
    24,
    29,
    12,
    9,
    32,
    24,
    24,
    24,
    24,
    24,
    24,
    24,
    29,
    22,
    19,
    62,
    60,
    63,
    22,
    19,
    60,
    63,
    22,
    19,
    32,
    24,
    24,
    27,
    6,
    4,
    4,
    4,
    4,
    4,
    4,
    4,
    5,
    28,
    24,
    24,
    24,
    24,
    24,
    24,
    29,
    12,
    9,
    32,
    24,
    24,
    24,
    24,
    24,
    24,
    24,
    24,
    24,
    24,
    24,
    24,
    29,
    12,
    9,
    32,
    24,
    24,
    24,
    24,
    24,
    24,
    24,
    29,
    22,
    19,
    62,
    60,
    63,
    22,
    19,
    60,
    63,
    22,
    19,
    32,
    24,
    29,
    6,
    4,
    4,
    4,
    4,
    4,
    4,
    4,
    4,
    4,
    5,
    32,
    24,
    24,
    24,
    24,
    24,
    29,
    12,
    9,
    32,
    24,
    24,
    24,
    24,
    24,
    24,
    24,
    24,
    24,
    24,
    24,
    24,
    29,
    12,
    9,
    32,
    24,
    24,
    24,
    24,
    24,
    24,
    24,
    29,
    22,
    19,
    62,
    60,
    63,
    22,
    19,
    60,
    63,
    22,
    19,
    32,
    24,
    27,
    12,
    4,
    4,
    4,
    4,
    4,
    4,
    4,
    4,
    4,
    9,
    28,
    24,
    24,
    24,
    24,
    24,
    29,
    12,
    9,
    32,
    24,
    24,
    24,
    24,
    24,
    24,
    24,
    24,
    24,
    24,
    24,
    24,
    29,
    12,
    9,
    32,
    24,
    24,
    24,
    24,
    24,
    24,
    24,
    29,
    22,
    19,
    62,
    60,
    63,
    22,
    19,
    60,
    63,
    22,
    19,
    32,
    29,
    6,
    4,
    4,
    4,
    4,
    4,
    4,
    4,
    4,
    4,
    4,
    4,
    5,
    28,
    31,
    31,
    31,
    31,
    27,
    12,
    9,
    28,
    31,
    31,
    31,
    31,
    31,
    31,
    31,
    31,
    31,
    31,
    31,
    31,
    27,
    12,
    9,
    32,
    24,
    24,
    24,
    24,
    24,
    24,
    24,
    29,
    22,
    19,
    62,
    60,
    63,
    22,
    19,
    60,
    63,
    22,
    19,
    32,
    29,
    12,
    4,
    4,
    4,
    4,
    4,
    4,
    4,
    4,
    4,
    4,
    4,
    4,
    10,
    10,
    10,
    10,
    10,
    11,
    11,
    11,
    11,
    10,
    10,
    10,
    10,
    10,
    10,
    10,
    10,
    10,
    10,
    10,
    10,
    11,
    11,
    7,
    32,
    24,
    24,
    24,
    24,
    24,
    24,
    24,
    29,
    22,
    19,
    62,
    60,
    63,
    22,
    19,
    60,
    63,
    22,
    19,
    32,
    29,
    8,
    4,
    4,
    4,
    4,
    4,
    4,
    4,
    4,
    4,
    4,
    4,
    7,
    26,
    30,
    30,
    30,
    30,
    30,
    30,
    30,
    30,
    30,
    30,
    30,
    30,
    30,
    30,
    30,
    30,
    30,
    30,
    30,
    30,
    30,
    30,
    30,
    24,
    24,
    24,
    24,
    24,
    24,
    24,
    24,
    29,
    22,
    19,
    62,
    60,
    63,
    22,
    19,
    60,
    63,
    22,
    19,
    32,
    24,
    25,
    12,
    4,
    4,
    4,
    4,
    4,
    4,
    4,
    4,
    4,
    9,
    26,
    24,
    24,
    24,
    24,
    24,
    24,
    24,
    24,
    24,
    24,
    24,
    24,
    24,
    24,
    24,
    24,
    24,
    24,
    24,
    24,
    24,
    24,
    24,
    24,
    24,
    24,
    24,
    24,
    24,
    24,
    24,
    24,
    29,
    22,
    19,
    62,
    60,
    63,
    22,
    19,
    60,
    63,
    22,
    19,
    32,
    24,
    29,
    8,
    4,
    4,
    4,
    4,
    4,
    4,
    4,
    4,
    4,
    7,
    32,
    24,
    24,
    24,
    24,
    24,
    24,
    24,
    24,
    24,
    24,
    24,
    24,
    24,
    24,
    24,
    24,
    24,
    24,
    24,
    24,
    24,
    24,
    24,
    24,
    24,
    24,
    24,
    24,
    24,
    24,
    24,
    24,
    29,
    22,
    19,
    62,
    60,
    63,
    22,
    19,
    60,
    63,
    22,
    19,
    32,
    24,
    24,
    25,
    8,
    4,
    4,
    4,
    4,
    4,
    4,
    4,
    7,
    26,
    24,
    24,
    24,
    24,
    24,
    24,
    24,
    24,
    24,
    24,
    24,
    24,
    24,
    24,
    24,
    24,
    24,
    24,
    24,
    24,
    24,
    24,
    24,
    24,
    24,
    24,
    24,
    24,
    24,
    24,
    24,
    24,
    24,
    29,
    22,
    19,
    62,
    60,
    63,
    22,
    19,
    60,
    63,
    22,
    19,
    32,
    24,
    24,
    24,
    25,
    8,
    11,
    4,
    4,
    4,
    11,
    7,
    26,
    24,
    24,
    24,
    24,
    24,
    24,
    24,
    24,
    24,
    24,
    24,
    24,
    24,
    24,
    24,
    24,
    24,
    24,
    24,
    24,
    24,
    24,
    24,
    24,
    24,
    24,
    24,
    24,
    24,
    24,
    24,
    24,
    24,
    24,
    29,
    22,
    19,
    62,
    60,
    63,
    22,
    19,
    60,
    63,
    22,
    19,
    32,
    24,
    24,
    24,
    24,
    30,
    25,
    8,
    11,
    7,
    26,
    30,
    24,
    24,
    24,
    24,
    24,
    24,
    24,
    24,
    24,
    24,
    24,
    24,
    24,
    24,
    24,
    24,
    24,
    24,
    24,
    24,
    24,
    24,
    24,
    24,
    24,
    24,
    24,
    24,
    24,
    24,
    24,
    24,
    24,
    24,
    24,
    29,
    22,
    19,
    62,
    60,
    63,
    22,
    19,
    60,
    63,
    22,
    19,
    32,
    24,
    24,
    24,
    24,
    24,
    24,
    30,
    30,
    30,
    24,
    24,
    24,
    24,
    24,
    24,
    24,
    24,
    24,
    24,
    24,
    24,
    24,
    24,
    24,
    24,
    24,
    24,
    24,
    24,
    24,
    24,
    24,
    24,
    24,
    24,
    24,
    24,
    24,
    24,
    24,
    24,
    24,
    24,
    24,
    24,
    24,
    29,
    22,
    19,
    62,
    60,
    63,
    22,
    19,
    60,
    63,
    22,
    19,
    28,
    31,
    31,
    31,
    31,
    31,
    31,
    31,
    31,
    31,
    31,
    31,
    31,
    31,
    31,
    31,
    31,
    31,
    31,
    31,
    31,
    31,
    31,
    31,
    31,
    31,
    31,
    31,
    31,
    31,
    31,
    31,
    31,
    31,
    31,
    31,
    31,
    31,
    31,
    31,
    31,
    31,
    31,
    31,
    31,
    31,
    31,
    27,
    22,
    19,
    62,
    60,
    63,
    22,
    19,
    60,
    63,
    22,
    14,
    20,
    20,
    20,
    20,
    20,
    20,
    20,
    20,
    20,
    20,
    20,
    20,
    20,
    20,
    20,
    20,
    20,
    20,
    20,
    20,
    20,
    20,
    20,
    20,
    20,
    20,
    20,
    20,
    20,
    20,
    20,
    20,
    20,
    20,
    20,
    20,
    20,
    20,
    20,
    20,
    20,
    20,
    20,
    20,
    20,
    20,
    20,
    20,
    14,
    19,
    62,
    60,
    63,
    22,
    14,
    60,
    63,
    18,
    21,
    21,
    21,
    21,
    21,
    21,
    21,
    21,
    21,
    21,
    21,
    21,
    21,
    21,
    21,
    21,
    21,
    21,
    21,
    21,
    21,
    21,
    21,
    21,
    21,
    21,
    21,
    21,
    21,
    21,
    21,
    21,
    21,
    21,
    21,
    21,
    21,
    21,
    21,
    21,
    21,
    21,
    21,
    21,
    21,
    21,
    21,
    21,
    21,
    21,
    17,
    62,
    60,
    63,
    18,
    21,
    64,
    64,
    64,
    64,
    64,
    64,
    64,
    64,
    64,
    64,
    64,
    64,
    64,
    64,
    64,
    64,
    64,
    64,
    64,
    64,
    64,
    64,
    64,
    64,
    64,
    64,
    64,
    64,
    64,
    64,
    64,
    64,
    64,
    64,
    64,
    64,
    64,
    64,
    64,
    64,
    64,
    64,
    64,
    64,
    64,
    64,
    64,
    64,
    64,
    64,
    64,
    64,
    64,
    64,
    64,
    64,
    64,
    64,
    64,
    59,
    59,
    59,
    59,
    59,
    59,
    59,
    59,
    59,
    59,
    59,
    59,
    59,
    59,
    59,
    59,
    59,
    59,
    59,
    59,
    59,
    59,
    59,
    59,
    59,
    59,
    59,
    59,
    59,
    59,
    59,
    59,
    59,
    59,
    59,
    59,
    59,
    59,
    59,
    59,
    59,
    59,
    59,
    59,
    59,
    59,
    59,
    59,
    59,
    59,
    59,
    59,
    59,
    59,
    59,
    59,
    59,
    59,
    59,
    61,
    61,
    61,
    61,
    61,
    61,
    61,
    61,
    61,
    61,
    61,
    61,
    61,
    61,
    61,
    61,
    61,
    61,
    61,
    61,
    61,
    61,
    61,
    61,
    61,
    61,
    61,
    61,
    61,
    61,
    61,
    61,
    61,
    61,
    61,
    61,
    61,
    61,
    61,
    61,
    61,
    61,
    61,
    61,
    61,
    61,
    61,
    61,
    61,
    61,
    61,
    61,
    61,
    61,
    61,
    61,
    61,
    61,
    61,
    20,
    20,
    20,
    20,
    20,
    20,
    20,
    20,
    20,
    20,
    20,
    20,
    20,
    20,
    20,
    20,
    20,
    20,
    20,
    20,
    20,
    20,
    20,
    20,
    20,
    20,
    20,
    20,
    20,
    20,
    20,
    20,
    20,
    20,
    20,
    20,
    20,
    20,
    20,
    20,
    20,
    20,
    20,
    20,
    20,
    20,
    20,
    20,
    20,
    20,
    20,
    20,
    20,
    20,
    20,
    20,
    20,
    20,
    20,
    21,
    21,
    21,
    21,
    21,
    21,
    21,
    21,
    21,
    21,
    21,
    21,
    21,
    21,
    21,
    21,
    21,
    21,
    21,
    21,
    21,
    21,
    21,
    21,
    21,
    21,
    21,
    21,
    21,
    21,
    21,
    21,
    21,
    21,
    21,
    21,
    21,
    21,
    21,
    21,
    21,
    21,
    21,
    21,
    21,
    21,
    21,
    21,
    21,
    21,
    21,
    21,
    21,
    21,
    21,
    21,
    21,
    21,
    21
   ],
   "properties": [
    {
     "name": "gv2layer",
     "type": "string",
     "value": "Floor"
    },
    {
     "name": "z",
     "type": "int",
     "value": 0
    },
    {
     "name": "collision",
     "type": "bool",
     "value": false
    }
   ]
  },
  {
   "type": "tilelayer",
   "id": 2,
   "name": "Over Floor",
   "width": 59,
   "height": 44,
   "x": 0,
   "y": 0,
   "opacity": 1,
   "visible": true,
   "data": [
    0,
    0,
    0,
    0,
    0,
    0,
    0,
    0,
    0,
    0,
    0,
    0,
    0,
    0,
    0,
    0,
    0,
    0,
    0,
    0,
    0,
    0,
    0,
    0,
    0,
    0,
    0,
    0,
    0,
    0,
    0,
    0,
    0,
    0,
    0,
    0,
    0,
    0,
    0,
    0,
    0,
    0,
    0,
    0,
    0,
    0,
    0,
    0,
    0,
    0,
    0,
    0,
    0,
    0,
    0,
    0,
    0,
    0,
    0,
    0,
    0,
    0,
    0,
    0,
    0,
    0,
    0,
    0,
    0,
    0,
    0,
    0,
    0,
    0,
    0,
    0,
    0,
    0,
    0,
    0,
    0,
    0,
    0,
    0,
    0,
    0,
    0,
    0,
    0,
    0,
    0,
    0,
    0,
    0,
    0,
    0,
    0,
    0,
    0,
    0,
    0,
    0,
    0,
    0,
    0,
    0,
    0,
    0,
    0,
    0,
    0,
    0,
    0,
    0,
    0,
    0,
    0,
    0,
    0,
    0,
    0,
    0,
    0,
    0,
    0,
    0,
    0,
    0,
    0,
    0,
    0,
    0,
    0,
    0,
    0,
    0,
    0,
    0,
    0,
    0,
    0,
    0,
    0,
    0,
    0,
    0,
    0,
    0,
    0,
    0,
    0,
    0,
    0,
    0,
    0,
    0,
    0,
    0,
    0,
    0,
    0,
    0,
    0,
    0,
    0,
    0,
    0,
    0,
    0,
    0,
    0,
    0,
    0,
    0,
    0,
    0,
    0,
    0,
    0,
    0,
    0,
    0,
    0,
    0,
    0,
    0,
    0,
    0,
    0,
    0,
    0,
    0,
    0,
    0,
    0,
    0,
    0,
    0,
    0,
    0,
    0,
    0,
    0,
    0,
    0,
    0,
    0,
    0,
    0,
    0,
    0,
    0,
    0,
    0,
    0,
    0,
    0,
    0,
    0,
    0,
    0,
    0,
    0,
    0,
    0,
    0,
    0,
    0,
    0,
    0,
    0,
    0,
    0,
    0,
    0,
    0,
    0,
    0,
    0,
    0,
    0,
    0,
    0,
    0,
    0,
    0,
    0,
    0,
    0,
    0,
    0,
    0,
    0,
    0,
    0,
    0,
    0,
    0,
    0,
    0,
    0,
    0,
    0,
    0,
    0,
    0,
    0,
    0,
    0,
    0,
    0,
    0,
    0,
    0,
    0,
    0,
    0,
    0,
    0,
    0,
    0,
    0,
    0,
    0,
    0,
    0,
    0,
    0,
    0,
    0,
    0,
    0,
    0,
    0,
    0,
    0,
    0,
    0,
    0,
    0,
    0,
    0,
    0,
    0,
    0,
    0,
    0,
    0,
    0,
    0,
    0,
    0,
    0,
    0,
    0,
    0,
    0,
    0,
    0,
    0,
    0,
    0,
    0,
    0,
    0,
    0,
    0,
    44,
    0,
    0,
    0,
    0,
    0,
    0,
    0,
    0,
    0,
    0,
    0,
    0,
    44,
    0,
    0,
    0,
    43,
    0,
    0,
    0,
    0,
    0,
    0,
    0,
    0,
    0,
    0,
    0,
    0,
    0,
    0,
    0,
    0,
    43,
    0,
    0,
    0,
    0,
    0,
    0,
    0,
    43,
    0,
    43,
    0,
    0,
    0,
    0,
    0,
    0,
    0,
    0,
    0,
    0,
    0,
    0,
    0,
    0,
    0,
    0,
    0,
    0,
    43,
    0,
    0,
    0,
    0,
    44,
    0,
    0,
    0,
    0,
    43,
    0,
    43,
    0,
    0,
    0,
    0,
    0,
    0,
    0,
    0,
    0,
    0,
    0,
    0,
    0,
    0,
    0,
    0,
    0,
    0,
    0,
    0,
    0,
    0,
    0,
    0,
    0,
    0,
    0,
    0,
    0,
    43,
    0,
    0,
    0,
    0,
    0,
    0,
    0,
    0,
    0,
    0,
    0,
    0,
    43,
    0,
    0,
    0,
    0,
    0,
    0,
    0,
    0,
    0,
    0,
    0,
    0,
    0,
    0,
    0,
    0,
    0,
    0,
    44,
    0,
    0,
    0,
    0,
    0,
    0,
    0,
    0,
    0,
    0,
    0,
    0,
    0,
    0,
    0,
    0,
    0,
    0,
    0,
    0,
    0,
    0,
    0,
    0,
    0,
    0,
    0,
    0,
    0,
    0,
    0,
    0,
    0,
    0,
    0,
    0,
    0,
    0,
    0,
    0,
    0,
    0,
    0,
    0,
    0,
    0,
    0,
    0,
    0,
    0,
    0,
    0,
    0,
    0,
    0,
    0,
    0,
    0,
    0,
    0,
    0,
    0,
    0,
    0,
    0,
    0,
    0,
    0,
    0,
    0,
    0,
    43,
    0,
    0,
    0,
    0,
    0,
    0,
    0,
    0,
    0,
    0,
    0,
    0,
    0,
    0,
    0,
    0,
    0,
    0,
    0,
    0,
    0,
    0,
    0,
    0,
    44,
    0,
    0,
    0,
    0,
    0,
    0,
    0,
    0,
    0,
    0,
    0,
    0,
    0,
    0,
    0,
    0,
    0,
    0,
    0,
    0,
    0,
    0,
    0,
    0,
    0,
    0,
    0,
    0,
    0,
    0,
    0,
    0,
    0,
    0,
    0,
    0,
    0,
    0,
    0,
    0,
    0,
    0,
    0,
    0,
    0,
    0,
    0,
    43,
    0,
    0,
    0,
    0,
    0,
    0,
    0,
    43,
    0,
    0,
    0,
    0,
    0,
    0,
    0,
    0,
    0,
    0,
    0,
    0,
    0,
    0,
    0,
    0,
    0,
    0,
    0,
    0,
    0,
    0,
    43,
    0,
    0,
    0,
    0,
    0,
    0,
    0,
    0,
    0,
    0,
    0,
    0,
    0,
    0,
    0,
    0,
    0,
    0,
    0,
    0,
    0,
    0,
    0,
    0,
    0,
    0,
    0,
    0,
    0,
    0,
    0,
    0,
    0,
    0,
    0,
    0,
    0,
    0,
    0,
    0,
    0,
    0,
    0,
    0,
    0,
    0,
    0,
    0,
    0,
    0,
    0,
    0,
    0,
    0,
    0,
    0,
    0,
    0,
    0,
    0,
    0,
    0,
    0,
    0,
    0,
    0,
    0,
    0,
    0,
    0,
    0,
    0,
    0,
    0,
    0,
    0,
    0,
    0,
    0,
    0,
    0,
    0,
    0,
    0,
    0,
    0,
    0,
    0,
    0,
    0,
    0,
    0,
    0,
    0,
    0,
    0,
    0,
    0,
    0,
    0,
    0,
    0,
    0,
    0,
    0,
    0,
    0,
    0,
    0,
    0,
    0,
    0,
    0,
    0,
    0,
    0,
    0,
    0,
    0,
    0,
    0,
    0,
    0,
    0,
    0,
    0,
    0,
    0,
    0,
    0,
    0,
    0,
    0,
    0,
    0,
    0,
    0,
    0,
    0,
    0,
    0,
    0,
    0,
    0,
    0,
    44,
    0,
    43,
    0,
    0,
    0,
    0,
    0,
    0,
    0,
    0,
    0,
    0,
    0,
    0,
    0,
    0,
    0,
    0,
    0,
    0,
    0,
    0,
    0,
    0,
    0,
    0,
    0,
    0,
    0,
    0,
    0,
    43,
    0,
    0,
    0,
    0,
    0,
    0,
    0,
    0,
    0,
    0,
    0,
    0,
    0,
    0,
    0,
    0,
    0,
    0,
    0,
    0,
    0,
    0,
    0,
    0,
    0,
    0,
    0,
    0,
    0,
    0,
    0,
    0,
    0,
    0,
    0,
    0,
    0,
    0,
    0,
    0,
    0,
    0,
    0,
    0,
    0,
    0,
    0,
    0,
    0,
    0,
    0,
    0,
    0,
    0,
    0,
    0,
    0,
    0,
    0,
    0,
    0,
    0,
    0,
    0,
    0,
    0,
    0,
    0,
    0,
    0,
    0,
    0,
    0,
    0,
    0,
    0,
    0,
    0,
    0,
    0,
    0,
    0,
    0,
    0,
    0,
    0,
    0,
    43,
    0,
    0,
    0,
    0,
    0,
    0,
    0,
    0,
    0,
    0,
    44,
    0,
    0,
    0,
    0,
    0,
    0,
    0,
    0,
    0,
    0,
    0,
    0,
    0,
    0,
    0,
    0,
    0,
    44,
    0,
    0,
    0,
    0,
    0,
    0,
    0,
    0,
    0,
    0,
    0,
    0,
    0,
    43,
    0,
    0,
    0,
    0,
    0,
    0,
    0,
    0,
    0,
    0,
    0,
    0,
    0,
    0,
    0,
    0,
    0,
    0,
    0,
    0,
    0,
    0,
    0,
    0,
    0,
    0,
    0,
    0,
    0,
    0,
    0,
    0,
    0,
    0,
    0,
    0,
    0,
    0,
    0,
    0,
    0,
    0,
    0,
    0,
    0,
    0,
    0,
    0,
    0,
    0,
    0,
    0,
    0,
    0,
    0,
    0,
    0,
    0,
    0,
    0,
    0,
    0,
    0,
    0,
    0,
    0,
    0,
    0,
    0,
    0,
    0,
    0,
    0,
    44,
    0,
    0,
    0,
    0,
    0,
    0,
    0,
    0,
    0,
    0,
    0,
    0,
    0,
    0,
    0,
    0,
    0,
    0,
    0,
    0,
    0,
    0,
    0,
    0,
    0,
    0,
    0,
    0,
    0,
    43,
    0,
    0,
    0,
    0,
    0,
    0,
    0,
    0,
    0,
    0,
    0,
    0,
    0,
    0,
    0,
    0,
    0,
    0,
    0,
    0,
    0,
    0,
    0,
    0,
    0,
    0,
    0,
    0,
    0,
    0,
    0,
    43,
    0,
    0,
    0,
    0,
    44,
    43,
    0,
    0,
    0,
    0,
    0,
    0,
    0,
    0,
    0,
    0,
    0,
    0,
    0,
    0,
    0,
    0,
    0,
    0,
    0,
    0,
    0,
    0,
    0,
    0,
    0,
    0,
    0,
    0,
    0,
    0,
    0,
    0,
    0,
    0,
    43,
    0,
    0,
    0,
    0,
    44,
    0,
    0,
    0,
    0,
    0,
    0,
    0,
    0,
    44,
    0,
    0,
    0,
    0,
    0,
    0,
    0,
    0,
    0,
    0,
    0,
    0,
    0,
    0,
    0,
    0,
    0,
    0,
    0,
    0,
    0,
    0,
    0,
    0,
    0,
    0,
    43,
    0,
    0,
    44,
    44,
    0,
    0,
    0,
    0,
    0,
    0,
    0,
    0,
    0,
    0,
    0,
    0,
    0,
    0,
    0,
    0,
    0,
    0,
    0,
    0,
    0,
    0,
    0,
    0,
    0,
    0,
    0,
    0,
    0,
    0,
    0,
    0,
    0,
    0,
    0,
    0,
    0,
    0,
    0,
    0,
    0,
    0,
    0,
    0,
    0,
    0,
    0,
    0,
    0,
    0,
    0,
    0,
    0,
    0,
    0,
    0,
    0,
    0,
    0,
    0,
    0,
    0,
    0,
    0,
    0,
    0,
    0,
    0,
    0,
    0,
    0,
    0,
    0,
    0,
    0,
    0,
    0,
    0,
    43,
    0,
    43,
    44,
    0,
    0,
    0,
    0,
    0,
    0,
    0,
    0,
    0,
    42,
    0,
    0,
    0,
    0,
    0,
    0,
    0,
    0,
    0,
    0,
    0,
    0,
    0,
    0,
    0,
    0,
    0,
    0,
    0,
    0,
    0,
    0,
    0,
    0,
    0,
    0,
    0,
    0,
    0,
    0,
    0,
    0,
    0,
    0,
    0,
    0,
    0,
    0,
    0,
    44,
    0,
    0,
    0,
    44,
    0,
    0,
    0,
    0,
    42,
    0,
    0,
    0,
    0,
    0,
    0,
    0,
    0,
    0,
    0,
    0,
    0,
    42,
    0,
    0,
    0,
    0,
    0,
    0,
    0,
    0,
    0,
    0,
    0,
    0,
    0,
    0,
    0,
    0,
    0,
    0,
    0,
    0,
    0,
    0,
    0,
    0,
    0,
    0,
    0,
    0,
    0,
    0,
    0,
    0,
    0,
    0,
    0,
    0,
    0,
    0,
    0,
    43,
    0,
    0,
    0,
    0,
    0,
    0,
    0,
    42,
    0,
    0,
    42,
    0,
    0,
    0,
    0,
    42,
    0,
    0,
    0,
    0,
    0,
    0,
    0,
    0,
    0,
    0,
    0,
    0,
    0,
    0,
    0,
    43,
    0,
    0,
    44,
    0,
    0,
    0,
    0,
    0,
    0,
    0,
    0,
    0,
    0,
    0,
    0,
    0,
    0,
    0,
    0,
    0,
    0,
    0,
    0,
    0,
    0,
    0,
    0,
    0,
    0,
    0,
    0,
    0,
    0,
    0,
    0,
    0,
    44,
    0,
    0,
    0,
    0,
    0,
    0,
    0,
    0,
    44,
    0,
    0,
    0,
    0,
    0,
    0,
    0,
    0,
    0,
    0,
    0,
    0,
    44,
    0,
    0,
    0,
    0,
    0,
    0,
    0,
    0,
    0,
    0,
    0,
    0,
    0,
    0,
    0,
    0,
    0,
    0,
    0,
    0,
    0,
    0,
    0,
    0,
    0,
    0,
    0,
    0,
    0,
    0,
    0,
    0,
    0,
    0,
    0,
    0,
    0,
    0,
    0,
    0,
    0,
    0,
    0,
    0,
    0,
    43,
    0,
    0,
    0,
    0,
    0,
    0,
    0,
    0,
    0,
    0,
    0,
    0,
    0,
    0,
    0,
    0,
    0,
    0,
    0,
    0,
    0,
    0,
    0,
    0,
    0,
    0,
    0,
    0,
    0,
    0,
    0,
    0,
    0,
    0,
    0,
    0,
    0,
    0,
    0,
    0,
    0,
    0,
    0,
    0,
    0,
    0,
    0,
    0,
    0,
    42,
    0,
    0,
    42,
    0,
    0,
    42,
    0,
    0,
    0,
    0,
    0,
    0,
    44,
    0,
    0,
    0,
    0,
    0,
    0,
    0,
    0,
    0,
    0,
    0,
    0,
    0,
    0,
    0,
    0,
    0,
    0,
    0,
    0,
    0,
    0,
    0,
    0,
    0,
    0,
    0,
    0,
    0,
    0,
    0,
    0,
    0,
    0,
    0,
    0,
    0,
    0,
    0,
    0,
    0,
    0,
    0,
    0,
    0,
    0,
    44,
    0,
    0,
    0,
    0,
    0,
    0,
    0,
    0,
    0,
    0,
    0,
    43,
    0,
    0,
    0,
    0,
    0,
    0,
    43,
    0,
    0,
    0,
    0,
    43,
    0,
    0,
    0,
    0,
    0,
    0,
    0,
    0,
    0,
    0,
    0,
    0,
    0,
    0,
    0,
    0,
    0,
    0,
    0,
    0,
    44,
    0,
    0,
    0,
    0,
    0,
    0,
    0,
    0,
    0,
    0,
    0,
    0,
    0,
    0,
    0,
    0,
    0,
    0,
    0,
    0,
    0,
    0,
    0,
    0,
    0,
    0,
    0,
    0,
    0,
    0,
    0,
    0,
    0,
    0,
    0,
    0,
    0,
    0,
    44,
    0,
    0,
    0,
    0,
    0,
    0,
    0,
    0,
    0,
    0,
    0,
    0,
    0,
    0,
    0,
    0,
    0,
    0,
    0,
    0,
    0,
    0,
    0,
    0,
    0,
    0,
    0,
    0,
    0,
    0,
    0,
    0,
    0,
    0,
    0,
    0,
    44,
    0,
    0,
    43,
    0,
    44,
    0,
    0,
    43,
    0,
    0,
    44,
    0,
    0,
    43,
    0,
    44,
    0,
    43,
    0,
    0,
    0,
    0,
    0,
    0,
    0,
    0,
    0,
    0,
    0,
    0,
    0,
    0,
    0,
    0,
    0,
    0,
    0,
    0,
    0,
    0,
    0,
    0,
    0,
    0,
    0,
    0,
    0,
    0,
    0,
    0,
    0,
    0,
    0,
    0,
    0,
    44,
    0,
    43,
    0,
    0,
    0,
    0,
    0,
    0,
    0,
    0,
    0,
    0,
    0,
    0,
    0,
    0,
    0,
    0,
    0,
    0,
    0,
    0,
    0,
    44,
    0,
    0,
    0,
    0,
    0,
    0,
    0,
    0,
    0,
    0,
    0,
    0,
    0,
    0,
    0,
    0,
    0,
    0,
    0,
    0,
    0,
    43,
    0,
    0,
    0,
    0,
    0,
    0,
    0,
    0,
    0,
    0,
    0,
    0,
    0,
    0,
    0,
    0,
    0,
    0,
    0,
    0,
    0,
    0,
    0,
    0,
    0,
    0,
    0,
    0,
    0,
    0,
    0,
    0,
    0,
    0,
    0,
    0,
    0,
    0,
    0,
    0,
    0,
    0,
    0,
    0,
    0,
    0,
    0,
    0,
    0,
    0,
    0,
    0,
    0,
    0,
    0,
    0,
    0,
    0,
    0,
    0,
    0,
    0,
    0,
    0,
    0,
    0,
    0,
    0,
    0,
    43,
    0,
    0,
    0,
    0,
    0,
    0,
    0,
    0,
    0,
    0,
    0,
    0,
    0,
    0,
    0,
    0,
    0,
    0,
    0,
    0,
    0,
    0,
    0,
    0,
    0,
    0,
    0,
    0,
    0,
    0,
    0,
    0,
    0,
    0,
    0,
    0,
    0,
    0,
    0,
    0,
    0,
    0,
    0,
    0,
    0,
    0,
    0,
    0,
    44,
    0,
    0,
    0,
    0,
    0,
    0,
    0,
    0,
    0,
    0,
    0,
    0,
    0,
    0,
    0,
    0,
    0,
    0,
    0,
    0,
    0,
    0,
    0,
    0,
    0,
    0,
    0,
    0,
    0,
    0,
    0,
    0,
    0,
    0,
    0,
    0,
    0,
    0,
    0,
    0,
    0,
    0,
    0,
    0,
    0,
    0,
    0,
    0,
    0,
    0,
    0,
    0,
    0,
    0,
    0,
    0,
    44,
    0,
    0,
    0,
    0,
    0,
    0,
    0,
    0,
    43,
    0,
    0,
    0,
    0,
    0,
    0,
    0,
    0,
    0,
    0,
    0,
    0,
    0,
    0,
    0,
    0,
    0,
    0,
    0,
    0,
    0,
    0,
    0,
    0,
    0,
    0,
    0,
    0,
    0,
    0,
    0,
    0,
    0,
    0,
    0,
    0,
    0,
    0,
    0,
    0,
    0,
    0,
    0,
    0,
    0,
    0,
    0,
    0,
    0,
    0,
    0,
    0,
    0,
    0,
    0,
    43,
    0,
    0,
    0,
    0,
    0,
    0,
    0,
    0,
    0,
    0,
    0,
    0,
    0,
    0,
    0,
    0,
    0,
    0,
    0,
    0,
    0,
    0,
    0,
    0,
    0,
    0,
    0,
    0,
    0,
    0,
    0,
    0,
    0,
    0,
    0,
    0,
    0,
    0,
    0,
    0,
    0,
    0,
    0,
    0,
    0,
    0,
    0,
    0,
    0,
    0,
    0,
    0,
    0,
    0,
    0,
    0,
    0,
    0,
    0,
    0,
    0,
    0,
    0,
    0,
    0,
    0,
    0,
    0,
    0,
    0,
    0,
    0,
    0,
    0,
    0,
    0,
    0,
    0,
    0,
    0,
    0,
    0,
    0,
    0,
    0,
    0,
    0,
    0,
    0,
    0,
    0,
    0,
    0,
    0,
    0,
    0,
    0,
    0,
    0,
    0,
    0,
    0,
    0,
    0,
    0,
    0,
    0,
    0,
    0,
    0,
    0,
    0,
    0,
    0,
    0,
    0,
    0,
    0,
    0,
    0,
    0,
    0,
    0,
    0,
    0,
    0,
    0,
    0,
    0,
    0,
    0,
    0,
    0,
    0,
    0,
    0,
    0,
    0,
    0,
    0,
    0,
    0,
    0,
    0,
    0,
    0,
    0,
    0,
    0,
    0,
    0,
    0,
    0,
    0,
    0,
    0,
    0,
    0,
    0,
    0,
    0,
    0,
    0,
    0,
    0,
    0,
    0,
    0,
    0,
    0,
    0,
    0,
    0,
    0,
    0,
    0,
    0,
    0,
    0,
    0,
    0,
    0,
    0,
    0,
    0,
    0,
    0,
    0,
    0,
    0,
    0,
    0,
    0,
    0,
    0,
    0,
    0,
    0,
    0,
    0,
    0,
    0,
    0,
    0,
    0,
    0,
    0,
    0,
    0,
    0,
    0,
    0,
    0,
    0,
    0,
    0,
    0,
    0,
    0,
    0,
    0,
    0,
    0,
    0,
    0,
    0,
    0,
    0,
    0,
    0,
    0,
    0,
    0,
    0,
    0,
    0,
    0,
    0,
    0,
    0,
    0,
    0,
    0,
    0,
    0,
    0,
    0,
    0,
    0,
    0,
    0,
    0,
    0,
    0,
    0,
    0,
    0,
    0,
    0,
    0,
    0,
    0,
    0,
    0,
    0,
    0,
    0,
    0,
    0,
    0,
    0,
    0,
    0,
    0,
    0,
    0,
    0,
    0,
    0,
    0,
    0,
    0,
    0,
    0,
    0,
    0,
    0,
    0,
    0,
    0,
    0,
    0,
    0,
    0,
    0,
    0,
    0,
    0,
    0,
    0,
    0,
    0,
    0,
    0,
    0,
    0,
    0,
    0,
    0,
    0,
    0,
    0,
    0,
    0,
    0,
    0,
    0,
    0,
    0,
    0,
    0,
    0,
    0,
    0,
    0,
    0,
    0,
    0,
    0,
    0,
    0,
    0,
    0,
    0,
    0,
    0,
    0,
    0,
    0,
    0,
    0,
    0,
    0,
    0,
    0,
    0,
    0,
    0,
    0,
    0,
    0,
    0,
    0,
    0,
    0,
    0,
    0,
    0,
    0,
    0,
    0,
    0,
    0,
    0,
    0,
    0,
    0,
    0,
    0,
    0,
    0,
    0,
    0,
    0,
    0,
    0,
    0,
    0,
    0,
    0,
    0,
    0,
    0,
    0,
    0,
    0,
    0,
    0,
    0,
    0,
    0,
    0,
    0,
    0,
    0,
    0,
    0,
    0,
    0,
    0,
    0,
    0,
    0,
    0,
    0,
    0,
    0,
    0,
    0,
    0,
    0,
    0,
    0,
    0,
    0,
    0,
    0,
    0,
    0,
    0,
    0,
    0,
    0,
    0,
    0,
    0,
    0,
    0,
    0,
    0,
    0,
    0,
    0,
    0,
    0,
    0,
    0,
    0,
    0,
    0,
    0,
    0,
    0,
    0,
    0,
    0,
    0,
    0,
    0,
    0,
    0,
    0,
    0,
    0,
    0,
    0,
    0,
    0,
    0,
    0,
    0,
    0,
    0,
    0,
    0,
    0,
    0,
    0,
    0,
    0,
    0,
    0,
    0,
    0,
    0,
    0,
    0,
    0,
    0,
    0,
    0,
    0,
    0,
    0,
    0,
    0,
    0,
    0,
    0,
    0,
    0,
    0,
    0,
    0,
    0,
    0,
    0,
    0,
    0,
    0,
    0,
    0,
    0,
    0,
    0,
    0,
    0,
    0,
    0,
    0,
    0,
    0,
    0,
    0,
    0,
    0,
    0,
    0,
    0
   ],
   "properties": [
    {
     "name": "gv2layer",
     "type": "string",
     "value": "Over Floor"
    },
    {
     "name": "z",
     "type": "int",
     "value": 1
    },
    {
     "name": "collision",
     "type": "bool",
     "value": false
    }
   ]
  },
  {
   "type": "tilelayer",
   "id": 3,
   "name": "Collidables",
   "width": 59,
   "height": 44,
   "x": 0,
   "y": 0,
   "opacity": 1,
   "visible": true,
   "data": [
    0,
    0,
    0,
    0,
    0,
    0,
    0,
    0,
    0,
    0,
    0,
    0,
    0,
    0,
    0,
    0,
    0,
    0,
    0,
    0,
    0,
    0,
    0,
    0,
    0,
    0,
    0,
    0,
    0,
    0,
    0,
    0,
    0,
    0,
    0,
    0,
    0,
    0,
    0,
    0,
    0,
    0,
    0,
    0,
    0,
    0,
    0,
    0,
    0,
    0,
    0,
    0,
    0,
    0,
    0,
    0,
    0,
    0,
    0,
    0,
    0,
    0,
    0,
    0,
    0,
    0,
    0,
    0,
    0,
    0,
    0,
    0,
    0,
    0,
    0,
    0,
    0,
    0,
    0,
    0,
    0,
    0,
    0,
    0,
    0,
    0,
    0,
    0,
    0,
    0,
    0,
    0,
    0,
    0,
    0,
    0,
    0,
    0,
    0,
    0,
    0,
    0,
    0,
    0,
    0,
    0,
    0,
    0,
    0,
    0,
    0,
    0,
    0,
    0,
    0,
    0,
    0,
    0,
    0,
    0,
    0,
    0,
    0,
    0,
    0,
    0,
    0,
    0,
    0,
    0,
    0,
    0,
    0,
    0,
    0,
    0,
    0,
    0,
    0,
    0,
    0,
    0,
    0,
    0,
    0,
    0,
    0,
    0,
    0,
    0,
    0,
    0,
    0,
    0,
    0,
    0,
    0,
    0,
    0,
    0,
    0,
    0,
    0,
    0,
    0,
    0,
    0,
    0,
    0,
    0,
    0,
    0,
    0,
    0,
    0,
    0,
    0,
    0,
    0,
    0,
    0,
    0,
    0,
    0,
    0,
    0,
    0,
    0,
    0,
    0,
    0,
    0,
    0,
    0,
    0,
    0,
    0,
    0,
    0,
    0,
    0,
    0,
    0,
    0,
    0,
    0,
    0,
    0,
    0,
    0,
    0,
    0,
    0,
    0,
    0,
    0,
    0,
    0,
    0,
    0,
    0,
    0,
    0,
    0,
    0,
    0,
    0,
    0,
    0,
    0,
    0,
    0,
    0,
    0,
    0,
    0,
    0,
    0,
    0,
    0,
    0,
    0,
    0,
    0,
    0,
    0,
    0,
    0,
    0,
    0,
    0,
    0,
    0,
    0,
    0,
    0,
    0,
    0,
    0,
    0,
    0,
    0,
    0,
    0,
    0,
    0,
    0,
    0,
    0,
    0,
    0,
    0,
    0,
    0,
    0,
    0,
    0,
    0,
    0,
    0,
    0,
    0,
    0,
    0,
    0,
    0,
    0,
    0,
    0,
    0,
    0,
    0,
    0,
    0,
    0,
    0,
    0,
    0,
    0,
    0,
    0,
    0,
    0,
    0,
    0,
    0,
    0,
    0,
    0,
    0,
    0,
    0,
    0,
    0,
    0,
    0,
    0,
    0,
    0,
    0,
    0,
    0,
    0,
    0,
    0,
    0,
    0,
    0,
    0,
    0,
    0,
    0,
    0,
    0,
    0,
    0,
    0,
    0,
    0,
    0,
    0,
    0,
    0,
    0,
    0,
    0,
    0,
    0,
    0,
    0,
    0,
    0,
    0,
    0,
    0,
    0,
    0,
    0,
    0,
    0,
    0,
    0,
    0,
    0,
    0,
    0,
    0,
    0,
    0,
    0,
    0,
    0,
    0,
    0,
    0,
    0,
    0,
    0,
    0,
    0,
    0,
    0,
    0,
    0,
    0,
    0,
    0,
    0,
    0,
    0,
    0,
    0,
    0,
    0,
    0,
    0,
    0,
    70,
    0,
    0,
    0,
    0,
    70,
    0,
    0,
    0,
    0,
    0,
    0,
    0,
    0,
    0,
    0,
    0,
    0,
    0,
    0,
    0,
    0,
    0,
    0,
    0,
    0,
    0,
    0,
    0,
    0,
    0,
    0,
    0,
    0,
    0,
    0,
    0,
    0,
    0,
    0,
    0,
    0,
    0,
    0,
    0,
    0,
    0,
    0,
    0,
    0,
    0,
    0,
    0,
    0,
    0,
    0,
    0,
    0,
    0,
    0,
    0,
    0,
    0,
    0,
    0,
    0,
    0,
    0,
    0,
    0,
    0,
    0,
    0,
    0,
    0,
    0,
    0,
    0,
    0,
    0,
    0,
    0,
    0,
    0,
    0,
    0,
    0,
    0,
    0,
    0,
    0,
    0,
    0,
    0,
    0,
    0,
    0,
    0,
    0,
    0,
    0,
    0,
    0,
    0,
    0,
    0,
    0,
    0,
    0,
    0,
    0,
    0,
    0,
    0,
    0,
    0,
    0,
    0,
    0,
    0,
    0,
    0,
    0,
    0,
    0,
    0,
    0,
    0,
    0,
    0,
    0,
    0,
    0,
    0,
    0,
    0,
    0,
    0,
    0,
    0,
    0,
    0,
    0,
    0,
    0,
    0,
    0,
    0,
    0,
    0,
    0,
    0,
    0,
    0,
    0,
    0,
    0,
    0,
    0,
    0,
    0,
    0,
    0,
    0,
    0,
    0,
    0,
    0,
    0,
    0,
    0,
    0,
    0,
    0,
    0,
    0,
    0,
    0,
    0,
    0,
    0,
    0,
    0,
    0,
    70,
    0,
    0,
    0,
    0,
    0,
    0,
    0,
    0,
    0,
    0,
    0,
    0,
    0,
    0,
    0,
    0,
    0,
    0,
    0,
    0,
    0,
    0,
    0,
    0,
    0,
    0,
    0,
    0,
    0,
    70,
    0,
    0,
    0,
    0,
    0,
    0,
    0,
    70,
    0,
    0,
    0,
    0,
    0,
    0,
    0,
    0,
    0,
    0,
    0,
    0,
    0,
    0,
    0,
    0,
    0,
    0,
    0,
    0,
    0,
    0,
    0,
    0,
    0,
    0,
    0,
    0,
    0,
    0,
    0,
    0,
    0,
    0,
    0,
    0,
    0,
    0,
    0,
    0,
    0,
    0,
    0,
    0,
    0,
    0,
    0,
    0,
    0,
    0,
    0,
    0,
    0,
    0,
    0,
    0,
    0,
    0,
    0,
    0,
    0,
    0,
    0,
    0,
    0,
    0,
    0,
    0,
    0,
    0,
    0,
    0,
    0,
    0,
    0,
    0,
    0,
    0,
    0,
    0,
    0,
    0,
    0,
    0,
    0,
    0,
    0,
    0,
    0,
    0,
    0,
    0,
    0,
    0,
    0,
    0,
    0,
    0,
    0,
    0,
    0,
    0,
    0,
    0,
    0,
    0,
    0,
    0,
    0,
    0,
    0,
    0,
    0,
    0,
    0,
    0,
    0,
    0,
    0,
    0,
    0,
    0,
    0,
    0,
    0,
    0,
    0,
    0,
    0,
    0,
    0,
    0,
    0,
    0,
    0,
    0,
    0,
    0,
    0,
    0,
    0,
    0,
    0,
    0,
    0,
    0,
    0,
    0,
    0,
    0,
    0,
    0,
    0,
    0,
    0,
    0,
    0,
    0,
    0,
    0,
    0,
    0,
    0,
    0,
    0,
    0,
    0,
    0,
    0,
    0,
    0,
    0,
    0,
    0,
    0,
    0,
    0,
    0,
    0,
    70,
    0,
    0,
    0,
    0,
    0,
    0,
    0,
    0,
    0,
    0,
    0,
    0,
    0,
    0,
    0,
    0,
    0,
    70,
    0,
    0,
    0,
    0,
    0,
    0,
    0,
    0,
    0,
    0,
    0,
    0,
    0,
    0,
    0,
    0,
    0,
    0,
    0,
    0,
    0,
    0,
    0,
    0,
    0,
    0,
    0,
    0,
    0,
    70,
    0,
    0,
    0,
    0,
    0,
    0,
    0,
    0,
    0,
    0,
    0,
    0,
    0,
    0,
    0,
    0,
    0,
    0,
    0,
    0,
    0,
    0,
    0,
    0,
    0,
    0,
    0,
    0,
    0,
    0,
    0,
    0,
    0,
    0,
    0,
    0,
    0,
    0,
    0,
    0,
    0,
    0,
    0,
    0,
    0,
    0,
    0,
    0,
    0,
    0,
    0,
    0,
    0,
    0,
    0,
    0,
    0,
    0,
    0,
    0,
    0,
    0,
    0,
    0,
    0,
    0,
    0,
    0,
    0,
    0,
    0,
    0,
    0,
    0,
    0,
    0,
    0,
    0,
    0,
    0,
    0,
    0,
    0,
    0,
    0,
    0,
    0,
    0,
    0,
    0,
    0,
    0,
    0,
    0,
    0,
    0,
    0,
    0,
    0,
    0,
    0,
    0,
    0,
    0,
    0,
    0,
    0,
    0,
    0,
    0,
    0,
    0,
    0,
    0,
    0,
    0,
    0,
    0,
    0,
    0,
    0,
    0,
    0,
    0,
    0,
    0,
    0,
    0,
    0,
    0,
    0,
    0,
    0,
    0,
    0,
    0,
    0,
    0,
    0,
    0,
    0,
    0,
    0,
    0,
    0,
    0,
    0,
    0,
    0,
    0,
    0,
    0,
    0,
    0,
    0,
    0,
    0,
    0,
    0,
    0,
    0,
    0,
    0,
    0,
    0,
    0,
    0,
    0,
    0,
    0,
    0,
    0,
    0,
    0,
    0,
    0,
    0,
    0,
    0,
    0,
    0,
    0,
    0,
    0,
    0,
    0,
    0,
    0,
    0,
    0,
    0,
    0,
    0,
    0,
    0,
    0,
    0,
    0,
    0,
    0,
    0,
    0,
    0,
    0,
    0,
    0,
    0,
    0,
    0,
    0,
    0,
    0,
    0,
    0,
    0,
    0,
    0,
    0,
    0,
    0,
    0,
    0,
    0,
    0,
    0,
    0,
    0,
    0,
    0,
    0,
    0,
    0,
    0,
    70,
    0,
    0,
    70,
    0,
    0,
    0,
    0,
    0,
    0,
    0,
    0,
    0,
    0,
    0,
    0,
    0,
    0,
    0,
    0,
    0,
    0,
    0,
    0,
    0,
    0,
    0,
    0,
    0,
    0,
    0,
    0,
    0,
    0,
    0,
    0,
    0,
    0,
    0,
    0,
    0,
    0,
    0,
    0,
    0,
    0,
    0,
    0,
    0,
    0,
    0,
    0,
    0,
    0,
    0,
    0,
    0,
    0,
    0,
    0,
    0,
    0,
    0,
    0,
    0,
    0,
    0,
    0,
    0,
    0,
    0,
    0,
    0,
    0,
    0,
    0,
    0,
    0,
    0,
    0,
    0,
    0,
    0,
    0,
    0,
    0,
    0,
    70,
    0,
    0,
    0,
    0,
    0,
    0,
    0,
    0,
    0,
    0,
    0,
    0,
    0,
    0,
    0,
    0,
    0,
    0,
    0,
    0,
    0,
    0,
    0,
    0,
    0,
    0,
    0,
    0,
    0,
    0,
    0,
    0,
    0,
    0,
    0,
    0,
    0,
    0,
    0,
    0,
    0,
    0,
    0,
    0,
    0,
    0,
    0,
    0,
    0,
    0,
    0,
    0,
    0,
    0,
    0,
    0,
    0,
    0,
    0,
    0,
    0,
    0,
    0,
    0,
    0,
    0,
    0,
    0,
    0,
    0,
    0,
    0,
    0,
    0,
    0,
    0,
    0,
    0,
    0,
    0,
    69,
    0,
    0,
    70,
    0,
    0,
    0,
    0,
    0,
    0,
    0,
    0,
    0,
    0,
    0,
    0,
    0,
    70,
    0,
    0,
    0,
    0,
    0,
    0,
    0,
    0,
    0,
    0,
    0,
    0,
    0,
    0,
    0,
    0,
    0,
    0,
    0,
    0,
    0,
    0,
    0,
    0,
    0,
    0,
    0,
    0,
    0,
    0,
    0,
    0,
    0,
    0,
    0,
    0,
    0,
    0,
    0,
    0,
    0,
    0,
    0,
    0,
    0,
    0,
    70,
    0,
    0,
    0,
    0,
    0,
    0,
    0,
    0,
    0,
    0,
    0,
    0,
    0,
    0,
    0,
    0,
    0,
    0,
    0,
    0,
    0,
    0,
    0,
    0,
    0,
    0,
    0,
    0,
    0,
    0,
    0,
    0,
    0,
    0,
    0,
    0,
    0,
    0,
    0,
    0,
    0,
    0,
    0,
    0,
    0,
    0,
    0,
    0,
    0,
    0,
    0,
    0,
    0,
    0,
    0,
    0,
    0,
    0,
    0,
    0,
    0,
    0,
    0,
    0,
    0,
    0,
    0,
    0,
    0,
    0,
    0,
    0,
    0,
    0,
    0,
    0,
    0,
    0,
    0,
    0,
    0,
    0,
    0,
    0,
    0,
    0,
    0,
    0,
    0,
    0,
    0,
    0,
    0,
    0,
    0,
    0,
    0,
    0,
    0,
    0,
    0,
    0,
    0,
    0,
    0,
    0,
    0,
    0,
    0,
    0,
    0,
    0,
    0,
    0,
    0,
    0,
    0,
    0,
    0,
    70,
    0,
    0,
    0,
    0,
    0,
    0,
    70,
    0,
    0,
    0,
    0,
    0,
    0,
    0,
    0,
    0,
    0,
    0,
    0,
    0,
    0,
    0,
    0,
    0,
    0,
    0,
    0,
    0,
    0,
    0,
    0,
    0,
    0,
    0,
    0,
    0,
    0,
    0,
    0,
    0,
    0,
    0,
    0,
    0,
    0,
    0,
    0,
    0,
    0,
    0,
    0,
    0,
    0,
    0,
    0,
    0,
    0,
    0,
    0,
    0,
    0,
    0,
    0,
    0,
    0,
    0,
    0,
    0,
    0,
    0,
    0,
    0,
    0,
    0,
    0,
    0,
    0,
    0,
    0,
    0,
    0,
    0,
    0,
    0,
    0,
    0,
    0,
    0,
    0,
    0,
    0,
    0,
    0,
    0,
    0,
    0,
    0,
    0,
    0,
    0,
    0,
    0,
    0,
    0,
    0,
    0,
    0,
    0,
    0,
    0,
    0,
    0,
    0,
    0,
    0,
    0,
    0,
    0,
    0,
    0,
    0,
    0,
    0,
    0,
    0,
    0,
    0,
    0,
    0,
    0,
    0,
    0,
    0,
    0,
    0,
    0,
    0,
    0,
    0,
    0,
    70,
    0,
    0,
    0,
    0,
    0,
    0,
    0,
    0,
    0,
    0,
    0,
    0,
    0,
    0,
    0,
    0,
    0,
    0,
    0,
    0,
    0,
    0,
    0,
    0,
    0,
    0,
    0,
    0,
    0,
    0,
    0,
    0,
    0,
    0,
    0,
    0,
    0,
    0,
    0,
    0,
    0,
    0,
    0,
    0,
    0,
    0,
    0,
    0,
    0,
    0,
    0,
    0,
    0,
    0,
    0,
    0,
    0,
    0,
    0,
    0,
    0,
    0,
    0,
    0,
    0,
    0,
    0,
    0,
    0,
    0,
    0,
    0,
    0,
    0,
    0,
    0,
    0,
    0,
    0,
    0,
    0,
    0,
    0,
    0,
    0,
    0,
    0,
    0,
    0,
    0,
    0,
    0,
    0,
    0,
    0,
    0,
    0,
    0,
    0,
    0,
    0,
    0,
    0,
    0,
    0,
    0,
    0,
    0,
    0,
    0,
    0,
    0,
    0,
    0,
    0,
    0,
    0,
    0,
    0,
    0,
    0,
    0,
    0,
    0,
    0,
    0,
    0,
    0,
    0,
    0,
    0,
    0,
    0,
    0,
    0,
    0,
    0,
    0,
    0,
    0,
    0,
    0,
    0,
    0,
    0,
    0,
    0,
    0,
    0,
    0,
    0,
    0,
    0,
    0,
    0,
    0,
    0,
    0,
    0,
    0,
    0,
    0,
    0,
    0,
    70,
    0,
    0,
    0,
    0,
    0,
    0,
    0,
    0,
    0,
    0,
    0,
    0,
    0,
    0,
    69,
    0,
    0,
    0,
    0,
    0,
    0,
    0,
    0,
    0,
    0,
    0,
    0,
    0,
    0,
    0,
    0,
    0,
    0,
    0,
    0,
    0,
    70,
    0,
    0,
    0,
    0,
    0,
    0,
    0,
    0,
    0,
    0,
    0,
    70,
    0,
    0,
    0,
    0,
    0,
    0,
    0,
    0,
    0,
    0,
    0,
    0,
    0,
    0,
    0,
    0,
    0,
    0,
    0,
    0,
    0,
    0,
    0,
    0,
    0,
    0,
    0,
    0,
    0,
    0,
    0,
    0,
    0,
    0,
    0,
    0,
    0,
    0,
    0,
    0,
    0,
    0,
    0,
    0,
    0,
    0,
    70,
    0,
    0,
    0,
    0,
    0,
    0,
    0,
    0,
    0,
    0,
    0,
    0,
    69,
    0,
    0,
    0,
    0,
    0,
    0,
    0,
    0,
    0,
    0,
    0,
    0,
    0,
    0,
    0,
    0,
    0,
    0,
    0,
    0,
    0,
    0,
    0,
    0,
    0,
    0,
    0,
    0,
    0,
    0,
    0,
    0,
    0,
    0,
    0,
    0,
    0,
    0,
    0,
    0,
    0,
    0,
    0,
    0,
    0,
    0,
    0,
    0,
    0,
    0,
    0,
    0,
    0,
    0,
    0,
    0,
    70,
    0,
    0,
    0,
    0,
    0,
    0,
    0,
    0,
    0,
    0,
    0,
    0,
    0,
    0,
    0,
    0,
    0,
    0,
    0,
    0,
    0,
    0,
    0,
    0,
    0,
    0,
    0,
    0,
    0,
    0,
    0,
    0,
    0,
    0,
    0,
    0,
    0,
    0,
    0,
    0,
    0,
    0,
    0,
    0,
    0,
    0,
    0,
    0,
    0,
    69,
    0,
    0,
    0,
    0,
    0,
    0,
    0,
    0,
    69,
    0,
    0,
    0,
    0,
    0,
    0,
    0,
    0,
    0,
    0,
    0,
    0,
    0,
    0,
    0,
    0,
    0,
    0,
    0,
    0,
    0,
    0,
    0,
    0,
    0,
    0,
    0,
    0,
    0,
    0,
    0,
    0,
    0,
    0,
    0,
    0,
    0,
    0,
    0,
    0,
    0,
    0,
    0,
    0,
    0,
    0,
    0,
    0,
    0,
    0,
    0,
    0,
    0,
    0,
    0,
    0,
    0,
    0,
    0,
    0,
    0,
    0,
    0,
    0,
    0,
    0,
    0,
    0,
    0,
    0,
    0,
    0,
    0,
    0,
    0,
    0,
    0,
    0,
    0,
    0,
    0,
    0,
    0,
    0,
    0,
    0,
    0,
    0,
    0,
    0,
    0,
    0,
    0,
    0,
    0,
    0,
    0,
    0,
    0,
    0,
    0,
    0,
    0,
    0,
    0,
    0,
    0,
    0,
    0,
    0,
    0,
    0,
    70,
    0,
    0,
    0,
    0,
    0,
    0,
    0,
    0,
    0,
    0,
    0,
    0,
    0,
    0,
    0,
    0,
    0,
    0,
    0,
    0,
    0,
    0,
    0,
    0,
    0,
    0,
    0,
    0,
    0,
    0,
    0,
    0,
    0,
    0,
    0,
    0,
    0,
    0,
    0,
    0,
    0,
    0,
    0,
    0,
    0,
    0,
    0,
    0,
    0,
    0,
    0,
    0,
    0,
    0,
    0,
    0,
    0,
    0,
    0,
    0,
    0,
    0,
    0,
    0,
    0,
    0,
    0,
    0,
    0,
    0,
    0,
    0,
    0,
    0,
    0,
    0,
    0,
    0,
    0,
    0,
    0,
    0,
    0,
    0,
    0,
    0,
    0,
    0,
    0,
    0,
    0,
    0,
    0,
    0,
    0,
    0,
    0,
    0,
    0,
    0,
    0,
    0,
    0,
    0,
    0,
    0,
    0,
    0,
    0,
    0,
    0,
    0,
    0,
    0,
    0,
    0,
    0,
    0,
    0,
    0,
    0,
    0,
    0,
    0,
    0,
    0,
    0,
    0,
    0,
    0,
    0,
    0,
    0,
    0,
    0,
    0,
    0,
    0,
    0,
    0,
    0,
    0,
    0,
    0,
    0,
    0,
    0,
    0,
    0,
    0,
    0,
    0,
    0,
    0,
    0,
    0,
    0,
    0,
    0,
    0,
    0,
    0,
    0,
    0,
    0,
    0,
    0,
    0,
    0,
    0,
    0,
    0,
    0,
    0,
    0,
    0,
    0,
    0,
    0,
    0,
    0,
    0,
    0,
    0,
    0,
    0,
    0,
    0,
    0,
    0,
    0,
    0,
    0,
    0,
    0,
    0,
    0,
    0,
    0,
    0,
    0,
    0,
    0,
    0,
    0,
    0,
    0,
    0,
    0,
    0,
    0,
    0,
    0,
    0,
    0,
    0,
    0,
    0,
    0,
    0,
    0,
    0,
    0,
    0,
    0,
    0,
    0,
    0,
    0,
    0,
    0,
    0,
    0,
    0,
    0,
    0,
    0,
    0,
    0,
    0,
    0,
    0,
    0,
    0,
    0,
    0,
    0,
    0,
    0,
    0,
    0,
    0,
    0,
    0,
    0,
    0,
    0,
    0,
    0,
    0,
    0,
    0,
    0,
    0,
    0,
    0,
    0,
    0,
    0,
    0,
    0,
    0,
    0,
    0,
    0,
    0,
    0,
    0,
    0,
    0,
    0,
    0,
    0,
    0,
    0,
    0,
    0,
    0,
    0,
    0,
    0,
    0,
    0,
    0,
    0,
    0,
    0,
    0,
    0,
    0,
    0,
    0,
    0,
    0,
    0,
    0,
    0,
    0,
    0,
    0,
    0,
    0,
    0,
    0,
    0,
    0,
    0,
    0,
    0,
    0,
    0,
    0,
    0,
    0,
    0,
    0,
    0,
    0,
    0,
    0,
    0,
    0,
    0,
    0,
    0,
    0,
    0,
    0,
    0,
    0,
    0,
    0,
    0,
    0,
    0,
    0,
    0,
    0,
    0,
    0,
    0,
    0,
    0,
    0,
    0,
    0,
    0,
    0,
    0,
    0,
    0,
    0,
    0,
    0,
    0,
    0,
    0,
    0,
    0,
    0,
    0,
    0,
    0,
    0,
    0,
    0,
    0,
    0,
    0,
    0,
    0,
    0,
    0,
    0,
    0,
    0,
    0,
    0,
    0,
    0,
    0,
    0,
    0,
    0,
    0,
    0,
    0,
    0,
    0,
    0,
    0,
    0,
    0,
    0,
    0,
    0,
    0,
    0,
    0,
    0,
    0,
    0,
    0,
    0,
    0,
    0,
    0,
    0,
    0,
    0,
    0,
    0,
    0,
    0,
    0,
    0,
    0,
    0,
    0,
    0,
    0,
    0,
    0,
    0,
    0,
    0,
    0,
    0,
    0,
    0,
    0,
    0,
    0,
    0,
    0,
    0,
    0,
    0,
    0,
    0,
    0,
    0,
    0,
    0,
    0,
    0,
    0,
    0,
    0,
    13,
    13,
    13,
    13,
    13,
    13,
    13,
    13,
    13,
    13,
    13,
    13,
    13,
    13,
    13,
    13,
    13,
    13,
    13,
    13,
    13,
    13,
    13,
    13,
    13,
    13,
    13,
    13,
    13,
    13,
    13,
    13,
    13,
    13,
    13,
    13,
    13,
    13,
    13,
    13,
    13,
    13,
    13,
    13,
    13,
    13,
    13,
    13,
    13,
    13,
    13,
    13,
    13,
    13,
    13,
    13,
    13,
    13,
    13
   ],
   "properties": [
    {
     "name": "gv2layer",
     "type": "string",
     "value": "Collidables"
    },
    {
     "name": "z",
     "type": "int",
     "value": 5
    },
    {
     "name": "collision",
     "type": "bool",
     "value": false
    }
   ]
  },
  {
   "type": "objectgroup",
   "id": 4,
   "name": "Collidables \u00b7obj",
   "x": 0,
   "y": 0,
   "opacity": 1,
   "visible": true,
   "draworder": "index",
   "objects": [
    {
     "id": 1,
     "gid": 68,
     "name": "shrub-large-circle_0_0",
     "x": 1088,
     "y": 1344,
     "width": 128,
     "height": 128,
     "visible": true
    },
    {
     "id": 2,
     "gid": 68,
     "name": "shrub-large-circle_0_0",
     "x": 1152,
     "y": 2048,
     "width": 128,
     "height": 128,
     "visible": true
    },
    {
     "id": 3,
     "gid": 74,
     "name": "tree-1-base-shadow_0_0",
     "x": 1280,
     "y": 1920,
     "width": 128,
     "height": 128,
     "visible": true
    },
    {
     "id": 4,
     "gid": 78,
     "name": "tree-3-base-shadow_0_0",
     "x": 1408,
     "y": 1728,
     "width": 128,
     "height": 64,
     "visible": true
    },
    {
     "id": 5,
     "gid": 68,
     "name": "shrub-large-circle_0_0",
     "x": 1408,
     "y": 1920,
     "width": 128,
     "height": 128,
     "visible": true
    },
    {
     "id": 6,
     "gid": 66,
     "name": "seven-eleven_0_0",
     "x": 1536,
     "y": 256,
     "width": 192,
     "height": 256,
     "visible": true
    },
    {
     "id": 7,
     "gid": 76,
     "name": "tree-2-base-shadow_0_0",
     "x": 1600,
     "y": 1856,
     "width": 128,
     "height": 128,
     "visible": true
    },
    {
     "id": 8,
     "gid": 68,
     "name": "shrub-large-circle_0_0",
     "x": 1792,
     "y": 1472,
     "width": 128,
     "height": 128,
     "visible": true
    },
    {
     "id": 9,
     "gid": 74,
     "name": "tree-1-base-shadow_0_0",
     "x": 1856,
     "y": 1664,
     "width": 128,
     "height": 128,
     "visible": true
    },
    {
     "id": 10,
     "gid": 68,
     "name": "shrub-large-circle_0_0",
     "x": 1920,
     "y": 1152,
     "width": 128,
     "height": 128,
     "visible": true
    },
    {
     "id": 11,
     "gid": 78,
     "name": "tree-3-base-shadow_0_0",
     "x": 1984,
     "y": 1856,
     "width": 128,
     "height": 64,
     "visible": true
    },
    {
     "id": 12,
     "gid": 66,
     "name": "seven-eleven_0_0",
     "x": 2112,
     "y": 1344,
     "width": 192,
     "height": 256,
     "visible": true
    },
    {
     "id": 13,
     "gid": 54,
     "name": "red-pagoda-small-base_0_0",
     "x": 2176,
     "y": 704,
     "width": 128,
     "height": 192,
     "visible": true
    },
    {
     "id": 14,
     "gid": 54,
     "name": "red-pagoda-small-base_0_0",
     "x": 2176,
     "y": 960,
     "width": 128,
     "height": 192,
     "visible": true
    },
    {
     "id": 15,
     "gid": 54,
     "name": "red-pagoda-small-base_0_0",
     "x": 2176,
     "y": 448,
     "width": 128,
     "height": 192,
     "visible": true
    },
    {
     "id": 16,
     "gid": 78,
     "name": "tree-3-base-shadow_0_0",
     "x": 2304,
     "y": 1920,
     "width": 128,
     "height": 64,
     "visible": true
    },
    {
     "id": 17,
     "gid": 3,
     "name": "building-entrance-2_0_0",
     "x": 2432,
     "y": 0,
     "width": 192,
     "height": 64,
     "visible": true
    },
    {
     "id": 18,
     "gid": 68,
     "name": "shrub-large-circle_0_0",
     "x": 2432,
     "y": 1536,
     "width": 128,
     "height": 128,
     "visible": true
    },
    {
     "id": 19,
     "gid": 74,
     "name": "tree-1-base-shadow_0_0",
     "x": 2432,
     "y": 1664,
     "width": 128,
     "height": 128,
     "visible": true
    },
    {
     "id": 20,
     "gid": 72,
     "name": "torii-red-feet_0_0",
     "x": 2560,
     "y": 1280,
     "width": 256,
     "height": 128,
     "visible": true
    },
    {
     "id": 21,
     "gid": 67,
     "name": "shrine-building_0_0",
     "x": 2560,
     "y": 576,
     "width": 192,
     "height": 384,
     "visible": true
    },
    {
     "id": 22,
     "gid": 76,
     "name": "tree-2-base-shadow_0_0",
     "x": 2624,
     "y": 1920,
     "width": 128,
     "height": 128,
     "visible": true
    },
    {
     "id": 23,
     "gid": 68,
     "name": "shrub-large-circle_0_0",
     "x": 2816,
     "y": 1280,
     "width": 128,
     "height": 128,
     "visible": true
    },
    {
     "id": 24,
     "gid": 1,
     "name": "bell-closed-red-baseless_0_0",
     "x": 2944,
     "y": 640,
     "width": 128,
     "height": 128,
     "visible": true
    },
    {
     "id": 25,
     "gid": 71,
     "name": "tokyo-tower-feet",
     "x": 512,
     "y": 0,
     "width": 512,
     "height": 192,
     "visible": true
    }
   ],
   "properties": [
    {
     "name": "gv2layer",
     "type": "string",
     "value": "Collidables"
    },
    {
     "name": "z",
     "type": "int",
     "value": 5
    },
    {
     "name": "collision",
     "type": "bool",
     "value": false
    }
   ]
  },
  {
   "type": "tilelayer",
   "id": 5,
   "name": "Other",
   "width": 59,
   "height": 44,
   "x": 0,
   "y": 0,
   "opacity": 1,
   "visible": true,
   "data": [
    0,
    0,
    0,
    0,
    0,
    0,
    0,
    0,
    0,
    0,
    0,
    0,
    0,
    0,
    0,
    0,
    0,
    0,
    0,
    0,
    0,
    0,
    0,
    0,
    0,
    0,
    0,
    0,
    0,
    0,
    0,
    0,
    0,
    0,
    0,
    0,
    0,
    0,
    0,
    0,
    0,
    0,
    0,
    0,
    0,
    0,
    0,
    0,
    0,
    0,
    0,
    0,
    0,
    0,
    0,
    0,
    0,
    0,
    0,
    0,
    0,
    0,
    0,
    0,
    0,
    0,
    0,
    0,
    0,
    0,
    0,
    0,
    0,
    0,
    0,
    0,
    0,
    0,
    0,
    0,
    0,
    0,
    0,
    0,
    0,
    0,
    0,
    0,
    0,
    0,
    0,
    0,
    0,
    0,
    0,
    0,
    0,
    0,
    0,
    0,
    0,
    0,
    0,
    0,
    0,
    0,
    0,
    0,
    0,
    0,
    0,
    0,
    0,
    0,
    0,
    0,
    0,
    0,
    0,
    0,
    0,
    0,
    0,
    0,
    0,
    0,
    0,
    0,
    0,
    0,
    0,
    0,
    0,
    0,
    0,
    0,
    0,
    0,
    0,
    0,
    0,
    0,
    0,
    0,
    0,
    0,
    0,
    0,
    0,
    0,
    0,
    0,
    0,
    0,
    0,
    0,
    0,
    0,
    0,
    0,
    0,
    0,
    0,
    0,
    0,
    0,
    0,
    0,
    0,
    0,
    0,
    0,
    0,
    0,
    0,
    0,
    0,
    0,
    0,
    0,
    0,
    0,
    0,
    0,
    0,
    0,
    0,
    0,
    0,
    0,
    0,
    0,
    0,
    0,
    0,
    0,
    0,
    0,
    0,
    0,
    0,
    0,
    0,
    0,
    0,
    0,
    0,
    0,
    0,
    0,
    0,
    0,
    0,
    0,
    0,
    0,
    0,
    0,
    0,
    0,
    0,
    0,
    0,
    0,
    0,
    0,
    0,
    0,
    0,
    0,
    0,
    0,
    0,
    0,
    0,
    0,
    0,
    0,
    0,
    0,
    0,
    0,
    0,
    0,
    0,
    0,
    0,
    0,
    0,
    0,
    0,
    0,
    0,
    0,
    0,
    0,
    0,
    0,
    0,
    0,
    0,
    0,
    0,
    0,
    0,
    0,
    0,
    0,
    0,
    0,
    0,
    0,
    0,
    0,
    0,
    0,
    0,
    0,
    0,
    0,
    0,
    0,
    0,
    0,
    0,
    0,
    0,
    0,
    0,
    0,
    0,
    0,
    0,
    0,
    0,
    0,
    0,
    0,
    0,
    0,
    0,
    0,
    0,
    0,
    0,
    0,
    0,
    0,
    0,
    0,
    0,
    0,
    0,
    0,
    0,
    0,
    0,
    0,
    0,
    0,
    0,
    0,
    0,
    0,
    0,
    0,
    0,
    0,
    0,
    0,
    0,
    0,
    0,
    0,
    0,
    0,
    0,
    0,
    0,
    0,
    0,
    0,
    0,
    0,
    0,
    0,
    0,
    0,
    0,
    0,
    0,
    0,
    0,
    0,
    0,
    0,
    0,
    0,
    0,
    0,
    0,
    0,
    0,
    0,
    0,
    0,
    0,
    0,
    0,
    0,
    0,
    0,
    0,
    0,
    0,
    0,
    0,
    0,
    0,
    0,
    0,
    0,
    0,
    0,
    0,
    0,
    0,
    0,
    0,
    0,
    0,
    0,
    0,
    0,
    0,
    0,
    0,
    0,
    0,
    0,
    0,
    0,
    0,
    0,
    0,
    0,
    0,
    0,
    0,
    0,
    0,
    0,
    0,
    0,
    0,
    0,
    0,
    0,
    0,
    0,
    0,
    0,
    0,
    0,
    0,
    0,
    0,
    0,
    0,
    0,
    0,
    0,
    0,
    0,
    0,
    0,
    0,
    0,
    0,
    0,
    0,
    0,
    0,
    0,
    0,
    0,
    0,
    0,
    0,
    0,
    0,
    0,
    0,
    0,
    0,
    0,
    0,
    0,
    0,
    0,
    0,
    0,
    0,
    0,
    0,
    0,
    0,
    0,
    0,
    0,
    0,
    0,
    0,
    0,
    0,
    0,
    0,
    0,
    0,
    0,
    0,
    0,
    0,
    0,
    0,
    0,
    0,
    0,
    0,
    0,
    0,
    0,
    0,
    0,
    0,
    0,
    0,
    0,
    0,
    0,
    0,
    0,
    0,
    0,
    0,
    0,
    0,
    0,
    0,
    0,
    0,
    0,
    0,
    0,
    0,
    0,
    0,
    0,
    0,
    0,
    0,
    0,
    0,
    0,
    0,
    0,
    0,
    0,
    0,
    0,
    0,
    0,
    0,
    0,
    0,
    0,
    0,
    0,
    0,
    0,
    0,
    0,
    0,
    0,
    0,
    0,
    0,
    0,
    0,
    0,
    0,
    0,
    0,
    0,
    0,
    0,
    0,
    0,
    0,
    0,
    0,
    0,
    0,
    0,
    0,
    0,
    0,
    0,
    0,
    0,
    0,
    0,
    0,
    0,
    0,
    0,
    0,
    0,
    0,
    0,
    0,
    0,
    0,
    0,
    0,
    0,
    0,
    0,
    0,
    0,
    0,
    0,
    0,
    0,
    0,
    0,
    0,
    0,
    0,
    0,
    0,
    0,
    0,
    0,
    0,
    0,
    0,
    0,
    0,
    0,
    0,
    0,
    58,
    81,
    81,
    0,
    81,
    58,
    81,
    0,
    0,
    0,
    0,
    0,
    0,
    0,
    0,
    0,
    0,
    0,
    0,
    0,
    0,
    0,
    0,
    0,
    0,
    0,
    0,
    0,
    0,
    0,
    0,
    0,
    0,
    0,
    0,
    0,
    0,
    0,
    0,
    0,
    0,
    0,
    0,
    0,
    0,
    0,
    0,
    0,
    0,
    0,
    0,
    0,
    0,
    0,
    0,
    0,
    0,
    0,
    0,
    57,
    80,
    80,
    0,
    80,
    57,
    80,
    0,
    0,
    0,
    0,
    0,
    0,
    0,
    0,
    0,
    0,
    0,
    0,
    0,
    0,
    0,
    0,
    0,
    0,
    0,
    0,
    0,
    0,
    0,
    0,
    0,
    0,
    0,
    0,
    0,
    0,
    0,
    0,
    0,
    0,
    0,
    0,
    0,
    0,
    0,
    0,
    0,
    0,
    0,
    0,
    0,
    0,
    0,
    0,
    0,
    0,
    0,
    0,
    0,
    0,
    0,
    0,
    0,
    0,
    0,
    0,
    0,
    0,
    0,
    0,
    0,
    0,
    0,
    0,
    0,
    0,
    0,
    0,
    0,
    0,
    0,
    0,
    0,
    0,
    0,
    0,
    0,
    0,
    0,
    0,
    0,
    0,
    0,
    0,
    0,
    0,
    0,
    0,
    0,
    0,
    0,
    0,
    0,
    0,
    0,
    0,
    0,
    0,
    0,
    0,
    0,
    0,
    0,
    0,
    0,
    0,
    0,
    0,
    0,
    0,
    0,
    0,
    0,
    0,
    0,
    0,
    0,
    0,
    0,
    0,
    0,
    0,
    0,
    0,
    0,
    0,
    0,
    0,
    0,
    0,
    0,
    0,
    0,
    0,
    0,
    0,
    0,
    0,
    0,
    0,
    0,
    0,
    0,
    0,
    0,
    0,
    0,
    0,
    0,
    0,
    0,
    0,
    0,
    0,
    0,
    0,
    0,
    0,
    0,
    0,
    0,
    0,
    0,
    0,
    0,
    0,
    0,
    0,
    0,
    0,
    0,
    0,
    0,
    0,
    0,
    0,
    0,
    0,
    0,
    0,
    0,
    0,
    0,
    0,
    0,
    0,
    0,
    0,
    0,
    0,
    0,
    0,
    0,
    0,
    0,
    0,
    0,
    0,
    0,
    0,
    0,
    0,
    0,
    0,
    0,
    0,
    0,
    0,
    0,
    0,
    0,
    0,
    0,
    0,
    0,
    0,
    0,
    0,
    0,
    0,
    0,
    0,
    0,
    0,
    0,
    0,
    0,
    0,
    0,
    0,
    0,
    0,
    0,
    0,
    0,
    0,
    0,
    0,
    0,
    0,
    0,
    0,
    0,
    0,
    0,
    0,
    0,
    0,
    0,
    0,
    0,
    0,
    0,
    0,
    0,
    0,
    0,
    0,
    0,
    0,
    0,
    0,
    0,
    0,
    0,
    0,
    0,
    0,
    0,
    0,
    0,
    0,
    0,
    0,
    0,
    0,
    0,
    0,
    0,
    0,
    0,
    0,
    0,
    0,
    0,
    0,
    0,
    0,
    0,
    0,
    0,
    0,
    0,
    0,
    0,
    0,
    0,
    0,
    0,
    0,
    0,
    0,
    0,
    0,
    0,
    0,
    0,
    0,
    0,
    0,
    0,
    0,
    0,
    0,
    0,
    0,
    0,
    0,
    0,
    0,
    0,
    0,
    0,
    0,
    0,
    0,
    0,
    0,
    0,
    0,
    0,
    0,
    0,
    0,
    0,
    0,
    0,
    0,
    0,
    0,
    0,
    0,
    0,
    0,
    0,
    0,
    0,
    0,
    0,
    0,
    0,
    0,
    0,
    0,
    0,
    0,
    0,
    0,
    0,
    0,
    0,
    0,
    0,
    0,
    0,
    0,
    0,
    0,
    0,
    0,
    0,
    0,
    0,
    0,
    0,
    0,
    0,
    0,
    0,
    0,
    0,
    0,
    0,
    0,
    0,
    0,
    0,
    0,
    0,
    0,
    0,
    0,
    0,
    0,
    0,
    0,
    0,
    0,
    0,
    0,
    0,
    0,
    0,
    0,
    0,
    0,
    0,
    0,
    0,
    0,
    0,
    0,
    0,
    0,
    0,
    0,
    0,
    0,
    0,
    0,
    0,
    0,
    0,
    0,
    0,
    0,
    0,
    0,
    0,
    0,
    0,
    0,
    0,
    0,
    0,
    0,
    0,
    0,
    0,
    0,
    0,
    0,
    0,
    0,
    0,
    0,
    0,
    0,
    0,
    0,
    0,
    0,
    0,
    0,
    0,
    0,
    0,
    0,
    0,
    0,
    0,
    0,
    0,
    0,
    0,
    0,
    0,
    0,
    0,
    0,
    0,
    0,
    0,
    0,
    0,
    0,
    0,
    0,
    0,
    0,
    0,
    0,
    0,
    0,
    0,
    0,
    0,
    0,
    0,
    0,
    0,
    0,
    0,
    0,
    0,
    0,
    0,
    0,
    0,
    0,
    0,
    0,
    0,
    0,
    0,
    0,
    0,
    0,
    0,
    0,
    0,
    0,
    0,
    0,
    0,
    0,
    0,
    0,
    0,
    0,
    0,
    0,
    0,
    0,
    0,
    0,
    0,
    0,
    0,
    0,
    0,
    0,
    0,
    0,
    0,
    0,
    0,
    0,
    0,
    0,
    0,
    0,
    0,
    0,
    0,
    0,
    0,
    0,
    0,
    0,
    0,
    0,
    0,
    0,
    0,
    0,
    0,
    0,
    0,
    0,
    0,
    0,
    0,
    0,
    0,
    0,
    0,
    0,
    0,
    0,
    0,
    0,
    0,
    0,
    0,
    0,
    0,
    0,
    0,
    0,
    0,
    0,
    0,
    0,
    0,
    0,
    0,
    0,
    0,
    0,
    0,
    0,
    0,
    0,
    0,
    0,
    0,
    0,
    0,
    0,
    0,
    0,
    0,
    0,
    0,
    0,
    0,
    0,
    0,
    0,
    0,
    0,
    0,
    0,
    0,
    0,
    0,
    0,
    0,
    0,
    0,
    0,
    0,
    0,
    0,
    0,
    0,
    0,
    0,
    0,
    0,
    0,
    0,
    0,
    0,
    0,
    0,
    0,
    0,
    0,
    0,
    0,
    0,
    0,
    0,
    0,
    0,
    0,
    0,
    0,
    0,
    0,
    0,
    0,
    0,
    0,
    0,
    0,
    0,
    0,
    0,
    0,
    0,
    0,
    0,
    0,
    0,
    0,
    0,
    0,
    0,
    0,
    0,
    0,
    0,
    0,
    0,
    0,
    0,
    0,
    0,
    0,
    0,
    0,
    0,
    0,
    0,
    0,
    0,
    0,
    0,
    0,
    0,
    0,
    0,
    0,
    0,
    0,
    0,
    0,
    0,
    0,
    0,
    0,
    0,
    0,
    0,
    0,
    0,
    0,
    0,
    0,
    0,
    0,
    0,
    0,
    0,
    0,
    0,
    0,
    0,
    0,
    0,
    0,
    0,
    0,
    0,
    0,
    0,
    0,
    0,
    0,
    0,
    0,
    0,
    0,
    0,
    0,
    0,
    0,
    0,
    0,
    0,
    0,
    0,
    0,
    0,
    0,
    0,
    0,
    0,
    0,
    0,
    0,
    0,
    0,
    0,
    0,
    0,
    0,
    0,
    0,
    0,
    0,
    0,
    0,
    0,
    0,
    0,
    0,
    0,
    0,
    0,
    0,
    0,
    0,
    0,
    0,
    0,
    0,
    0,
    0,
    0,
    0,
    0,
    0,
    0,
    0,
    0,
    0,
    0,
    0,
    0,
    0,
    0,
    0,
    0,
    0,
    0,
    0,
    0,
    0,
    0,
    0,
    0,
    0,
    0,
    0,
    0,
    0,
    0,
    0,
    0,
    0,
    0,
    0,
    0,
    0,
    0,
    0,
    0,
    0,
    0,
    0,
    0,
    0,
    0,
    0,
    0,
    0,
    0,
    0,
    0,
    0,
    0,
    0,
    0,
    0,
    0,
    0,
    0,
    0,
    0,
    0,
    0,
    0,
    0,
    0,
    0,
    0,
    0,
    0,
    0,
    0,
    0,
    0,
    0,
    0,
    0,
    0,
    0,
    0,
    0,
    0,
    0,
    0,
    0,
    0,
    0,
    0,
    0,
    0,
    0,
    0,
    0,
    0,
    0,
    0,
    0,
    0,
    0,
    0,
    0,
    0,
    0,
    0,
    0,
    0,
    0,
    0,
    0,
    0,
    0,
    0,
    0,
    0,
    0,
    0,
    0,
    0,
    0,
    0,
    0,
    0,
    0,
    0,
    0,
    0,
    0,
    0,
    0,
    0,
    0,
    0,
    0,
    0,
    0,
    0,
    0,
    0,
    0,
    0,
    0,
    0,
    0,
    0,
    0,
    0,
    0,
    0,
    0,
    0,
    0,
    0,
    0,
    0,
    0,
    0,
    0,
    0,
    0,
    0,
    0,
    0,
    0,
    0,
    0,
    0,
    0,
    0,
    0,
    0,
    0,
    0,
    0,
    0,
    0,
    0,
    0,
    0,
    0,
    0,
    0,
    0,
    0,
    0,
    0,
    0,
    0,
    0,
    0,
    0,
    0,
    0,
    0,
    0,
    0,
    0,
    0,
    0,
    0,
    0,
    0,
    0,
    0,
    0,
    0,
    0,
    0,
    0,
    0,
    0,
    0,
    0,
    0,
    0,
    0,
    0,
    0,
    0,
    0,
    0,
    0,
    0,
    0,
    0,
    0,
    0,
    0,
    0,
    0,
    0,
    0,
    0,
    0,
    0,
    0,
    0,
    0,
    0,
    0,
    0,
    0,
    0,
    0,
    0,
    0,
    0,
    0,
    0,
    0,
    0,
    0,
    0,
    0,
    0,
    0,
    0,
    0,
    0,
    0,
    0,
    0,
    0,
    0,
    0,
    0,
    0,
    0,
    0,
    0,
    0,
    0,
    0,
    0,
    0,
    0,
    0,
    0,
    0,
    0,
    0,
    0,
    0,
    0,
    0,
    0,
    0,
    0,
    0,
    0,
    0,
    0,
    0,
    0,
    0,
    0,
    0,
    0,
    0,
    0,
    0,
    0,
    0,
    0,
    0,
    0,
    0,
    0,
    0,
    0,
    0,
    0,
    0,
    0,
    0,
    0,
    0,
    0,
    0,
    0,
    0,
    0,
    0,
    0,
    0,
    0,
    0,
    0,
    0,
    0,
    0,
    0,
    0,
    0,
    0,
    0,
    0,
    0,
    0,
    0,
    0,
    0,
    0,
    0,
    0,
    0,
    0,
    0,
    0,
    0,
    0,
    0,
    0,
    0,
    0,
    0,
    0,
    0,
    0,
    0,
    0,
    0,
    0,
    0,
    0,
    0,
    0,
    0,
    0,
    0,
    0,
    0,
    0,
    0,
    0,
    0,
    0,
    0,
    0,
    0,
    0,
    0,
    0,
    0,
    0,
    0,
    0,
    0,
    0,
    0,
    0,
    0,
    0,
    0,
    0,
    0,
    0,
    0,
    0,
    0,
    0,
    0,
    0,
    0,
    0,
    0,
    0,
    0,
    0,
    0,
    0,
    0,
    0,
    0,
    0,
    0,
    0,
    0,
    0,
    0,
    0,
    0,
    0,
    0,
    0,
    0,
    0,
    0,
    0,
    0,
    0,
    0,
    0,
    0,
    0,
    0,
    0,
    0,
    0,
    0,
    0,
    0,
    0,
    0,
    0,
    0,
    0,
    0,
    0,
    0,
    0,
    0,
    0,
    0,
    0,
    0,
    0,
    0,
    0,
    0,
    0,
    0,
    0,
    0,
    0,
    0,
    0,
    0,
    0,
    0,
    0,
    0,
    0,
    0,
    0,
    0,
    0,
    0,
    0,
    0,
    0,
    0,
    0,
    0,
    0,
    0,
    0,
    0,
    0,
    0,
    0,
    0,
    0,
    0,
    0,
    0,
    0,
    0,
    0,
    0,
    0,
    0,
    0,
    0,
    0,
    0,
    0,
    0,
    0,
    0,
    0,
    0,
    0,
    0,
    0,
    0,
    0,
    0,
    0,
    0,
    0,
    0,
    0,
    0,
    0,
    0,
    0,
    0,
    0,
    0,
    0,
    0,
    0,
    0,
    0,
    0,
    0,
    0,
    0,
    0,
    0,
    0,
    0,
    0,
    0,
    0,
    0,
    0,
    0,
    0,
    0,
    0,
    0,
    0,
    0,
    0,
    0,
    0,
    0,
    0,
    0,
    0,
    0,
    0,
    0,
    0,
    0,
    0,
    0,
    0,
    0,
    0,
    0,
    0,
    0,
    0,
    0,
    0,
    0,
    0,
    0,
    0,
    0,
    0,
    0,
    0,
    0,
    0,
    0,
    0,
    0,
    0,
    0,
    0,
    0,
    0,
    0,
    0,
    0,
    0,
    0,
    0,
    0,
    0,
    0,
    0,
    0,
    0,
    0,
    0,
    0,
    0,
    0,
    0,
    0,
    0,
    0,
    0,
    0,
    0,
    0,
    0,
    0,
    0,
    0,
    0,
    0,
    0,
    0,
    0,
    0,
    0,
    0,
    0,
    0,
    0,
    0,
    0,
    0,
    0,
    0,
    0,
    0,
    0,
    0,
    0,
    0,
    0,
    0,
    0,
    0,
    0,
    0,
    0,
    0,
    0,
    0,
    0,
    0,
    0,
    0,
    0,
    0,
    0,
    0,
    0,
    0,
    0,
    0,
    0,
    0,
    0,
    0,
    0,
    0,
    0,
    0,
    0,
    0,
    0,
    0,
    0,
    0,
    0,
    0,
    0,
    0,
    0,
    0,
    0,
    0,
    0,
    0,
    0,
    0,
    0,
    0,
    0,
    0,
    0,
    0,
    0,
    0,
    0,
    0,
    0,
    0,
    0,
    0,
    0,
    0,
    0,
    0,
    0,
    0,
    0,
    0,
    0,
    0,
    0,
    0,
    0,
    0,
    0,
    0,
    0,
    0,
    0,
    0,
    0,
    0,
    0,
    0,
    0,
    0,
    0,
    0,
    0,
    0,
    0,
    0,
    0,
    0,
    0,
    0,
    0,
    0,
    0,
    0,
    0,
    0,
    0,
    0,
    0,
    0,
    0,
    0,
    0,
    0,
    0,
    0,
    0,
    0,
    0,
    0,
    0,
    0,
    0,
    0,
    0,
    0,
    0,
    0,
    0,
    0,
    0,
    0,
    0,
    0,
    0,
    0,
    0,
    0,
    0,
    0,
    0,
    0,
    0,
    0,
    0,
    0,
    0,
    0,
    0,
    0,
    0,
    0,
    0,
    0,
    0,
    0,
    0,
    0,
    0,
    0,
    0,
    0,
    0,
    0,
    0,
    0,
    0,
    0,
    0,
    0,
    0,
    0,
    0,
    0,
    0,
    0,
    0,
    0,
    0,
    0,
    0,
    0,
    0,
    0,
    0,
    0,
    0,
    0,
    0,
    0,
    0,
    0,
    0,
    0,
    0,
    0,
    0,
    0,
    0,
    0,
    0,
    0,
    0,
    0,
    0,
    0,
    0,
    0,
    0,
    0,
    0,
    0,
    0,
    0,
    0,
    0,
    0,
    0,
    0,
    0,
    0,
    0,
    0,
    0,
    0,
    0,
    0,
    0,
    0,
    0,
    0,
    0,
    0,
    0,
    0,
    0,
    0,
    0,
    0,
    0,
    0,
    0,
    0,
    0,
    0,
    0,
    0,
    0,
    0,
    0,
    0,
    0,
    0,
    0,
    0,
    0,
    0,
    0,
    0,
    0,
    0,
    0,
    0,
    0,
    0,
    0,
    0,
    0,
    0,
    0,
    0,
    0,
    0,
    0,
    0,
    0,
    0,
    0,
    0,
    0,
    0,
    0,
    0,
    0,
    0,
    0,
    0,
    0,
    0,
    0,
    0,
    0,
    0,
    0,
    0,
    0,
    0,
    0,
    0,
    0,
    0,
    0,
    0,
    0,
    0,
    0,
    0,
    0,
    0,
    0,
    0,
    0,
    0,
    0,
    0,
    0,
    0,
    0,
    0,
    0,
    0,
    0,
    0,
    0,
    0,
    0,
    0,
    0,
    0,
    0,
    0,
    0,
    0,
    0,
    0,
    0,
    0,
    0,
    0,
    0,
    0,
    0,
    0,
    0,
    0,
    0,
    0,
    0,
    0,
    0,
    0,
    0,
    0,
    0,
    0,
    0,
    0,
    0,
    0,
    0,
    0,
    0,
    0,
    0,
    0,
    0,
    0,
    0,
    0,
    0,
    0,
    0,
    0,
    0,
    0,
    0,
    0,
    0,
    0,
    0,
    0,
    0,
    0,
    0,
    0,
    0,
    0,
    0,
    0,
    0,
    0,
    0,
    0,
    0,
    0,
    0,
    0,
    0,
    0,
    0,
    0,
    0,
    0,
    0,
    0,
    0,
    0,
    0,
    0,
    0,
    0,
    0,
    0,
    0,
    0,
    0,
    0,
    0,
    0,
    0,
    0,
    0,
    0,
    0,
    0,
    0,
    0,
    0,
    0,
    0,
    0,
    0,
    0,
    0,
    0,
    0,
    0,
    0,
    0,
    0,
    0,
    0,
    0,
    0,
    0,
    0,
    0,
    0,
    0,
    0,
    0,
    0,
    0,
    0,
    0,
    0,
    0,
    0,
    0,
    0,
    0,
    0,
    0,
    0,
    0,
    0,
    0,
    0,
    0,
    0,
    0,
    0,
    0,
    0,
    0,
    0,
    0,
    0,
    0,
    0,
    0,
    0,
    0,
    0,
    0,
    0,
    0,
    0
   ],
   "properties": [
    {
     "name": "gv2layer",
     "type": "string",
     "value": "Other"
    },
    {
     "name": "z",
     "type": "int",
     "value": 6
    },
    {
     "name": "collision",
     "type": "bool",
     "value": false
    }
   ]
  },
  {
   "type": "objectgroup",
   "id": 6,
   "name": "Tops \u00b7obj",
   "x": 0,
   "y": 0,
   "opacity": 1,
   "visible": true,
   "draworder": "index",
   "objects": [
    {
     "id": 26,
     "gid": 65,
     "name": "sakura-small_0_0",
     "x": 640,
     "y": 2112,
     "width": 64,
     "height": 128,
     "visible": true
    },
    {
     "id": 27,
     "gid": 65,
     "name": "sakura-small_0_0",
     "x": 704,
     "y": 1280,
     "width": 64,
     "height": 128,
     "visible": true
    },
    {
     "id": 28,
     "gid": 65,
     "name": "sakura-small_0_0",
     "x": 896,
     "y": 2112,
     "width": 64,
     "height": 128,
     "visible": true
    },
    {
     "id": 29,
     "gid": 65,
     "name": "sakura-small_0_0",
     "x": 1024,
     "y": 1408,
     "width": 64,
     "height": 128,
     "visible": true
    },
    {
     "id": 30,
     "gid": 65,
     "name": "sakura-small_0_0",
     "x": 1152,
     "y": 1600,
     "width": 64,
     "height": 128,
     "visible": true
    },
    {
     "id": 31,
     "gid": 65,
     "name": "sakura-small_0_0",
     "x": 1216,
     "y": 960,
     "width": 64,
     "height": 128,
     "visible": true
    },
    {
     "id": 32,
     "gid": 65,
     "name": "sakura-small_0_0",
     "x": 1216,
     "y": 384,
     "width": 64,
     "height": 128,
     "visible": true
    },
    {
     "id": 33,
     "gid": 65,
     "name": "sakura-small_0_0",
     "x": 1280,
     "y": 1664,
     "width": 64,
     "height": 128,
     "visible": true
    },
    {
     "id": 34,
     "gid": 75,
     "name": "tree-1-top_0_0",
     "x": 1280,
     "y": 1856,
     "width": 128,
     "height": 64,
     "visible": true
    },
    {
     "id": 35,
     "gid": 65,
     "name": "sakura-small_0_0",
     "x": 1344,
     "y": 768,
     "width": 64,
     "height": 128,
     "visible": true
    },
    {
     "id": 36,
     "gid": 79,
     "name": "tree-3-top_0_0",
     "x": 1408,
     "y": 1600,
     "width": 128,
     "height": 128,
     "visible": true
    },
    {
     "id": 37,
     "gid": 65,
     "name": "sakura-small_0_0",
     "x": 1536,
     "y": 1216,
     "width": 64,
     "height": 128,
     "visible": true
    },
    {
     "id": 38,
     "gid": 77,
     "name": "tree-2-top_0_0",
     "x": 1600,
     "y": 1792,
     "width": 128,
     "height": 64,
     "visible": true
    },
    {
     "id": 39,
     "gid": 65,
     "name": "sakura-small_0_0",
     "x": 1728,
     "y": 1152,
     "width": 64,
     "height": 128,
     "visible": true
    },
    {
     "id": 40,
     "gid": 65,
     "name": "sakura-small_0_0",
     "x": 1792,
     "y": 1664,
     "width": 64,
     "height": 128,
     "visible": true
    },
    {
     "id": 41,
     "gid": 75,
     "name": "tree-1-top_0_0",
     "x": 1856,
     "y": 1600,
     "width": 128,
     "height": 64,
     "visible": true
    },
    {
     "id": 42,
     "gid": 65,
     "name": "sakura-small_0_0",
     "x": 1920,
     "y": 896,
     "width": 64,
     "height": 128,
     "visible": true
    },
    {
     "id": 43,
     "gid": 79,
     "name": "tree-3-top_0_0",
     "x": 1984,
     "y": 1728,
     "width": 128,
     "height": 128,
     "visible": true
    },
    {
     "id": 44,
     "gid": 65,
     "name": "sakura-small_0_0",
     "x": 2048,
     "y": 1152,
     "width": 64,
     "height": 128,
     "visible": true
    },
    {
     "id": 45,
     "gid": 65,
     "name": "sakura-small_0_0",
     "x": 2048,
     "y": 384,
     "width": 64,
     "height": 128,
     "visible": true
    },
    {
     "id": 46,
     "gid": 55,
     "name": "red-pagoda-small-top_0_0",
     "x": 2176,
     "y": 768,
     "width": 128,
     "height": 192,
     "visible": true
    },
    {
     "id": 47,
     "gid": 65,
     "name": "sakura-small_0_0",
     "x": 2176,
     "y": 1856,
     "width": 64,
     "height": 128,
     "visible": true
    },
    {
     "id": 48,
     "gid": 55,
     "name": "red-pagoda-small-top_0_0",
     "x": 2176,
     "y": 256,
     "width": 128,
     "height": 192,
     "visible": true
    },
    {
     "id": 49,
     "gid": 55,
     "name": "red-pagoda-small-top_0_0",
     "x": 2176,
     "y": 512,
     "width": 128,
     "height": 192,
     "visible": true
    },
    {
     "id": 50,
     "gid": 65,
     "name": "sakura-small_0_0",
     "x": 2304,
     "y": 1152,
     "width": 64,
     "height": 128,
     "visible": true
    },
    {
     "id": 51,
     "gid": 79,
     "name": "tree-3-top_0_0",
     "x": 2304,
     "y": 1792,
     "width": 128,
     "height": 128,
     "visible": true
    },
    {
     "id": 52,
     "gid": 75,
     "name": "tree-1-top_0_0",
     "x": 2432,
     "y": 1600,
     "width": 128,
     "height": 64,
     "visible": true
    },
    {
     "id": 53,
     "gid": 73,
     "name": "torii-red-top_0_0",
     "x": 2496,
     "y": 1088,
     "width": 384,
     "height": 192,
     "visible": true
    },
    {
     "id": 54,
     "gid": 65,
     "name": "sakura-small_0_0",
     "x": 2496,
     "y": 1856,
     "width": 64,
     "height": 128,
     "visible": true
    },
    {
     "id": 55,
     "gid": 56,
     "name": "red-shrine-top_0_0",
     "x": 2496,
     "y": 448,
     "width": 320,
     "height": 384,
     "visible": true
    },
    {
     "id": 56,
     "gid": 77,
     "name": "tree-2-top_0_0",
     "x": 2624,
     "y": 1856,
     "width": 128,
     "height": 64,
     "visible": true
    },
    {
     "id": 57,
     "gid": 65,
     "name": "sakura-small_0_0",
     "x": 2752,
     "y": 1664,
     "width": 64,
     "height": 128,
     "visible": true
    },
    {
     "id": 58,
     "gid": 65,
     "name": "sakura-small_0_0",
     "x": 2880,
     "y": 1152,
     "width": 64,
     "height": 128,
     "visible": true
    },
    {
     "id": 59,
     "gid": 2,
     "name": "bell-red-top_0_0",
     "x": 2944,
     "y": 512,
     "width": 128,
     "height": 128,
     "visible": true
    },
    {
     "id": 60,
     "gid": 65,
     "name": "sakura-small_0_0",
     "x": 320,
     "y": 960,
     "width": 64,
     "height": 128,
     "visible": true
    },
    {
     "id": 61,
     "gid": 65,
     "name": "sakura-small_0_0",
     "x": 320,
     "y": 448,
     "width": 64,
     "height": 128,
     "visible": true
    },
    {
     "id": 62,
     "gid": 65,
     "name": "sakura-small_0_0",
     "x": 3200,
     "y": 1152,
     "width": 64,
     "height": 128,
     "visible": true
    },
    {
     "id": 63,
     "gid": 65,
     "name": "sakura-small_0_0",
     "x": 3200,
     "y": 320,
     "width": 64,
     "height": 128,
     "visible": true
    },
    {
     "id": 64,
     "gid": 65,
     "name": "sakura-small_0_0",
     "x": 384,
     "y": 1600,
     "width": 64,
     "height": 128,
     "visible": true
    },
    {
     "id": 65,
     "gid": 65,
     "name": "sakura-small_0_0",
     "x": 448,
     "y": 1472,
     "width": 64,
     "height": 128,
     "visible": true
    },
    {
     "id": 66,
     "gid": 65,
     "name": "sakura-small_0_0",
     "x": 448,
     "y": 1984,
     "width": 64,
     "height": 128,
     "visible": true
    }
   ],
   "properties": [
    {
     "name": "gv2layer",
     "type": "string",
     "value": "Tops"
    },
    {
     "name": "z",
     "type": "int",
     "value": 7
    },
    {
     "name": "collision",
     "type": "bool",
     "value": false
    }
   ]
  },
  {
   "type": "tilelayer",
   "id": 7,
   "name": "Colliders",
   "width": 59,
   "height": 44,
   "x": 0,
   "y": 0,
   "opacity": 1,
   "visible": true,
   "data": [
    0,
    0,
    0,
    0,
    0,
    0,
    0,
    0,
    0,
    23,
    23,
    23,
    23,
    23,
    23,
    0,
    0,
    0,
    0,
    0,
    0,
    0,
    0,
    0,
    0,
    0,
    0,
    0,
    0,
    0,
    0,
    0,
    0,
    0,
    0,
    0,
    0,
    0,
    23,
    0,
    23,
    0,
    0,
    0,
    0,
    0,
    0,
    0,
    0,
    0,
    0,
    0,
    0,
    0,
    0,
    0,
    0,
    0,
    0,
    0,
    0,
    0,
    0,
    0,
    0,
    0,
    0,
    23,
    23,
    0,
    0,
    0,
    0,
    23,
    23,
    0,
    0,
    0,
    0,
    0,
    0,
    0,
    0,
    0,
    0,
    0,
    0,
    0,
    0,
    0,
    0,
    0,
    0,
    0,
    0,
    0,
    0,
    0,
    0,
    0,
    0,
    0,
    0,
    0,
    0,
    0,
    0,
    0,
    0,
    0,
    0,
    0,
    0,
    0,
    0,
    0,
    0,
    0,
    0,
    0,
    0,
    0,
    0,
    0,
    0,
    0,
    23,
    0,
    0,
    0,
    0,
    0,
    0,
    23,
    0,
    0,
    0,
    0,
    0,
    0,
    0,
    0,
    0,
    0,
    0,
    0,
    0,
    0,
    0,
    0,
    0,
    0,
    0,
    0,
    0,
    0,
    0,
    0,
    0,
    0,
    0,
    0,
    0,
    0,
    0,
    0,
    0,
    0,
    0,
    0,
    0,
    0,
    0,
    0,
    0,
    0,
    0,
    0,
    0,
    0,
    0,
    0,
    0,
    0,
    0,
    0,
    0,
    0,
    0,
    0,
    0,
    0,
    0,
    0,
    0,
    0,
    0,
    0,
    0,
    0,
    0,
    0,
    0,
    0,
    0,
    0,
    0,
    0,
    0,
    0,
    0,
    0,
    0,
    0,
    0,
    0,
    0,
    0,
    0,
    0,
    0,
    0,
    0,
    0,
    0,
    0,
    0,
    0,
    0,
    0,
    0,
    0,
    0,
    0,
    0,
    0,
    0,
    0,
    0,
    0,
    0,
    0,
    0,
    0,
    0,
    0,
    0,
    0,
    0,
    0,
    0,
    0,
    0,
    0,
    0,
    0,
    0,
    0,
    0,
    0,
    23,
    23,
    23,
    0,
    0,
    0,
    0,
    0,
    0,
    0,
    23,
    23,
    0,
    0,
    0,
    0,
    0,
    0,
    0,
    0,
    0,
    0,
    0,
    0,
    0,
    0,
    0,
    0,
    0,
    0,
    0,
    0,
    0,
    0,
    0,
    0,
    0,
    0,
    0,
    0,
    0,
    0,
    0,
    0,
    0,
    0,
    0,
    0,
    0,
    0,
    0,
    0,
    0,
    0,
    0,
    0,
    0,
    0,
    0,
    23,
    23,
    23,
    0,
    0,
    0,
    0,
    0,
    0,
    0,
    23,
    23,
    0,
    0,
    0,
    0,
    0,
    0,
    0,
    0,
    0,
    0,
    0,
    0,
    0,
    0,
    0,
    0,
    0,
    0,
    0,
    0,
    0,
    0,
    0,
    0,
    0,
    0,
    0,
    0,
    0,
    0,
    0,
    0,
    0,
    0,
    0,
    0,
    0,
    0,
    0,
    0,
    0,
    0,
    0,
    0,
    0,
    0,
    0,
    23,
    23,
    23,
    0,
    0,
    0,
    0,
    0,
    0,
    0,
    23,
    23,
    0,
    0,
    0,
    0,
    0,
    0,
    0,
    23,
    0,
    0,
    0,
    0,
    23,
    0,
    23,
    0,
    0,
    0,
    0,
    0,
    0,
    0,
    0,
    0,
    0,
    0,
    0,
    0,
    0,
    0,
    0,
    0,
    0,
    0,
    0,
    0,
    0,
    0,
    0,
    0,
    0,
    0,
    23,
    0,
    0,
    0,
    0,
    23,
    0,
    23,
    0,
    0,
    0,
    0,
    0,
    23,
    0,
    23,
    23,
    0,
    0,
    0,
    0,
    0,
    0,
    0,
    0,
    0,
    0,
    0,
    0,
    0,
    0,
    0,
    0,
    0,
    0,
    0,
    0,
    0,
    0,
    0,
    0,
    0,
    0,
    0,
    0,
    23,
    0,
    0,
    0,
    0,
    0,
    0,
    0,
    0,
    0,
    0,
    0,
    0,
    0,
    0,
    0,
    0,
    0,
    0,
    0,
    0,
    0,
    0,
    0,
    0,
    0,
    0,
    0,
    0,
    23,
    23,
    0,
    0,
    0,
    0,
    0,
    0,
    0,
    0,
    0,
    0,
    0,
    0,
    0,
    0,
    0,
    0,
    0,
    0,
    0,
    0,
    0,
    0,
    0,
    0,
    0,
    0,
    0,
    0,
    0,
    0,
    0,
    0,
    0,
    0,
    0,
    0,
    0,
    0,
    0,
    0,
    0,
    0,
    0,
    0,
    0,
    0,
    0,
    0,
    0,
    0,
    0,
    0,
    0,
    0,
    0,
    0,
    0,
    23,
    23,
    0,
    0,
    0,
    0,
    23,
    23,
    23,
    0,
    0,
    0,
    0,
    0,
    0,
    0,
    23,
    0,
    0,
    0,
    0,
    0,
    0,
    0,
    0,
    0,
    0,
    0,
    0,
    0,
    0,
    0,
    0,
    0,
    0,
    0,
    0,
    0,
    0,
    0,
    0,
    0,
    0,
    0,
    0,
    0,
    23,
    23,
    23,
    0,
    0,
    0,
    23,
    23,
    23,
    0,
    0,
    0,
    0,
    23,
    23,
    0,
    0,
    0,
    0,
    23,
    23,
    23,
    0,
    0,
    0,
    23,
    23,
    0,
    0,
    0,
    0,
    0,
    0,
    0,
    0,
    0,
    0,
    0,
    0,
    0,
    0,
    0,
    0,
    0,
    0,
    0,
    0,
    0,
    0,
    0,
    0,
    0,
    0,
    0,
    0,
    0,
    0,
    0,
    0,
    0,
    0,
    0,
    0,
    0,
    0,
    0,
    0,
    0,
    0,
    0,
    0,
    0,
    23,
    23,
    0,
    0,
    0,
    0,
    23,
    23,
    23,
    0,
    0,
    0,
    23,
    23,
    0,
    0,
    0,
    0,
    0,
    0,
    0,
    0,
    0,
    0,
    0,
    0,
    0,
    0,
    0,
    0,
    0,
    0,
    0,
    0,
    0,
    0,
    0,
    0,
    0,
    0,
    0,
    0,
    0,
    0,
    0,
    0,
    0,
    0,
    0,
    0,
    0,
    0,
    0,
    0,
    0,
    0,
    0,
    0,
    0,
    23,
    23,
    0,
    0,
    0,
    0,
    23,
    23,
    23,
    0,
    0,
    0,
    0,
    0,
    0,
    0,
    0,
    0,
    0,
    0,
    0,
    0,
    0,
    0,
    0,
    0,
    0,
    0,
    0,
    0,
    0,
    0,
    0,
    0,
    0,
    0,
    0,
    0,
    0,
    0,
    0,
    0,
    0,
    0,
    0,
    0,
    23,
    0,
    0,
    0,
    0,
    0,
    0,
    0,
    0,
    0,
    0,
    23,
    0,
    23,
    23,
    0,
    0,
    0,
    0,
    23,
    0,
    23,
    0,
    0,
    0,
    0,
    0,
    0,
    0,
    23,
    0,
    0,
    0,
    0,
    0,
    0,
    0,
    0,
    0,
    0,
    0,
    0,
    0,
    0,
    0,
    0,
    0,
    0,
    0,
    0,
    0,
    0,
    0,
    0,
    0,
    0,
    0,
    0,
    0,
    23,
    0,
    0,
    0,
    0,
    0,
    0,
    0,
    0,
    0,
    0,
    0,
    0,
    23,
    23,
    0,
    0,
    0,
    0,
    0,
    0,
    0,
    0,
    0,
    0,
    0,
    0,
    0,
    0,
    0,
    0,
    0,
    0,
    0,
    0,
    0,
    0,
    0,
    0,
    0,
    0,
    0,
    0,
    0,
    0,
    0,
    0,
    0,
    0,
    0,
    0,
    0,
    0,
    0,
    0,
    0,
    0,
    0,
    0,
    0,
    0,
    0,
    0,
    0,
    0,
    0,
    0,
    0,
    23,
    0,
    0,
    0,
    23,
    23,
    0,
    0,
    0,
    0,
    0,
    0,
    0,
    0,
    0,
    0,
    0,
    0,
    0,
    0,
    0,
    0,
    0,
    0,
    0,
    0,
    0,
    0,
    0,
    0,
    0,
    0,
    0,
    0,
    23,
    0,
    0,
    0,
    0,
    0,
    0,
    0,
    0,
    0,
    0,
    0,
    0,
    0,
    23,
    0,
    0,
    0,
    0,
    0,
    0,
    0,
    0,
    0,
    0,
    0,
    0,
    0,
    0,
    23,
    23,
    0,
    0,
    0,
    0,
    0,
    0,
    0,
    0,
    0,
    0,
    0,
    0,
    0,
    0,
    0,
    0,
    0,
    0,
    0,
    0,
    0,
    0,
    0,
    0,
    0,
    0,
    0,
    0,
    0,
    0,
    0,
    0,
    0,
    0,
    0,
    0,
    0,
    0,
    0,
    0,
    0,
    0,
    0,
    0,
    0,
    0,
    0,
    0,
    0,
    0,
    0,
    0,
    0,
    0,
    0,
    0,
    0,
    23,
    23,
    0,
    0,
    0,
    0,
    0,
    0,
    0,
    0,
    0,
    0,
    0,
    0,
    0,
    0,
    0,
    0,
    0,
    0,
    0,
    0,
    0,
    0,
    0,
    0,
    0,
    0,
    0,
    0,
    0,
    0,
    0,
    0,
    0,
    0,
    0,
    0,
    0,
    0,
    0,
    0,
    0,
    0,
    23,
    0,
    0,
    23,
    0,
    0,
    0,
    0,
    0,
    0,
    0,
    23,
    23,
    0,
    0,
    0,
    0,
    0,
    0,
    0,
    0,
    0,
    0,
    0,
    0,
    0,
    0,
    0,
    0,
    0,
    0,
    0,
    0,
    0,
    0,
    0,
    0,
    0,
    0,
    0,
    0,
    0,
    0,
    0,
    0,
    0,
    0,
    0,
    0,
    0,
    0,
    0,
    0,
    0,
    0,
    0,
    0,
    0,
    0,
    0,
    0,
    0,
    0,
    0,
    0,
    0,
    0,
    23,
    0,
    0,
    23,
    23,
    23,
    0,
    0,
    0,
    23,
    0,
    0,
    0,
    0,
    0,
    0,
    0,
    0,
    23,
    0,
    23,
    0,
    0,
    23,
    0,
    0,
    0,
    0,
    0,
    0,
    0,
    0,
    0,
    0,
    0,
    0,
    0,
    0,
    0,
    0,
    0,
    0,
    0,
    0,
    0,
    0,
    0,
    0,
    0,
    0,
    0,
    0,
    0,
    0,
    0,
    0,
    23,
    0,
    0,
    0,
    0,
    0,
    0,
    0,
    0,
    0,
    0,
    0,
    0,
    0,
    0,
    0,
    0,
    0,
    0,
    0,
    23,
    23,
    0,
    0,
    0,
    0,
    0,
    0,
    0,
    0,
    0,
    0,
    0,
    0,
    0,
    0,
    0,
    0,
    0,
    0,
    0,
    0,
    0,
    0,
    0,
    23,
    23,
    0,
    23,
    0,
    0,
    0,
    23,
    23,
    0,
    0,
    0,
    0,
    0,
    0,
    0,
    0,
    23,
    0,
    0,
    0,
    0,
    0,
    23,
    23,
    23,
    0,
    0,
    0,
    0,
    23,
    0,
    0,
    23,
    23,
    23,
    0,
    0,
    0,
    0,
    0,
    0,
    0,
    0,
    0,
    0,
    0,
    0,
    0,
    0,
    0,
    0,
    0,
    0,
    0,
    0,
    0,
    0,
    0,
    0,
    0,
    0,
    0,
    0,
    23,
    0,
    23,
    23,
    0,
    0,
    0,
    0,
    0,
    0,
    0,
    0,
    0,
    0,
    0,
    0,
    0,
    0,
    23,
    23,
    23,
    0,
    0,
    0,
    0,
    0,
    0,
    0,
    0,
    0,
    0,
    0,
    0,
    0,
    0,
    0,
    0,
    0,
    0,
    0,
    0,
    0,
    0,
    0,
    0,
    0,
    0,
    0,
    0,
    0,
    0,
    0,
    0,
    0,
    0,
    0,
    0,
    0,
    0,
    0,
    23,
    0,
    0,
    0,
    0,
    0,
    0,
    0,
    0,
    0,
    0,
    0,
    23,
    23,
    0,
    0,
    0,
    23,
    23,
    23,
    0,
    0,
    0,
    0,
    0,
    0,
    0,
    0,
    0,
    0,
    0,
    0,
    0,
    0,
    0,
    0,
    0,
    0,
    0,
    0,
    0,
    0,
    0,
    0,
    0,
    0,
    0,
    0,
    0,
    0,
    23,
    0,
    0,
    0,
    0,
    0,
    0,
    0,
    0,
    0,
    23,
    0,
    0,
    0,
    0,
    0,
    0,
    23,
    0,
    0,
    0,
    23,
    23,
    0,
    0,
    0,
    23,
    0,
    23,
    0,
    0,
    23,
    23,
    0,
    0,
    0,
    0,
    0,
    0,
    0,
    0,
    0,
    0,
    0,
    0,
    0,
    0,
    0,
    0,
    0,
    0,
    0,
    0,
    0,
    0,
    0,
    0,
    0,
    0,
    0,
    0,
    0,
    0,
    0,
    0,
    0,
    0,
    0,
    0,
    0,
    0,
    0,
    0,
    0,
    0,
    0,
    0,
    0,
    0,
    0,
    0,
    0,
    0,
    0,
    0,
    0,
    0,
    0,
    0,
    0,
    23,
    23,
    0,
    0,
    0,
    0,
    0,
    0,
    0,
    0,
    0,
    0,
    0,
    0,
    0,
    0,
    0,
    0,
    0,
    0,
    0,
    0,
    0,
    0,
    0,
    0,
    0,
    23,
    0,
    0,
    0,
    0,
    0,
    0,
    0,
    0,
    0,
    0,
    0,
    23,
    0,
    0,
    0,
    0,
    0,
    0,
    0,
    0,
    0,
    0,
    23,
    23,
    0,
    0,
    0,
    0,
    0,
    0,
    0,
    23,
    23,
    23,
    0,
    0,
    0,
    0,
    0,
    0,
    0,
    0,
    0,
    0,
    0,
    0,
    0,
    0,
    0,
    0,
    0,
    0,
    0,
    0,
    0,
    0,
    0,
    0,
    0,
    0,
    0,
    0,
    0,
    0,
    0,
    0,
    0,
    0,
    0,
    0,
    0,
    0,
    23,
    0,
    23,
    23,
    0,
    0,
    0,
    0,
    23,
    23,
    23,
    0,
    0,
    0,
    0,
    0,
    0,
    0,
    23,
    23,
    0,
    0,
    0,
    23,
    0,
    0,
    0,
    0,
    0,
    0,
    0,
    0,
    0,
    0,
    0,
    0,
    0,
    0,
    0,
    0,
    0,
    0,
    0,
    0,
    0,
    0,
    0,
    0,
    0,
    0,
    0,
    0,
    0,
    0,
    0,
    0,
    0,
    0,
    0,
    0,
    0,
    0,
    0,
    0,
    0,
    0,
    0,
    0,
    0,
    0,
    0,
    0,
    0,
    0,
    0,
    0,
    0,
    0,
    0,
    0,
    0,
    0,
    0,
    0,
    0,
    0,
    0,
    0,
    0,
    0,
    0,
    0,
    0,
    0,
    0,
    0,
    0,
    0,
    0,
    0,
    0,
    0,
    0,
    0,
    0,
    0,
    0,
    0,
    0,
    0,
    0,
    0,
    0,
    0,
    0,
    0,
    0,
    0,
    0,
    0,
    0,
    0,
    0,
    23,
    23,
    0,
    23,
    0,
    0,
    23,
    23,
    0,
    0,
    0,
    0,
    0,
    0,
    0,
    0,
    0,
    0,
    23,
    0,
    0,
    0,
    0,
    0,
    0,
    0,
    0,
    0,
    0,
    0,
    0,
    0,
    0,
    0,
    0,
    0,
    0,
    0,
    0,
    0,
    23,
    0,
    0,
    0,
    0,
    0,
    0,
    0,
    0,
    0,
    0,
    0,
    23,
    0,
    23,
    23,
    23,
    23,
    0,
    23,
    23,
    0,
    0,
    0,
    0,
    0,
    0,
    0,
    23,
    0,
    23,
    23,
    0,
    23,
    0,
    23,
    23,
    0,
    0,
    0,
    0,
    0,
    0,
    0,
    0,
    0,
    0,
    0,
    0,
    0,
    0,
    0,
    0,
    0,
    0,
    0,
    0,
    0,
    0,
    23,
    0,
    0,
    0,
    0,
    0,
    0,
    0,
    0,
    0,
    0,
    0,
    0,
    23,
    23,
    23,
    23,
    23,
    0,
    0,
    0,
    0,
    0,
    0,
    0,
    0,
    0,
    0,
    0,
    0,
    0,
    0,
    0,
    0,
    0,
    23,
    23,
    0,
    0,
    0,
    0,
    0,
    0,
    0,
    0,
    0,
    0,
    0,
    0,
    0,
    0,
    0,
    0,
    0,
    0,
    0,
    0,
    0,
    0,
    0,
    23,
    0,
    0,
    0,
    0,
    0,
    0,
    0,
    0,
    0,
    23,
    23,
    23,
    0,
    0,
    0,
    0,
    0,
    0,
    0,
    0,
    0,
    0,
    0,
    0,
    0,
    0,
    0,
    0,
    0,
    0,
    0,
    0,
    0,
    0,
    0,
    0,
    0,
    0,
    0,
    0,
    0,
    0,
    0,
    0,
    0,
    0,
    0,
    0,
    0,
    0,
    0,
    0,
    0,
    0,
    0,
    0,
    0,
    0,
    0,
    23,
    0,
    0,
    0,
    0,
    0,
    0,
    0,
    0,
    23,
    23,
    23,
    0,
    0,
    0,
    0,
    0,
    0,
    0,
    0,
    0,
    0,
    0,
    0,
    0,
    0,
    0,
    0,
    0,
    0,
    0,
    0,
    0,
    0,
    0,
    0,
    0,
    0,
    0,
    0,
    0,
    0,
    0,
    0,
    0,
    0,
    0,
    0,
    0,
    0,
    0,
    0,
    0,
    0,
    0,
    0,
    0,
    0,
    0,
    0,
    0,
    23,
    0,
    0,
    0,
    23,
    0,
    0,
    0,
    0,
    0,
    0,
    0,
    0,
    0,
    0,
    0,
    0,
    0,
    0,
    0,
    0,
    0,
    0,
    0,
    0,
    0,
    0,
    0,
    0,
    0,
    0,
    0,
    0,
    0,
    0,
    0,
    0,
    0,
    0,
    0,
    0,
    0,
    0,
    0,
    0,
    0,
    0,
    0,
    0,
    0,
    0,
    0,
    0,
    0,
    0,
    0,
    0,
    0,
    0,
    0,
    0,
    23,
    0,
    0,
    0,
    0,
    0,
    0,
    0,
    0,
    0,
    0,
    0,
    0,
    0,
    0,
    0,
    0,
    0,
    0,
    0,
    0,
    0,
    0,
    0,
    0,
    0,
    0,
    0,
    0,
    0,
    0,
    0,
    0,
    0,
    0,
    0,
    0,
    0,
    0,
    0,
    0,
    0,
    0,
    0,
    0,
    0,
    0,
    0,
    0,
    0,
    0,
    0,
    0,
    0,
    0,
    0,
    0,
    0,
    0,
    0,
    0,
    0,
    0,
    0,
    0,
    0,
    0,
    0,
    0,
    0,
    0,
    0,
    0,
    0,
    0,
    0,
    0,
    0,
    0,
    0,
    0,
    0,
    0,
    0,
    0,
    0,
    0,
    0,
    0,
    0,
    0,
    0,
    0,
    0,
    0,
    0,
    0,
    0,
    0,
    0,
    0,
    0,
    0,
    0,
    0,
    0,
    0,
    0,
    0,
    0,
    0,
    0,
    0,
    0,
    0,
    0,
    0,
    0,
    0,
    0,
    0,
    0,
    0,
    0,
    0,
    0,
    0,
    0,
    0,
    0,
    0,
    0,
    0,
    0,
    0,
    0,
    0,
    0,
    0,
    0,
    0,
    0,
    0,
    0,
    0,
    0,
    0,
    0,
    0,
    0,
    0,
    0,
    0,
    0,
    0,
    0,
    0,
    0,
    0,
    0,
    0,
    0,
    0,
    0,
    0,
    0,
    0,
    0,
    0,
    0,
    0,
    0,
    0,
    0,
    0,
    0,
    0,
    0,
    0,
    0,
    0,
    0,
    0,
    0,
    0,
    0,
    0,
    0,
    0,
    0,
    0,
    0,
    0,
    0,
    0,
    0,
    0,
    0,
    0,
    0,
    0,
    0,
    0,
    0,
    0,
    0,
    0,
    0,
    0,
    0,
    0,
    0,
    0,
    0,
    0,
    0,
    0,
    0,
    0,
    0,
    0,
    0,
    0,
    0,
    0,
    0,
    0,
    0,
    0,
    0,
    0,
    0,
    0,
    0,
    0,
    0,
    0,
    0,
    0,
    0,
    0,
    0,
    0,
    0,
    0,
    0,
    0,
    0,
    0,
    0,
    0,
    0,
    0,
    0,
    0,
    0,
    0,
    0,
    0,
    0,
    0,
    0,
    0,
    0,
    0,
    0,
    0,
    0,
    0,
    0,
    0,
    0,
    0,
    0,
    0,
    0,
    0,
    0,
    0,
    0,
    0,
    0,
    0,
    0,
    0,
    0,
    0,
    0,
    0,
    0,
    0,
    0,
    0,
    0,
    0,
    0,
    0,
    0,
    0,
    0,
    0,
    0,
    0,
    0,
    0,
    0,
    0,
    0,
    0,
    0,
    0,
    0,
    0,
    0,
    0,
    0,
    0,
    0,
    0,
    0,
    0,
    0,
    0,
    0,
    0,
    0,
    0,
    0,
    0,
    0,
    0,
    0,
    0,
    0,
    0,
    0,
    0,
    0,
    0,
    0,
    0,
    0,
    0,
    0,
    0,
    0,
    0,
    0,
    0,
    0,
    0,
    0,
    0,
    0,
    0,
    0,
    0,
    0,
    0,
    0,
    0,
    0,
    0,
    0,
    0,
    0,
    0,
    0,
    0,
    0,
    0,
    0,
    0,
    0,
    0,
    0,
    0,
    0,
    0,
    0,
    0,
    0,
    0,
    0,
    0,
    0,
    0,
    0,
    0,
    0,
    0,
    0,
    0,
    0,
    0,
    0,
    0,
    0,
    0,
    0,
    0,
    0,
    0,
    0,
    0,
    0,
    0,
    0,
    0,
    0,
    0,
    0,
    0,
    0,
    0,
    0,
    0,
    0,
    0,
    0,
    0,
    0,
    0,
    0,
    0,
    0,
    0,
    0,
    0,
    0,
    0,
    0,
    0,
    0,
    0,
    0,
    0,
    0,
    0,
    0,
    0,
    0,
    0,
    0,
    0,
    0,
    0,
    0,
    0,
    0,
    0,
    0,
    0,
    0,
    0,
    0,
    0,
    0,
    0,
    0,
    23,
    23,
    23,
    23,
    23,
    23,
    23,
    23,
    23,
    23,
    23,
    23,
    23,
    23,
    23,
    23,
    23,
    23,
    23,
    23,
    23,
    23,
    23,
    23,
    23,
    23,
    23,
    23,
    23,
    23,
    23,
    23,
    23,
    23,
    23,
    23,
    23,
    23,
    23,
    23,
    23,
    23,
    23,
    23,
    23,
    23,
    23,
    23,
    23,
    23,
    23,
    23,
    23,
    23,
    23,
    23,
    23,
    23,
    23
   ],
   "properties": [
    {
     "name": "gv2layer",
     "type": "string",
     "value": "Colliders"
    },
    {
     "name": "z",
     "type": "int",
     "value": 5
    },
    {
     "name": "collision",
     "type": "bool",
     "value": true
    }
   ]
  },
  {
   "type": "objectgroup",
   "id": 8,
   "name": "Meta",
   "x": 0,
   "y": 0,
   "opacity": 1,
   "visible": true,
   "draworder": "index",
   "objects": [
    {
     "id": 67,
     "name": "transporter",
     "point": true,
     "x": 1632.0,
     "y": 480.0,
     "width": 0,
     "height": 0,
     "visible": true,
     "properties": [
      {
       "name": "kind",
       "type": "string",
       "value": "transporter"
      },
      {
       "name": "targetRoom",
       "type": "string",
       "value": "KonbiniPark1"
      },
      {
       "name": "targetX",
       "type": "int",
       "value": 9
      },
      {
       "name": "targetY",
       "type": "int",
       "value": 9
      },
      {
       "name": "hidden",
       "type": "bool",
       "value": true
      }
     ]
    },
    {
     "id": 68,
     "name": "transporter",
     "point": true,
     "x": 2208.0,
     "y": 1568.0,
     "width": 0,
     "height": 0,
     "visible": true,
     "properties": [
      {
       "name": "kind",
       "type": "string",
       "value": "transporter"
      },
      {
       "name": "targetRoom",
       "type": "string",
       "value": "KonbiniPark2"
      },
      {
       "name": "targetX",
       "type": "int",
       "value": 9
      },
      {
       "name": "targetY",
       "type": "int",
       "value": 10
      },
      {
       "name": "hidden",
       "type": "bool",
       "value": true
      }
     ]
    },
    {
     "id": 69,
     "name": "transporter",
     "point": true,
     "x": 2528.0,
     "y": 32.0,
     "width": 0,
     "height": 0,
     "visible": true,
     "properties": [
      {
       "name": "kind",
       "type": "string",
       "value": "transporter"
      },
      {
       "name": "targetRoom",
       "type": "string",
       "value": "Palace"
      },
      {
       "name": "targetX",
       "type": "int",
       "value": 39
      },
      {
       "name": "targetY",
       "type": "int",
       "value": 20
      },
      {
       "name": "hidden",
       "type": "bool",
       "value": true
      }
     ]
    },
    {
     "id": 70,
     "name": "boundary",
     "x": 0,
     "y": 0,
     "polygon": [
      {
       "x": 0,
       "y": 0
      },
      {
       "x": 3776,
       "y": 0
      },
      {
       "x": 3776,
       "y": 2816
      },
      {
       "x": 0,
       "y": 2816
      }
     ],
     "width": 0,
     "height": 0,
     "visible": true,
     "properties": [
      {
       "name": "kind",
       "type": "string",
       "value": "boundary"
      }
     ]
    }
   ],
   "properties": [
    {
     "name": "gv2meta",
     "type": "bool",
     "value": true
    }
   ]
  }
 ]
}