{
 "type": "map",
 "version": "1.10",
 "tiledversion": "1.11.0",
 "orientation": "orthogonal",
 "renderorder": "right-down",
 "width": 59,
 "height": 46,
 "tilewidth": 64,
 "tileheight": 64,
 "infinite": false,
 "nextlayerid": 14,
 "nextobjectid": 349,
 "properties": [
  {
   "name": "gv2room",
   "type": "string",
   "value": "Tokyo"
  },
  {
   "name": "gv2worldWidth",
   "type": "int",
   "value": 3776
  },
  {
   "name": "gv2worldHeight",
   "type": "int",
   "value": 2944
  }
 ],
 "tilesets": [
  {
   "firstgid": 1,
   "name": "gamev2",
   "tilewidth": 64,
   "tileheight": 64,
   "tilecount": 135,
   "columns": 0,
   "objectalignment": "topleft",
   "grid": {
    "orientation": "orthogonal",
    "width": 64,
    "height": 64
   },
   "tiles": [
    {
     "id": 0,
     "image": "../assets/sprites/bell-blue-baseless_0_0.png",
     "imagewidth": 128,
     "imageheight": 128
    },
    {
     "id": 1,
     "image": "../assets/sprites/blue-bell-top_0_0.png",
     "imagewidth": 128,
     "imageheight": 128
    },
    {
     "id": 2,
     "image": "../assets/sprites/blue-lamp-post_0_0.png",
     "imagewidth": 64,
     "imageheight": 64
    },
    {
     "id": 3,
     "image": "../assets/sprites/blue-lanterns_4_1.png",
     "imagewidth": 64,
     "imageheight": 64
    },
    {
     "id": 4,
     "image": "../assets/sprites/blue-lanterns_5_0.png",
     "imagewidth": 64,
     "imageheight": 64
    },
    {
     "id": 5,
     "image": "../assets/sprites/blue-short-wall-back-east_0_0.png",
     "imagewidth": 64,
     "imageheight": 64
    },
    {
     "id": 6,
     "image": "../assets/sprites/blue-short-wall-back-west_0_0.png",
     "imagewidth": 64,
     "imageheight": 64
    },
    {
     "id": 7,
     "image": "../assets/sprites/blue-shrine-platform-base_0_0.png",
     "imagewidth": 128,
     "imageheight": 128
    },
    {
     "id": 8,
     "image": "../assets/sprites/blue-wall-east-side-roof_0_0.png",
     "imagewidth": 64,
     "imageheight": 64
    },
    {
     "id": 9,
     "image": "../assets/sprites/blue-wall-front-east-corner_0_0.png",
     "imagewidth": 64,
     "imageheight": 128
    },
    {
     "id": 10,
     "image": "../assets/sprites/blue-wall-front-west-corner_0_0.png",
     "imagewidth": 64,
     "imageheight": 128
    },
    {
     "id": 11,
     "image": "../assets/sprites/blue-wall-gate_0_0.png",
     "imagewidth": 192,
     "imageheight": 128
    },
    {
     "id": 12,
     "image": "../assets/sprites/blue-wall-short_0_0.png",
     "imagewidth": 64,
     "imageheight": 128
    },
    {
     "id": 13,
     "image": "../assets/sprites/blue-wall-wet-side-roof_0_0.png",
     "imagewidth": 64,
     "imageheight": 64
    },
    {
     "id": 14,
     "image": "../assets/sprites/building-entrance-3_0_0.png",
     "imagewidth": 192,
     "imageheight": 64
    },
    {
     "id": 15,
     "image": "../assets/sprites/castle-stairs_0_0.png",
     "imagewidth": 64,
     "imageheight": 64
    },
    {
     "id": 16,
     "image": "../assets/sprites/castle-wall-siding_0_0.png",
     "imagewidth": 64,
     "imageheight": 128
    },
    {
     "id": 17,
     "image": "../assets/sprites/castle-wall-southeast-corner_0_0.png",
     "imagewidth": 64,
     "imageheight": 128
    },
    {
     "id": 18,
     "image": "../assets/sprites/castle-wall-southwest-corner_0_0.png",
     "imagewidth": 64,
     "imageheight": 128
    },
    {
     "id": 19,
     "image": "../assets/sprites/dirt-outside-autotile_center.png",
     "imagewidth": 64,
     "imageheight": 64
    },
    {
     "id": 20,
     "image": "../assets/sprites/dirt-outside-autotile_corner-ne.png",
     "imagewidth": 64,
     "imageheight": 64
    },
    {
     "id": 21,
     "image": "../assets/sprites/dirt-outside-autotile_corner-nw.png",
     "imagewidth": 64,
     "imageheight": 64
    },
    {
     "id": 22,
     "image": "../assets/sprites/dirt-outside-autotile_corner-se.png",
     "imagewidth": 64,
     "imageheight": 64
    },
    {
     "id": 23,
     "image": "../assets/sprites/dirt-outside-autotile_corner-sw.png",
     "imagewidth": 64,
     "imageheight": 64
    },
    {
     "id": 24,
     "image": "../assets/sprites/dirt-outside-autotile_edge-e.png",
     "imagewidth": 64,
     "imageheight": 64
    },
    {
     "id": 25,
     "image": "../assets/sprites/dirt-outside-autotile_edge-n.png",
     "imagewidth": 64,
     "imageheight": 64
    },
    {
     "id": 26,
     "image": "../assets/sprites/dirt-outside-autotile_edge-s.png",
     "imagewidth": 64,
     "imageheight": 64
    },
    {
     "id": 27,
     "image": "../assets/sprites/dirt-outside-autotile_edge-w.png",
     "imagewidth": 64,
     "imageheight": 64
    },
    {
     "id": 28,
     "image": "../assets/sprites/fence-barriers_0_2.png",
     "imagewidth": 64,
     "imageheight": 64
    },
    {
     "id": 29,
     "image": "../assets/sprites/fence-barriers_0_3.png",
     "imagewidth": 64,
     "imageheight": 64
    },
    {
     "id": 30,
     "image": "../assets/sprites/fence-barriers_1_2.png",
     "imagewidth": 64,
     "imageheight": 64
    },
    {
     "id": 31,
     "image": "../assets/sprites/fence-barriers_2_0.png",
     "imagewidth": 64,
     "imageheight": 64
    },
    {
     "id": 32,
     "image": "../assets/sprites/flat-grey-brick-autotile_center.png",
     "imagewidth": 64,
     "imageheight": 64
    },
    {
     "id": 33,
     "image": "../assets/sprites/flat-grey-brick-autotile_corner-ne.png",
     "imagewidth": 64,
     "imageheight": 64
    },
    {
     "id": 34,
     "image": "../assets/sprites/flat-grey-brick-autotile_corner-nw.png",
     "imagewidth": 64,
     "imageheight": 64
    },
    {
     "id": 35,
     "image": "../assets/sprites/flat-grey-brick-autotile_corner-se.png",
     "imagewidth": 64,
     "imageheight": 64
    },
    {
     "id": 36,
     "image": "../assets/sprites/flat-grey-brick-autotile_corner-sw.png",
     "imagewidth": 64,
     "imageheight": 64
    },
    {
     "id": 37,
     "image": "../assets/sprites/flat-grey-brick-autotile_edge-e.png",
     "imagewidth": 64,
     "imageheight": 64
    },
    {
     "id": 38,
     "image": "../assets/sprites/flat-grey-brick-autotile_edge-n.png",
     "imagewidth": 64,
     "imageheight": 64
    },
    {
     "id": 39,
     "image": "../assets/sprites/flat-grey-brick-autotile_edge-s.png",
     "imagewidth": 64,
     "imageheight": 64
    },
    {
     "id": 40,
     "image": "../assets/sprites/flat-grey-brick-autotile_edge-w.png",
     "imagewidth": 64,
     "imageheight": 64
    },
    {
     "id": 41,
     "image": "../assets/sprites/fox-statue-base-1_0_0.png",
     "imagewidth": 64,
     "imageheight": 128
    },
    {
     "id": 42,
     "image": "../assets/sprites/fox-statue-base-2_0_0.png",
     "imagewidth": 64,
     "imageheight": 128
    },
    {
     "id": 43,
     "image": "../assets/sprites/collider-marker.png",
     "imagewidth": 64,
     "imageheight": 64
    },
    {
     "id": 44,
     "image": "../assets/sprites/grass-autotile_center.png",
     "imagewidth": 64,
     "imageheight": 64
    },
    {
     "id": 45,
     "image": "../assets/sprites/grass-autotile_corner-ne.png",
     "imagewidth": 64,
     "imageheight": 64
    },
    {
     "id": 46,
     "image": "../assets/sprites/grass-autotile_corner-nw.png",
     "imagewidth": 64,
     "imageheight": 64
    },
    {
     "id": 47,
     "image": "../assets/sprites/grass-autotile_corner-se.png",
     "imagewidth": 64,
     "imageheight": 64
    },
    {
     "id": 48,
     "image": "../assets/sprites/grass-autotile_corner-sw.png",
     "imagewidth": 64,
     "imageheight": 64
    },
    {
     "id": 49,
     "image": "../assets/sprites/grass-autotile_edge-e.png",
     "imagewidth": 64,
     "imageheight": 64
    },
    {
     "id": 50,
     "image": "../assets/sprites/grass-autotile_edge-n.png",
     "imagewidth": 64,
     "imageheight": 64
    },
    {
     "id": 51,
     "image": "../assets/sprites/grass-autotile_edge-s.png",
     "imagewidth": 64,
     "imageheight": 64
    },
    {
     "id": 52,
     "image": "../assets/sprites/grass-autotile_edge-w.png",
     "imagewidth": 64,
     "imageheight": 64
    },
    {
     "id": 53,
     "image": "../assets/sprites/ground-plants-1_0_0.png",
     "imagewidth": 64,
     "imageheight": 64
    },
    {
     "id": 54,
     "image": "../assets/sprites/ground-plants-1_0_1.png",
     "imagewidth": 64,
     "imageheight": 64
    },
    {
     "id": 55,
     "image": "../assets/sprites/ground-plants-1_1_0.png",
     "imagewidth": 64,
     "imageheight": 64
    },
    {
     "id": 56,
     "image": "../assets/sprites/ground-plants-1_1_1.png",
     "imagewidth": 64,
     "imageheight": 64
    },
    {
     "id": 57,
     "image": "../assets/sprites/kirin-statue-1-bottom_0_0.png",
     "imagewidth": 192,
     "imageheight": 128
    },
    {
     "id": 58,
     "image": "../assets/sprites/kirin-statue-1-top_0_0.png",
     "imagewidth": 192,
     "imageheight": 64
    },
    {
     "id": 59,
     "image": "../assets/sprites/kirin-statue-2-bottom_0_0.png",
     "imagewidth": 192,
     "imageheight": 128
    },
    {
     "id": 60,
     "image": "../assets/sprites/kirin-statue-2-top_0_0.png",
     "imagewidth": 192,
     "imageheight": 64
    },
    {
     "id": 61,
     "image": "../assets/sprites/moat-east-rocks_0_0.png",
     "imagewidth": 128,
     "imageheight": 64
    },
    {
     "id": 62,
     "image": "../assets/sprites/moat-east_0_0.png",
     "imagewidth": 128,
     "imageheight": 64
    },
    {
     "id": 63,
     "image": "../assets/sprites/moat-north-east-corner_0_0.png",
     "imagewidth": 128,
     "imageheight": 128
    },
    {
     "id": 64,
     "image": "../assets/sprites/moat-north-rocks_0_0.png",
     "imagewidth": 64,
     "imageheight": 128
    },
    {
     "id": 65,
     "image": "../assets/sprites/moat-north-west-corner_0_0.png",
     "imagewidth": 128,
     "imageheight": 128
    },
    {
     "id": 66,
     "image": "../assets/sprites/moat-north_0_0.png",
     "imagewidth": 64,
     "imageheight": 128
    },
    {
     "id": 67,
     "image": "../assets/sprites/moat-sourth-east-corner_0_0.png",
     "imagewidth": 128,
     "imageheight": 128
    },
    {
     "id": 68,
     "image": "../assets/sprites/moat-south-rocks_0_0.png",
     "imagewidth": 64,
     "imageheight": 128
    },
    {
     "id": 69,
     "image": "../assets/sprites/moat-south-west-corner_0_0.png",
     "imagewidth": 128,
     "imageheight": 128
    },
    {
     "id": 70,
     "image": "../assets/sprites/moat-south_0_0.png",
     "imagewidth": 64,
     "imageheight": 128
    },
    {
     "id": 71,
     "image": "../assets/sprites/moat-west-rocks_0_0.png",
     "imagewidth": 128,
     "imageheight": 64
    },
    {
     "id": 72,
     "image": "../assets/sprites/moat-west_0_0.png",
     "imagewidth": 128,
     "imageheight": 64
    },
    {
     "id": 73,
     "image": "../assets/sprites/pagoda-floor_0_0.png",
     "imagewidth": 192,
     "imageheight": 192
    },
    {
     "id": 74,
     "image": "../assets/sprites/pagoda-roof_0_0.png",
     "imagewidth": 192,
     "imageheight": 320
    },
    {
     "id": 75,
     "image": "../assets/sprites/pavers_0_2.png",
     "imagewidth": 64,
     "imageheight": 64
    },
    {
     "id": 76,
     "image": "../assets/sprites/pavers_1_0.png",
     "imagewidth": 64,
     "imageheight": 64
    },
    {
     "id": 77,
     "image": "../assets/sprites/pavers_1_2.png",
     "imagewidth": 64,
     "imageheight": 64
    },
    {
     "id": 78,
     "image": "../assets/sprites/pavers_2_0.png",
     "imagewidth": 64,
     "imageheight": 64
    },
    {
     "id": 79,
     "image": "../assets/sprites/pavers_2_1.png",
     "imagewidth": 64,
     "imageheight": 64
    },
    {
     "id": 80,
     "image": "../assets/sprites/pavers_2_2.png",
     "imagewidth": 64,
     "imageheight": 64
    },
    {
     "id": 81,
     "image": "../assets/sprites/pond-autotile_center.png",
     "imagewidth": 64,
     "imageheight": 64
    },
    {
     "id": 82,
     "image": "../assets/sprites/pond-autotile_corner-ne.png",
     "imagewidth": 64,
     "imageheight": 64
    },
    {
     "id": 83,
     "image": "../assets/sprites/pond-autotile_corner-nw.png",
     "imagewidth": 64,
     "imageheight": 64
    },
    {
     "id": 84,
     "image": "../assets/sprites/pond-autotile_corner-se.png",
     "imagewidth": 64,
     "imageheight": 64
    },
    {
     "id": 85,
     "image": "../assets/sprites/pond-autotile_corner-sw.png",
     "imagewidth": 64,
     "imageheight": 64
    },
    {
     "id": 86,
     "image": "../assets/sprites/pond-autotile_edge-e.png",
     "imagewidth": 64,
     "imageheight": 64
    },
    {
     "id": 87,
     "image": "../assets/sprites/pond-autotile_edge-n.png",
     "imagewidth": 64,
     "imageheight": 64
    },
    {
     "id": 88,
     "image": "../assets/sprites/pond-autotile_edge-s.png",
     "imagewidth": 64,
     "imageheight": 64
    },
    {
     "id": 89,
     "image": "../assets/sprites/pond-leaf_0_0.png",
     "imagewidth": 192,
     "imageheight": 192
    },
    {
     "id": 90,
     "image": "../assets/sprites/red-vending-machine-base-3_0_0.png",
     "imagewidth": 64,
     "imageheight": 64
    },
    {
     "id": 91,
     "image": "../assets/sprites/red-vending-machine-bottom_0_0.png",
     "imagewidth": 64,
     "imageheight": 64
    },
    {
     "id": 92,
     "image": "../assets/sprites/red-vending-machine-top-3_0_0.png",
     "imagewidth": 64,
     "imageheight": 128
    },
    {
     "id": 93,
     "image": "../assets/sprites/red-vending-machine-top_0_0.png",
     "imagewidth": 64,
     "imageheight": 64
    },
    {
     "id": 94,
     "image": "../assets/sprites/road-div-horizontal_0_0.png",
     "imagewidth": 64,
     "imageheight": 64
    },
    {
     "id": 95,
     "image": "../assets/sprites/road-div-vertical_0_0.png",
     "imagewidth": 64,
     "imageheight": 64
    },
    {
     "id": 96,
     "image": "../assets/sprites/road-edge-bottom_0_0.png",
     "imagewidth": 64,
     "imageheight": 64
    },
    {
     "id": 97,
     "image": "../assets/sprites/road-edge-left_0_0.png",
     "imagewidth": 64,
     "imageheight": 64
    },
    {
     "id": 98,
     "image": "../assets/sprites/road-edge-right_0_0.png",
     "imagewidth": 64,
     "imageheight": 64
    },
    {
     "id": 99,
     "image": "../assets/sprites/road-edge-top_0_0.png",
     "imagewidth": 64,
     "imageheight": 64
    },
    {
     "id": 100,
     "image": "../assets/sprites/sakura-large-base_0_0.png",
     "imagewidth": 64,
     "imageheight": 64
    },
    {
     "id": 101,
     "image": "../assets/sprites/sakura-large-top_0_0.png",
     "imagewidth": 192,
     "imageheight": 128
    },
    {
     "id": 102,
     "image": "../assets/sprites/sakura-small-base_0_0.png",
     "imagewidth": 64,
     "imageheight": 64
    },
    {
     "id": 103,
     "image": "../assets/sprites/sakura-small-top_0_0.png",
     "imagewidth": 192,
     "imageheight": 128
    },
    {
     "id": 104,
     "image": "../assets/sprites/sakura-small_0_0.png",
     "imagewidth": 64,
     "imageheight": 128
    },
    {
     "id": 105,
     "image": "../assets/sprites/shrine-building_0_0.png",
     "imagewidth": 192,
     "imageheight": 384
    },
    {
     "id": 106,
     "image": "../assets/sprites/shrine-top_0_0.png",
     "imagewidth": 320,
     "imageheight": 320
    },
    {
     "id": 107,
     "image": "../assets/sprites/shrub-large-circle_0_0.png",
     "imagewidth": 128,
     "imageheight": 128
    },
    {
     "id": 108,
     "image": "../assets/sprites/shrub-small-circle_0_0.png",
     "imagewidth": 64,
     "imageheight": 64
    },
    {
     "id": 109,
     "image": "../assets/sprites/shrubs-1_0_0.png",
     "imagewidth": 64,
     "imageheight": 64
    },
    {
     "id": 110,
     "image": "../assets/sprites/shrubs-1_0_1.png",
     "imagewidth": 64,
     "imageheight": 64
    },
    {
     "id": 111,
     "image": "../assets/sprites/shrubs-1_1_0.png",
     "imagewidth": 64,
     "imageheight": 64
    },
    {
     "id": 112,
     "image": "../assets/sprites/shrubs-1_1_1.png",
     "imagewidth": 64,
     "imageheight": 64
    },
    {
     "id": 113,
     "image": "../assets/sprites/shrubs-1_2_0.png",
     "imagewidth": 64,
     "imageheight": 64
    },
    {
     "id": 114,
     "image": "../assets/sprites/shrubs-1_2_1.png",
     "imagewidth": 64,
     "imageheight": 64
    },
    {
     "id": 115,
     "image": "../assets/sprites/shrubs-1_3_1.png",
     "imagewidth": 64,
     "imageheight": 64
    },
    {
     "id": 116,
     "image": "../assets/sprites/temple-hallway_0_0.png",
     "imagewidth": 192,
     "imageheight": 192
    },
    {
     "id": 117,
     "image": "../assets/sprites/tile-brick-path_1_1.png",
     "imagewidth": 64,
     "imageheight": 64
    },
    {
     "id": 118,
     "image": "../assets/sprites/tile-brick-path_1_2.png",
     "imagewidth": 64,
     "imageheight": 64
    },
    {
     "id": 119,
     "image": "../assets/sprites/tile-brick-path_1_3.png",
     "imagewidth": 64,
     "imageheight": 64
    },
    {
     "id": 120,
     "image": "../assets/sprites/tile-brick-path_2_1.png",
     "imagewidth": 64,
     "imageheight": 64
    },
    {
     "id": 121,
     "image": "../assets/sprites/tile-brick-path_3_1.png",
     "imagewidth": 64,
     "imageheight": 64
    },
    {
     "id": 122,
     "image": "../assets/sprites/tile-brick-path_4_0.png",
     "imagewidth": 64,
     "imageheight": 64
    },
    {
     "id": 123,
     "image": "../assets/sprites/torii-blue-feet_0_0.png",
     "imagewidth": 256,
     "imageheight": 128
    },
    {
     "id": 124,
     "image": "../assets/sprites/torii-blue-top_0_0.png",
     "imagewidth": 384,
     "imageheight": 192
    },
    {
     "id": 125,
     "image": "../assets/sprites/tree-1-base-shadow_0_0.png",
     "imagewidth": 128,
     "imageheight": 128
    },
    {
     "id": 126,
     "image": "../assets/sprites/tree-1-top_0_0.png",
     "imagewidth": 128,
     "imageheight": 64
    },
    {
     "id": 127,
     "image": "../assets/sprites/tree-2-base-shadow_0_0.png",
     "imagewidth": 128,
     "imageheight": 128
    },
    {
     "id": 128,
     "image": "../assets/sprites/tree-2-top_0_0.png",
     "imagewidth": 128,
     "imageheight": 64
    },
    {
     "id": 129,
     "image": "../assets/sprites/tree-3-base-shadow_0_0.png",
     "imagewidth": 128,
     "imageheight": 64
    },
    {
     "id": 130,
     "image": "../assets/sprites/tree-3-top_0_0.png",
     "imagewidth": 128,
     "imageheight": 128
    },
    {
     "id": 131,
     "image": "../assets/sprites/white-vending-machine-base-3_0_0.png",
     "imagewidth": 64,
     "imageheight": 64
    },
    {
     "id": 132,
     "image": "../assets/sprites/white-vending-machine-bottom_0_0.png",
     "imagewidth": 64,
     "imageheight": 64
    },
    {
     "id": 133,
     "image": "../assets/sprites/white-vending-machine-top-3_0_0.png",
     "imagewidth": 64,
     "imageheight": 128
    },
    {
     "id": 134,
     "image": "../assets/sprites/white-vending-machine-top_0_0.png",
     "imagewidth": 64,
     "imageheight": 64
    }
   ],
   "wangsets": [
    {
     "name": "dirt-outside-autotile",
     "type": "mixed",
     "tile": -1,
     "colors": [
      {
       "name": "dirt-outside-autotile",
       "tile": -1,
       "probability": 1,
       "color": "#74d33b"
      }
     ],
     "wangtiles": [
      {
       "tileid": 19,
       "wangid": [
        1,
        1,
        1,
        1,
        1,
        1,
        1,
        1
       ]
      },
      {
       "tileid": 20,
       "wangid": [
        0,
        0,
        0,
        0,
        1,
        1,
        1,
        0
       ]
      },
      {
       "tileid": 21,
       "wangid": [
        0,
        0,
        1,
        1,
        1,
        0,
        0,
        0
       ]
      },
      {
       "tileid": 22,
       "wangid": [
        1,
        0,
        0,
        0,
        0,
        0,
        1,
        1
       ]
      },
      {
       "tileid": 23,
       "wangid": [
        1,
        1,
        1,
        0,
        0,
        0,
        0,
        0
       ]
      },
      {
       "tileid": 24,
       "wangid": [
        1,
        0,
        0,
        0,
        1,
        1,
        1,
        1
       ]
      },
      {
       "tileid": 25,
       "wangid": [
        0,
        0,
        1,
        1,
        1,
        1,
        1,
        0
       ]
      },
      {
       "tileid": 26,
       "wangid": [
        1,
        1,
        1,
        0,
        0,
        0,
        1,
        1
       ]
      },
      {
       "tileid": 27,
       "wangid": [
        1,
        1,
        1,
        1,
        1,
        0,
        0,
        0
       ]
      }
     ]
    },
    {
     "name": "flat-grey-brick-autotile",
     "type": "mixed",
     "tile": -1,
     "colors": [
      {
       "name": "flat-grey-brick-autotile",
       "tile": -1,
       "probability": 1,
       "color": "#25b46d"
      }
     ],
     "wangtiles": [
      {
       "tileid": 32,
       "wangid": [
        1,
        1,
        1,
        1,
        1,
        1,
        1,
        1
       ]
      },
      {
       "tileid": 33,
       "wangid": [
        0,
        0,
        0,
        0,
        1,
        1,
        1,
        0
       ]
      },
      {
       "tileid": 34,
       "wangid": [
        0,
        0,
        1,
        1,
        1,
        0,
        0,
        0
       ]
      },
      {
       "tileid": 35,
       "wangid": [
        1,
        0,
        0,
        0,
        0,
        0,
        1,
        1
       ]
      },
      {
       "tileid": 36,
       "wangid": [
        1,
        1,
        1,
        0,
        0,
        0,
        0,
        0
       ]
      },
      {
       "tileid": 37,
       "wangid": [
        1,
        0,
        0,
        0,
        1,
        1,
        1,
        1
       ]
      },
      {
       "tileid": 38,
       "wangid": [
        0,
        0,
        1,
        1,
        1,
        1,
        1,
        0
       ]
      },
      {
       "tileid": 39,
       "wangid": [
        1,
        1,
        1,
        0,
        0,
        0,
        1,
        1
       ]
      },
      {
       "tileid": 40,
       "wangid": [
        1,
        1,
        1,
        1,
        1,
        0,
        0,
        0
       ]
      }
     ]
    },
    {
     "name": "grass-autotile",
     "type": "mixed",
     "tile": -1,
     "colors": [
      {
       "name": "grass-autotile",
       "tile": -1,
       "probability": 1,
       "color": "#dd436f"
      }
     ],
     "wangtiles": [
      {
       "tileid": 44,
       "wangid": [
        1,
        1,
        1,
        1,
        1,
        1,
        1,
        1
       ]
      },
      {
       "tileid": 45,
       "wangid": [
        0,
        0,
        0,
        0,
        1,
        1,
        1,
        0
       ]
      },
      {
       "tileid": 46,
       "wangid": [
        0,
        0,
        1,
        1,
        1,
        0,
        0,
        0
       ]
      },
      {
       "tileid": 47,
       "wangid": [
        1,
        0,
        0,
        0,
        0,
        0,
        1,
        1
       ]
      },
      {
       "tileid": 48,
       "wangid": [
        1,
        1,
        1,
        0,
        0,
        0,
        0,
        0
       ]
      },
      {
       "tileid": 49,
       "wangid": [
        1,
        0,
        0,
        0,
        1,
        1,
        1,
        1
       ]
      },
      {
       "tileid": 50,
       "wangid": [
        0,
        0,
        1,
        1,
        1,
        1,
        1,
        0
       ]
      },
      {
       "tileid": 51,
       "wangid": [
        1,
        1,
        1,
        0,
        0,
        0,
        1,
        1
       ]
      },
      {
       "tileid": 52,
       "wangid": [
        1,
        1,
        1,
        1,
        1,
        0,
        0,
        0
       ]
      }
     ]
    },
    {
     "name": "pond-autotile",
     "type": "mixed",
     "tile": -1,
     "colors": [
      {
       "name": "pond-autotile",
       "tile": -1,
       "probability": 1,
       "color": "#f7497e"
      }
     ],
     "wangtiles": [
      {
       "tileid": 81,
       "wangid": [
        1,
        1,
        1,
        1,
        1,
        1,
        1,
        1
       ]
      },
      {
       "tileid": 82,
       "wangid": [
        0,
        0,
        0,
        0,
        1,
        1,
        1,
        0
       ]
      },
      {
       "tileid": 83,
       "wangid": [
        0,
        0,
        1,
        1,
        1,
        0,
        0,
        0
       ]
      },
      {
       "tileid": 84,
       "wangid": [
        1,
        0,
        0,
        0,
        0,
        0,
        1,
        1
       ]
      },
      {
       "tileid": 85,
       "wangid": [
        1,
        1,
        1,
        0,
        0,
        0,
        0,
        0
       ]
      },
      {
       "tileid": 86,
       "wangid": [
        1,
        0,
        0,
        0,
        1,
        1,
        1,
        1
       ]
      },
      {
       "tileid": 87,
       "wangid": [
        0,
        0,
        1,
        1,
        1,
        1,
        1,
        0
       ]
      },
      {
       "tileid": 88,
       "wangid": [
        1,
        1,
        1,
        0,
        0,
        0,
        1,
        1
       ]
      }
     ]
    }
   ]
  }
 ],
 "layers": [
  {
   "type": "tilelayer",
   "id": 1,
   "name": "Floor",
   "width": 59,
   "height": 46,
   "x": 0,
   "y": 0,
   "opacity": 1,
   "visible": true,
   "data": [
    35,
    39,
    39,
    39,
    39,
    39,
    39,
    39,
    39,
    39,
    39,
    39,
    39,
    39,
    39,
    39,
    39,
    39,
    39,
    39,
    39,
    39,
    39,
    39,
    39,
    39,
    39,
    39,
    39,
    39,
    39,
    39,
    39,
    39,
    39,
    39,
    39,
    39,
    39,
    39,
    39,
    39,
    39,
    39,
    39,
    39,
    39,
    39,
    39,
    39,
    39,
    39,
    39,
    39,
    39,
    39,
    39,
    39,
    39,
    41,
    33,
    40,
    40,
    40,
    40,
    40,
    40,
    40,
    40,
    40,
    40,
    40,
    40,
    40,
    40,
    40,
    40,
    40,
    40,
    40,
    40,
    40,
    40,
    40,
    40,
    40,
    40,
    40,
    40,
    40,
    40,
    40,
    40,
    40,
    40,
    40,
    40,
    40,
    40,
    40,
    40,
    40,
    40,
    40,
    40,
    40,
    40,
    40,
    40,
    40,
    40,
    40,
    40,
    40,
    40,
    40,
    40,
    40,
    41,
    38,
    40,
    100,
    100,
    100,
    100,
    100,
    100,
    100,
    100,
    100,
    100,
    100,
    100,
    100,
    100,
    100,
    100,
    100,
    100,
    100,
    100,
    100,
    100,
    100,
    100,
    100,
    100,
    100,
    100,
    100,
    100,
    100,
    100,
    100,
    100,
    100,
    100,
    100,
    100,
    100,
    100,
    100,
    100,
    100,
    100,
    100,
    100,
    100,
    100,
    100,
    100,
    100,
    100,
    100,
    100,
    100,
    100,
    41,
    38,
    97,
    95,
    95,
    95,
    95,
    95,
    95,
    95,
    95,
    95,
    95,
    95,
    95,
    95,
    95,
    95,
    95,
    95,
    95,
    95,
    95,
    95,
    95,
    95,
    95,
    95,
    95,
    95,
    95,
    95,
    95,
    95,
    95,
    95,
    95,
    95,
    95,
    95,
    95,
    95,
    95,
    95,
    95,
    95,
    95,
    95,
    95,
    95,
    95,
    95,
    95,
    95,
    95,
    95,
    95,
    95,
    95,
    41,
    38,
    97,
    97,
    97,
    97,
    97,
    97,
    97,
    97,
    97,
    97,
    97,
    97,
    97,
    97,
    97,
    97,
    97,
    97,
    97,
    97,
    97,
    97,
    97,
    97,
    97,
    97,
    97,
    97,
    97,
    97,
    97,
    97,
    97,
    97,
    97,
    97,
    97,
    97,
    97,
    97,
    97,
    97,
    97,
    97,
    97,
    97,
    97,
    97,
    97,
    97,
    97,
    97,
    97,
    97,
    97,
    97,
    97,
    41,
    38,
    98,
    96,
    99,
    35,
    39,
    39,
    39,
    39,
    39,
    39,
    39,
    39,
    39,
    39,
    39,
    39,
    39,
    39,
    39,
    39,
    39,
    39,
    39,
    39,
    39,
    39,
    39,
    39,
    39,
    39,
    39,
    39,
    39,
    39,
    39,
    39,
    39,
    39,
    39,
    39,
    39,
    39,
    39,
    39,
    39,
    39,
    39,
    39,
    39,
    39,
    39,
    39,
    39,
    39,
    34,
    98,
    96,
    41,
    38,
    98,
    96,
    99,
    41,
    33,
    40,
    40,
    40,
    40,
    40,
    40,
    40,
    40,
    40,
    40,
    40,
    40,
    40,
    40,
    40,
    40,
    40,
    40,
    40,
    40,
    40,
    40,
    40,
    40,
    40,
    40,
    40,
    40,
    40,
    40,
    40,
    40,
    40,
    40,
    40,
    40,
    40,
    40,
    40,
    40,
    40,
    40,
    40,
    40,
    40,
    40,
    40,
    40,
    33,
    38,
    98,
    96,
    41,
    38,
    98,
    96,
    99,
    41,
    38,
    47,
    51,
    51,
    51,
    51,
    51,
    51,
    51,
    51,
    51,
    51,
    51,
    51,
    51,
    51,
    51,
    51,
    51,
    51,
    51,
    51,
    51,
    51,
    51,
    51,
    51,
    51,
    51,
    51,
    51,
    51,
    51,
    51,
    51,
    51,
    51,
    51,
    51,
    51,
    51,
    51,
    51,
    51,
    51,
    51,
    51,
    51,
    46,
    41,
    38,
    98,
    96,
    41,
    38,
    98,
    96,
    99,
    41,
    38,
    53,
    45,
    45,
    45,
    45,
    45,
    45,
    45,
    45,
    45,
    45,
    45,
    45,
    45,
    45,
    45,
    45,
    45,
    45,
    45,
    45,
    45,
    45,
    45,
    45,
    45,
    45,
    45,
    45,
    45,
    45,
    45,
    45,
    45,
    45,
    45,
    45,
    45,
    45,
    45,
    45,
    45,
    45,
    45,
    45,
    45,
    45,
    50,
    41,
    38,
    98,
    96,
    41,
    38,
    98,
    96,
    99,
    41,
    38,
    53,
    45,
    45,
    45,
    45,
    45,
    45,
    45,
    45,
    45,
    45,
    45,
    45,
    45,
    45,
    45,
    45,
    45,
    45,
    45,
    45,
    45,
    45,
    45,
    45,
    45,
    45,
    45,
    45,
    45,
    45,
    45,
    45,
    45,
    45,
    45,
    45,
    45,
    45,
    45,
    45,
    45,
    45,
    45,
    45,
    45,
    45,
    50,
    41,
    38,
    98,
    96,
    41,
    38,
    98,
    96,
    99,
    41,
    38,
    53,
    45,
    45,
    45,
    45,
    45,
    45,
    45,
    45,
    45,
    45,
    45,
    45,
    45,
    45,
    45,
    45,
    45,
    45,
    45,
    45,
    45,
    45,
    45,
    45,
    45,
    45,
    45,
    45,
    45,
    45,
    45,
    45,
    45,
    45,
    45,
    45,
    45,
    45,
    45,
    45,
    45,
    45,
    45,
    45,
    45,
    45,
    50,
    41,
    38,
    98,
    96,
    41,
    38,
    98,
    96,
    99,
    41,
    38,
    53,
    45,
    45,
    45,
    45,
    52,
    52,
    52,
    52,
    52,
    52,
    52,
    52,
    52,
    52,
    52,
    52,
    52,
    52,
    52,
    52,
    52,
    52,
    52,
    52,
    52,
    52,
    52,
    52,
    52,
    52,
    52,
    52,
    52,
    52,
    52,
    52,
    52,
    52,
    52,
    52,
    52,
    52,
    45,
    45,
    45,
    45,
    50,
    41,
    38,
    98,
    96,
    41,
    38,
    98,
    96,
    99,
    41,
    38,
    53,
    45,
    45,
    45,
    50,
    22,
    26,
    26,
    26,
    26,
    26,
    26,
    26,
    26,
    26,
    26,
    26,
    26,
    26,
    26,
    26,
    26,
    26,
    26,
    26,
    26,
    26,
    26,
    26,
    26,
    26,
    26,
    26,
    26,
    26,
    26,
    26,
    26,
    26,
    26,
    26,
    26,
    21,
    53,
    45,
    45,
    45,
    50,
    41,
    38,
    98,
    96,
    41,
    38,
    98,
    96,
    99,
    41,
    38,
    53,
    45,
    45,
    45,
    50,
    28,
    20,
    20,
    20,
    20,
    20,
    20,
    20,
    20,
    20,
    20,
    20,
    20,
    20,
    20,
    20,
    20,
    20,
    20,
    20,
    20,
    20,
    20,
    20,
    20,
    20,
    20,
    20,
    20,
    20,
    20,
    20,
    20,
    20,
    20,
    20,
    20,
    25,
    53,
    45,
    45,
    45,
    50,
    41,
    38,
    98,
    96,
    41,
    38,
    98,
    96,
    99,
    41,
    38,
    53,
    45,
    45,
    45,
    50,
    28,
    20,
    20,
    20,
    20,
    20,
    20,
    20,
    20,
    20,
    20,
    20,
    20,
    20,
    20,
    20,
    20,
    20,
    20,
    20,
    20,
    20,
    20,
    20,
    20,
    20,
    20,
    20,
    20,
    20,
    20,
    20,
    20,
    20,
    20,
    20,
    20,
    25,
    53,
    45,
    45,
    45,
    50,
    41,
    38,
    98,
    96,
    41,
    38,
    98,
    96,
    99,
    41,
    38,
    53,
    45,
    45,
    45,
    50,
    28,
    20,
    20,
    20,
    20,
    20,
    20,
    20,
    20,
    20,
    20,
    20,
    20,
    20,
    20,
    20,
    20,
    20,
    20,
    20,
    20,
    20,
    20,
    20,
    20,
    20,
    20,
    20,
    20,
    20,
    20,
    20,
    20,
    20,
    20,
    20,
    20,
    25,
    53,
    45,
    45,
    45,
    50,
    41,
    38,
    98,
    96,
    41,
    38,
    98,
    96,
    99,
    41,
    38,
    53,
    45,
    45,
    45,
    50,
    28,
    20,
    20,
    20,
    20,
    20,
    20,
    20,
    20,
    20,
    20,
    20,
    20,
    20,
    20,
    20,
    20,
    20,
    20,
    20,
    20,
    20,
    20,
    20,
    20,
    20,
    20,
    20,
    20,
    20,
    20,
    20,
    20,
    20,
    20,
    20,
    20,
    25,
    53,
    45,
    45,
    45,
    50,
    41,
    38,
    98,
    96,
    41,
    38,
    98,
    96,
    99,
    41,
    38,
    53,
    45,
    45,
    45,
    50,
    28,
    20,
    20,
    20,
    20,
    20,
    20,
    20,
    20,
    20,
    20,
    20,
    20,
    20,
    20,
    20,
    20,
    20,
    20,
    20,
    20,
    20,
    20,
    20,
    20,
    20,
    20,
    20,
    20,
    20,
    20,
    20,
    20,
    20,
    20,
    20,
    20,
    25,
    53,
    45,
    45,
    45,
    50,
    41,
    38,
    98,
    96,
    41,
    38,
    98,
    96,
    99,
    41,
    38,
    53,
    45,
    45,
    45,
    50,
    28,
    20,
    20,
    20,
    20,
    20,
    20,
    20,
    20,
    20,
    20,
    20,
    20,
    20,
    20,
    20,
    20,
    20,
    20,
    20,
    20,
    20,
    20,
    20,
    20,
    20,
    20,
    20,
    20,
    20,
    20,
    20,
    20,
    20,
    20,
    20,
    20,
    25,
    53,
    45,
    45,
    45,
    50,
    41,
    38,
    98,
    96,
    41,
    38,
    98,
    96,
    99,
    41,
    38,
    53,
    45,
    45,
    45,
    50,
    28,
    20,
    20,
    20,
    20,
    20,
    20,
    20,
    20,
    20,
    20,
    20,
    20,
    20,
    20,
    20,
    20,
    20,
    20,
    20,
    20,
    20,
    20,
    20,
    20,
    20,
    20,
    20,
    20,
    20,
    20,
    20,
    20,
    20,
    20,
    20,
    20,
    25,
    53,
    45,
    45,
    45,
    50,
    41,
    38,
    98,
    96,
    41,
    38,
    98,
    96,
    99,
    41,
    38,
    53,
    45,
    45,
    45,
    50,
    28,
    20,
    20,
    20,
    20,
    20,
    20,
    20,
    20,
    20,
    20,
    20,
    20,
    20,
    20,
    20,
    20,
    20,
    20,
    20,
    20,
    20,
    20,
    20,
    20,
    20,
    20,
    20,
    20,
    20,
    20,
    20,
    20,
    20,
    20,
    20,
    20,
    25,
    53,
    45,
    45,
    45,
    50,
    41,
    38,
    98,
    96,
    41,
    38,
    98,
    96,
    99,
    41,
    38,
    53,
    45,
    45,
    45,
    50,
    28,
    20,
    20,
    20,
    20,
    20,
    20,
    20,
    20,
    20,
    20,
    20,
    20,
    20,
    20,
    20,
    20,
    20,
    20,
    20,
    20,
    20,
    20,
    20,
    20,
    20,
    20,
    20,
    20,
    20,
    20,
    20,
    20,
    20,
    20,
    20,
    20,
    25,
    53,
    45,
    45,
    45,
    50,
    41,
    38,
    98,
    96,
    41,
    38,
    98,
    96,
    99,
    41,
    38,
    53,
    45,
    45,
    45,
    50,
    28,
    20,
    20,
    20,
    20,
    20,
    20,
    20,
    20,
    20,
    20,
    20,
    20,
    20,
    20,
    20,
    20,
    20,
    20,
    20,
    20,
    20,
    20,
    20,
    20,
    20,
    20,
    20,
    20,
    20,
    20,
    20,
    20,
    20,
    20,
    20,
    20,
    25,
    53,
    45,
    45,
    45,
    50,
    41,
    38,
    98,
    96,
    41,
    38,
    98,
    96,
    99,
    41,
    38,
    53,
    45,
    45,
    45,
    50,
    28,
    20,
    20,
    20,
    20,
    20,
    20,
    20,
    20,
    20,
    20,
    20,
    20,
    20,
    20,
    20,
    20,
    20,
    20,
    20,
    20,
    20,
    20,
    20,
    20,
    20,
    20,
    20,
    20,
    20,
    20,
    20,
    20,
    20,
    20,
    20,
    20,
    25,
    53,
    45,
    45,
    45,
    50,
    41,
    38,
    98,
    96,
    41,
    38,
    98,
    96,
    99,
    41,
    38,
    53,
    45,
    45,
    45,
    50,
    28,
    20,
    20,
    20,
    20,
    20,
    20,
    20,
    20,
    20,
    20,
    20,
    20,
    20,
    20,
    20,
    20,
    20,
    20,
    20,
    20,
    20,
    20,
    20,
    20,
    20,
    20,
    20,
    20,
    20,
    20,
    20,
    20,
    20,
    20,
    20,
    20,
    25,
    53,
    45,
    45,
    45,
    50,
    41,
    38,
    98,
    96,
    41,
    38,
    98,
    96,
    99,
    41,
    38,
    53,
    45,
    45,
    45,
    50,
    28,
    20,
    20,
    20,
    20,
    20,
    20,
    20,
    20,
    20,
    20,
    20,
    20,
    20,
    20,
    20,
    20,
    20,
    20,
    20,
    20,
    20,
    20,
    20,
    20,
    20,
    20,
    20,
    20,
    20,
    20,
    20,
    20,
    20,
    20,
    20,
    20,
    25,
    53,
    45,
    45,
    45,
    50,
    41,
    38,
    98,
    96,
    41,
    38,
    98,
    96,
    99,
    41,
    38,
    53,
    45,
    45,
    45,
    50,
    28,
    20,
    20,
    20,
    20,
    20,
    20,
    20,
    20,
    20,
    20,
    20,
    20,
    20,
    20,
    20,
    20,
    20,
    20,
    20,
    20,
    20,
    20,
    20,
    20,
    20,
    20,
    20,
    20,
    20,
    20,
    20,
    20,
    20,
    20,
    20,
    20,
    25,
    53,
    45,
    45,
    45,
    50,
    41,
    38,
    98,
    96,
    41,
    38,
    98,
    96,
    99,
    41,
    38,
    53,
    45,
    45,
    45,
    50,
    28,
    20,
    20,
    20,
    20,
    20,
    20,
    20,
    20,
    20,
    20,
    20,
    20,
    20,
    20,
    20,
    20,
    20,
    20,
    20,
    20,
    20,
    20,
    20,
    20,
    20,
    20,
    20,
    20,
    20,
    20,
    20,
    20,
    20,
    20,
    20,
    20,
    25,
    53,
    45,
    45,
    45,
    50,
    41,
    38,
    98,
    96,
    41,
    38,
    98,
    96,
    99,
    41,
    38,
    53,
    45,
    45,
    45,
    50,
    28,
    20,
    20,
    20,
    20,
    20,
    20,
    20,
    20,
    20,
    20,
    20,
    20,
    20,
    20,
    20,
    20,
    20,
    20,
    20,
    20,
    20,
    20,
    20,
    20,
    20,
    20,
    20,
    20,
    20,
    20,
    20,
    20,
    20,
    20,
    20,
    20,
    25,
    53,
    45,
    45,
    45,
    50,
    41,
    38,
    98,
    96,
    41,
    38,
    98,
    96,
    99,
    41,
    38,
    53,
    45,
    45,
    45,
    50,
    28,
    20,
    20,
    20,
    20,
    20,
    20,
    20,
    20,
    20,
    20,
    20,
    20,
    20,
    20,
    20,
    20,
    20,
    20,
    20,
    20,
    20,
    20,
    20,
    20,
    20,
    20,
    20,
    20,
    20,
    20,
    20,
    20,
    20,
    20,
    20,
    20,
    25,
    53,
    45,
    45,
    45,
    50,
    41,
    38,
    98,
    96,
    41,
    38,
    98,
    96,
    99,
    41,
    38,
    53,
    45,
    45,
    45,
    50,
    24,
    27,
    27,
    27,
    27,
    27,
    27,
    27,
    27,
    27,
    27,
    27,
    27,
    27,
    27,
    27,
    27,
    20,
    20,
    20,
    27,
    27,
    27,
    27,
    27,
    27,
    27,
    27,
    27,
    27,
    27,
    27,
    27,
    27,
    27,
    27,
    27,
    23,
    53,
    45,
    45,
    45,
    50,
    41,
    38,
    98,
    96,
    41,
    38,
    98,
    96,
    99,
    41,
    38,
    53,
    45,
    45,
    45,
    45,
    51,
    51,
    51,
    51,
    51,
    51,
    51,
    51,
    51,
    51,
    51,
    51,
    51,
    51,
    51,
    51,
    46,
    28,
    20,
    25,
    47,
    51,
    51,
    51,
    51,
    51,
    51,
    51,
    51,
    51,
    51,
    51,
    51,
    51,
    51,
    51,
    51,
    51,
    45,
    45,
    45,
    45,
    50,
    41,
    38,
    98,
    96,
    41,
    38,
    98,
    96,
    99,
    41,
    38,
    53,
    45,
    45,
    45,
    45,
    45,
    45,
    45,
    45,
    45,
    45,
    45,
    45,
    45,
    45,
    45,
    45,
    45,
    45,
    45,
    45,
    48,
    28,
    20,
    25,
    49,
    45,
    45,
    45,
    45,
    45,
    45,
    45,
    45,
    45,
    45,
    45,
    45,
    45,
    45,
    45,
    45,
    45,
    45,
    45,
    45,
    45,
    50,
    41,
    38,
    98,
    96,
    41,
    38,
    98,
    96,
    99,
    41,
    38,
    53,
    45,
    45,
    45,
    45,
    45,
    45,
    45,
    45,
    45,
    45,
    45,
    45,
    45,
    45,
    45,
    45,
    45,
    45,
    45,
    50,
    22,
    20,
    20,
    20,
    21,
    53,
    45,
    45,
    45,
    45,
    45,
    45,
    45,
    45,
    45,
    45,
    45,
    45,
    45,
    45,
    45,
    45,
    45,
    45,
    45,
    45,
    50,
    41,
    38,
    98,
    96,
    41,
    38,
    98,
    96,
    99,
    41,
    38,
    53,
    45,
    45,
    45,
    45,
    45,
    45,
    45,
    45,
    45,
    45,
    45,
    45,
    45,
    45,
    45,
    45,
    45,
    45,
    45,
    50,
    28,
    20,
    20,
    20,
    25,
    53,
    45,
    45,
    45,
    45,
    45,
    45,
    45,
    45,
    45,
    45,
    45,
    45,
    45,
    45,
    45,
    45,
    45,
    45,
    45,
    45,
    50,
    41,
    38,
    98,
    96,
    41,
    38,
    98,
    96,
    99,
    41,
    38,
    53,
    45,
    45,
    45,
    45,
    45,
    45,
    45,
    45,
    45,
    45,
    45,
    45,
    45,
    45,
    45,
    45,
    45,
    45,
    45,
    50,
    28,
    20,
    20,
    20,
    25,
    53,
    45,
    45,
    45,
    45,
    45,
    45,
    45,
    45,
    45,
    45,
    45,
    45,
    45,
    45,
    45,
    45,
    45,
    45,
    45,
    45,
    50,
    41,
    38,
    98,
    96,
    41,
    38,
    98,
    96,
    99,
    41,
    38,
    53,
    45,
    45,
    45,
    45,
    45,
    45,
    45,
    45,
    45,
    45,
    45,
    45,
    45,
    45,
    45,
    45,
    45,
    45,
    45,
    50,
    28,
    20,
    20,
    20,
    25,
    53,
    45,
    45,
    45,
    45,
    45,
    45,
    45,
    45,
    45,
    45,
    45,
    45,
    45,
    45,
    45,
    45,
    45,
    45,
    45,
    45,
    50,
    41,
    38,
    98,
    96,
    41,
    38,
    98,
    96,
    99,
    41,
    38,
    53,
    45,
    45,
    45,
    45,
    45,
    45,
    45,
    45,
    45,
    45,
    45,
    45,
    45,
    45,
    45,
    45,
    45,
    45,
    45,
    50,
    28,
    20,
    20,
    20,
    25,
    53,
    45,
    45,
    45,
    45,
    45,
    45,
    45,
    45,
    45,
    45,
    45,
    45,
    45,
    45,
    45,
    45,
    45,
    45,
    45,
    45,
    50,
    41,
    38,
    98,
    96,
    41,
    38,
    98,
    96,
    99,
    41,
    38,
    49,
    52,
    52,
    52,
    52,
    52,
    52,
    52,
    52,
    52,
    52,
    52,
    52,
    52,
    52,
    52,
    52,
    52,
    52,
    52,
    48,
    24,
    27,
    27,
    27,
    23,
    49,
    52,
    52,
    52,
    52,
    52,
    52,
    52,
    52,
    52,
    52,
    52,
    52,
    52,
    52,
    52,
    52,
    52,
    52,
    52,
    52,
    48,
    41,
    38,
    98,
    96,
    41,
    38,
    98,
    96,
    99,
    41,
    33,
    39,
    39,
    39,
    39,
    39,
    39,
    39,
    39,
    39,
    39,
    39,
    39,
    39,
    39,
    39,
    39,
    39,
    39,
    39,
    39,
    39,
    39,
    39,
    39,
    39,
    39,
    39,
    39,
    39,
    39,
    39,
    39,
    39,
    39,
    39,
    39,
    39,
    39,
    39,
    39,
    39,
    39,
    39,
    39,
    39,
    39,
    39,
    39,
    33,
    38,
    98,
    96,
    41,
    38,
    98,
    96,
    99,
    37,
    40,
    40,
    40,
    40,
    40,
    40,
    40,
    40,
    40,
    40,
    40,
    40,
    40,
    40,
    40,
    40,
    40,
    40,
    40,
    40,
    40,
    40,
    40,
    40,
    40,
    40,
    40,
    40,
    40,
    40,
    40,
    40,
    40,
    40,
    40,
    40,
    40,
    40,
    40,
    40,
    40,
    40,
    40,
    40,
    40,
    40,
    40,
    40,
    40,
    40,
    36,
    98,
    96,
    41,
    38,
    98,
    100,
    100,
    100,
    100,
    100,
    100,
    100,
    100,
    100,
    100,
    100,
    100,
    100,
    100,
    100,
    100,
    100,
    100,
    100,
    100,
    100,
    100,
    100,
    100,
    100,
    100,
    100,
    100,
    100,
    100,
    100,
    100,
    100,
    100,
    100,
    100,
    100,
    100,
    100,
    100,
    100,
    100,
    100,
    100,
    100,
    100,
    100,
    100,
    100,
    100,
    100,
    100,
    40,
    36,
    100,
    100,
    41,
    38,
    98,
    95,
    95,
    95,
    95,
    95,
    95,
    95,
    95,
    95,
    95,
    95,
    95,
    95,
    95,
    95,
    95,
    95,
    95,
    95,
    95,
    95,
    95,
    95,
    95,
    95,
    95,
    95,
    95,
    95,
    95,
    95,
    95,
    95,
    95,
    95,
    95,
    95,
    95,
    95,
    95,
    95,
    95,
    95,
    95,
    95,
    95,
    95,
    95,
    95,
    95,
    95,
    95,
    40,
    36,
    95,
    95,
    41,
    38,
    39,
    97,
    97,
    97,
    97,
    97,
    97,
    97,
    97,
    97,
    97,
    97,
    97,
    97,
    97,
    97,
    97,
    97,
    97,
    97,
    97,
    97,
    97,
    97,
    97,
    97,
    97,
    97,
    97,
    97,
    97,
    97,
    97,
    97,
    97,
    97,
    97,
    97,
    97,
    97,
    97,
    97,
    97,
    97,
    97,
    97,
    97,
    97,
    97,
    97,
    97,
    97,
    97,
    39,
    34,
    97,
    97,
    41,
    33,
    39,
    39,
    39,
    39,
    39,
    39,
    39,
    39,
    39,
    39,
    39,
    39,
    39,
    39,
    39,
    39,
    39,
    39,
    39,
    39,
    39,
    39,
    39,
    39,
    39,
    39,
    39,
    39,
    39,
    39,
    39,
    39,
    39,
    39,
    39,
    39,
    39,
    39,
    39,
    39,
    39,
    39,
    39,
    39,
    39,
    39,
    39,
    39,
    39,
    39,
    39,
    39,
    39,
    39,
    34,
    98,
    96,
    37,
    40,
    40,
    40,
    40,
    40,
    40,
    40,
    40,
    40,
    40,
    40,
    40,
    40,
    40,
    40,
    40,
    40,
    40,
    40,
    40,
    40,
    40,
    40,
    40,
    40,
    40,
    40,
    40,
    40,
    40,
    40,
    40,
    40,
    40,
    40,
    40,
    40,
    40,
    40,
    40,
    40,
    40,
    40,
    40,
    40,
    40,
    40,
    40,
    40,
    40,
    40,
    40,
    40,
    40,
    33,
    38,
    98,
    96
   ],
   "properties": [
    {
     "name": "gv2layer",
     "type": "string",
     "value": "Floor"
    },
    {
     "name": "z",
     "type": "int",
     "value": 0
    },
    {
     "name": "collision",
     "type": "bool",
     "value": false
    }
   ]
  },
  {
   "type": "tilelayer",
   "id": 2,
   "name": "Over Floor",
   "width": 59,
   "height": 46,
   "x": 0,
   "y": 0,
   "opacity": 1,
   "visible": true,
   "data": [
    0,
    0,
    0,
    0,
    0,
    0,
    0,
    0,
    0,
    0,
    0,
    0,
    0,
    0,
    0,
    0,
    0,
    0,
    0,
    0,
    0,
    0,
    0,
    0,
    0,
    0,
    0,
    0,
    0,
    0,
    0,
    0,
    0,
    0,
    0,
    0,
    0,
    0,
    0,
    0,
    0,
    0,
    0,
    0,
    0,
    0,
    0,
    0,
    0,
    0,
    0,
    0,
    0,
    0,
    0,
    0,
    0,
    0,
    0,
    0,
    0,
    0,
    0,
    0,
    0,
    0,
    0,
    0,
    0,
    0,
    0,
    0,
    0,
    0,
    0,
    0,
    0,
    0,
    0,
    0,
    0,
    0,
    0,
    0,
    0,
    0,
    0,
    0,
    0,
    0,
    0,
    0,
    0,
    0,
    0,
    0,
    0,
    0,
    0,
    0,
    0,
    0,
    0,
    0,
    0,
    0,
    0,
    0,
    0,
    0,
    0,
    0,
    0,
    0,
    0,
    0,
    0,
    0,
    0,
    0,
    0,
    0,
    0,
    0,
    0,
    0,
    0,
    0,
    0,
    0,
    0,
    0,
    0,
    0,
    0,
    0,
    0,
    0,
    0,
    0,
    0,
    0,
    0,
    0,
    0,
    0,
    0,
    0,
    0,
    0,
    0,
    0,
    0,
    0,
    0,
    0,
    0,
    0,
    0,
    0,
    0,
    0,
    0,
    0,
    0,
    0,
    0,
    0,
    0,
    0,
    0,
    0,
    0,
    0,
    0,
    0,
    0,
    0,
    0,
    0,
    0,
    0,
    0,
    0,
    0,
    0,
    0,
    0,
    0,
    0,
    0,
    0,
    0,
    0,
    0,
    0,
    0,
    0,
    0,
    0,
    0,
    0,
    0,
    0,
    0,
    0,
    0,
    0,
    0,
    0,
    0,
    0,
    0,
    0,
    0,
    0,
    0,
    0,
    0,
    0,
    0,
    0,
    0,
    0,
    0,
    0,
    0,
    0,
    0,
    0,
    0,
    0,
    0,
    0,
    0,
    0,
    0,
    0,
    0,
    0,
    0,
    0,
    0,
    0,
    0,
    0,
    0,
    0,
    0,
    0,
    0,
    0,
    0,
    0,
    0,
    0,
    0,
    0,
    0,
    0,
    0,
    0,
    0,
    0,
    0,
    0,
    0,
    0,
    0,
    0,
    0,
    0,
    0,
    0,
    0,
    0,
    0,
    0,
    0,
    0,
    0,
    0,
    0,
    0,
    0,
    0,
    0,
    0,
    0,
    0,
    0,
    0,
    0,
    0,
    0,
    0,
    0,
    0,
    0,
    0,
    0,
    0,
    0,
    0,
    0,
    0,
    0,
    0,
    0,
    0,
    0,
    0,
    0,
    0,
    0,
    0,
    0,
    0,
    0,
    0,
    0,
    0,
    0,
    0,
    0,
    0,
    0,
    0,
    0,
    0,
    0,
    0,
    0,
    0,
    0,
    0,
    0,
    0,
    0,
    0,
    0,
    0,
    0,
    0,
    0,
    0,
    0,
    0,
    0,
    0,
    0,
    0,
    0,
    0,
    0,
    0,
    0,
    0,
    0,
    0,
    0,
    0,
    0,
    0,
    0,
    0,
    0,
    0,
    0,
    0,
    0,
    0,
    0,
    0,
    0,
    0,
    0,
    0,
    0,
    0,
    0,
    0,
    0,
    0,
    0,
    0,
    0,
    0,
    0,
    0,
    0,
    0,
    0,
    0,
    0,
    0,
    0,
    0,
    0,
    0,
    0,
    0,
    0,
    0,
    0,
    0,
    0,
    0,
    0,
    0,
    0,
    0,
    0,
    0,
    0,
    0,
    0,
    0,
    0,
    0,
    0,
    0,
    54,
    0,
    0,
    0,
    0,
    0,
    0,
    54,
    0,
    0,
    0,
    0,
    0,
    0,
    0,
    0,
    0,
    0,
    0,
    0,
    0,
    0,
    0,
    0,
    0,
    0,
    0,
    54,
    0,
    0,
    0,
    0,
    0,
    0,
    0,
    0,
    0,
    0,
    54,
    0,
    0,
    0,
    0,
    0,
    0,
    0,
    0,
    0,
    0,
    0,
    0,
    0,
    0,
    0,
    0,
    0,
    0,
    0,
    0,
    57,
    55,
    0,
    0,
    0,
    57,
    0,
    0,
    0,
    0,
    55,
    0,
    0,
    55,
    0,
    57,
    0,
    0,
    55,
    0,
    0,
    0,
    0,
    0,
    0,
    57,
    0,
    0,
    0,
    57,
    0,
    0,
    0,
    0,
    57,
    0,
    0,
    0,
    0,
    0,
    0,
    0,
    0,
    0,
    0,
    0,
    0,
    0,
    0,
    0,
    0,
    0,
    0,
    0,
    0,
    0,
    0,
    0,
    0,
    0,
    56,
    0,
    0,
    0,
    0,
    57,
    0,
    56,
    0,
    57,
    55,
    0,
    0,
    0,
    55,
    0,
    55,
    0,
    0,
    57,
    0,
    0,
    57,
    0,
    0,
    54,
    57,
    0,
    0,
    0,
    0,
    57,
    0,
    0,
    0,
    57,
    0,
    0,
    57,
    0,
    0,
    0,
    0,
    0,
    0,
    0,
    0,
    0,
    0,
    0,
    0,
    0,
    0,
    0,
    0,
    0,
    0,
    0,
    0,
    0,
    0,
    0,
    0,
    0,
    0,
    0,
    0,
    0,
    0,
    0,
    0,
    0,
    0,
    0,
    0,
    0,
    0,
    0,
    0,
    0,
    0,
    0,
    0,
    0,
    0,
    0,
    0,
    0,
    0,
    0,
    0,
    0,
    0,
    0,
    0,
    0,
    0,
    0,
    0,
    0,
    0,
    0,
    0,
    0,
    0,
    0,
    0,
    0,
    0,
    0,
    0,
    0,
    0,
    0,
    0,
    54,
    54,
    54,
    0,
    0,
    0,
    0,
    0,
    0,
    0,
    0,
    0,
    0,
    0,
    0,
    0,
    0,
    0,
    0,
    0,
    0,
    0,
    0,
    0,
    0,
    0,
    0,
    0,
    0,
    0,
    0,
    0,
    0,
    0,
    0,
    0,
    0,
    0,
    0,
    0,
    0,
    0,
    0,
    0,
    0,
    0,
    0,
    0,
    0,
    0,
    0,
    0,
    0,
    0,
    0,
    0,
    0,
    0,
    0,
    0,
    0,
    54,
    0,
    0,
    0,
    0,
    0,
    0,
    0,
    0,
    0,
    0,
    0,
    0,
    0,
    0,
    0,
    0,
    0,
    0,
    0,
    0,
    0,
    0,
    0,
    0,
    0,
    0,
    0,
    0,
    0,
    0,
    0,
    0,
    0,
    0,
    0,
    0,
    0,
    0,
    0,
    0,
    0,
    0,
    0,
    0,
    0,
    0,
    0,
    0,
    0,
    0,
    0,
    0,
    0,
    0,
    0,
    0,
    0,
    0,
    57,
    0,
    0,
    0,
    0,
    0,
    0,
    0,
    0,
    0,
    0,
    0,
    0,
    0,
    0,
    0,
    0,
    0,
    0,
    0,
    0,
    0,
    0,
    0,
    0,
    0,
    0,
    0,
    0,
    0,
    0,
    0,
    0,
    0,
    0,
    0,
    0,
    0,
    0,
    0,
    0,
    0,
    0,
    0,
    0,
    0,
    0,
    0,
    0,
    0,
    0,
    0,
    0,
    0,
    0,
    0,
    0,
    0,
    0,
    0,
    0,
    0,
    0,
    0,
    0,
    0,
    0,
    0,
    0,
    0,
    0,
    0,
    0,
    0,
    0,
    0,
    0,
    0,
    0,
    0,
    0,
    0,
    0,
    0,
    0,
    0,
    0,
    0,
    0,
    0,
    0,
    0,
    0,
    0,
    0,
    0,
    0,
    0,
    0,
    0,
    0,
    0,
    0,
    0,
    0,
    0,
    0,
    0,
    0,
    0,
    0,
    0,
    0,
    0,
    0,
    0,
    0,
    0,
    0,
    0,
    0,
    0,
    0,
    0,
    0,
    0,
    0,
    0,
    0,
    0,
    0,
    0,
    0,
    0,
    0,
    0,
    0,
    0,
    0,
    0,
    0,
    0,
    0,
    0,
    0,
    0,
    0,
    0,
    0,
    0,
    0,
    0,
    0,
    0,
    0,
    0,
    0,
    0,
    0,
    0,
    0,
    0,
    0,
    0,
    0,
    0,
    0,
    0,
    0,
    0,
    0,
    0,
    0,
    0,
    0,
    0,
    0,
    54,
    0,
    0,
    0,
    0,
    0,
    0,
    0,
    0,
    0,
    0,
    0,
    0,
    0,
    0,
    0,
    0,
    0,
    0,
    0,
    0,
    0,
    0,
    0,
    0,
    0,
    0,
    0,
    0,
    0,
    0,
    0,
    0,
    0,
    0,
    0,
    0,
    0,
    0,
    0,
    0,
    0,
    0,
    0,
    0,
    0,
    0,
    0,
    0,
    0,
    0,
    0,
    0,
    0,
    0,
    0,
    0,
    56,
    0,
    0,
    0,
    0,
    0,
    0,
    0,
    0,
    0,
    0,
    0,
    0,
    0,
    0,
    0,
    113,
    0,
    0,
    0,
    0,
    0,
    0,
    0,
    0,
    0,
    0,
    0,
    0,
    0,
    0,
    0,
    0,
    0,
    0,
    0,
    0,
    0,
    79,
    77,
    0,
    0,
    0,
    0,
    0,
    0,
    0,
    0,
    0,
    0,
    0,
    0,
    0,
    0,
    0,
    0,
    0,
    0,
    0,
    0,
    0,
    0,
    0,
    0,
    0,
    0,
    0,
    0,
    0,
    0,
    0,
    0,
    0,
    0,
    0,
    0,
    0,
    0,
    0,
    0,
    0,
    0,
    0,
    0,
    0,
    0,
    0,
    0,
    0,
    0,
    0,
    0,
    0,
    0,
    0,
    0,
    0,
    80,
    79,
    0,
    0,
    0,
    0,
    0,
    0,
    0,
    0,
    0,
    0,
    0,
    0,
    0,
    0,
    0,
    0,
    0,
    0,
    0,
    0,
    0,
    0,
    0,
    0,
    0,
    0,
    0,
    0,
    0,
    0,
    0,
    0,
    0,
    0,
    0,
    0,
    0,
    0,
    0,
    0,
    0,
    0,
    0,
    0,
    0,
    0,
    0,
    0,
    0,
    0,
    0,
    0,
    0,
    0,
    0,
    0,
    0,
    80,
    80,
    0,
    0,
    0,
    0,
    0,
    0,
    0,
    0,
    0,
    0,
    0,
    0,
    0,
    0,
    0,
    0,
    0,
    0,
    0,
    0,
    0,
    0,
    0,
    0,
    0,
    0,
    0,
    0,
    0,
    0,
    0,
    0,
    0,
    0,
    0,
    0,
    0,
    0,
    0,
    0,
    0,
    0,
    119,
    0,
    0,
    0,
    0,
    0,
    0,
    0,
    0,
    0,
    0,
    0,
    0,
    0,
    0,
    79,
    80,
    0,
    0,
    0,
    0,
    0,
    0,
    0,
    0,
    0,
    0,
    0,
    0,
    0,
    0,
    0,
    0,
    0,
    0,
    0,
    0,
    0,
    0,
    0,
    0,
    0,
    0,
    0,
    0,
    0,
    0,
    0,
    0,
    0,
    0,
    0,
    0,
    0,
    0,
    0,
    0,
    0,
    0,
    119,
    0,
    0,
    0,
    0,
    0,
    0,
    0,
    0,
    0,
    0,
    0,
    0,
    0,
    0,
    80,
    79,
    0,
    0,
    0,
    0,
    0,
    0,
    0,
    0,
    0,
    0,
    0,
    0,
    0,
    0,
    0,
    0,
    0,
    0,
    0,
    0,
    0,
    0,
    0,
    0,
    0,
    0,
    0,
    0,
    0,
    0,
    0,
    0,
    0,
    0,
    0,
    0,
    0,
    0,
    0,
    0,
    0,
    0,
    119,
    0,
    0,
    0,
    0,
    0,
    0,
    0,
    0,
    0,
    0,
    0,
    0,
    0,
    0,
    79,
    77,
    0,
    0,
    0,
    0,
    0,
    0,
    0,
    0,
    0,
    0,
    0,
    0,
    0,
    0,
    0,
    0,
    0,
    0,
    0,
    0,
    0,
    0,
    0,
    0,
    0,
    0,
    0,
    0,
    0,
    0,
    0,
    0,
    0,
    0,
    0,
    0,
    0,
    0,
    0,
    0,
    0,
    0,
    119,
    0,
    0,
    0,
    0,
    0,
    0,
    0,
    0,
    0,
    0,
    0,
    0,
    0,
    0,
    76,
    80,
    0,
    0,
    0,
    0,
    0,
    0,
    0,
    0,
    0,
    0,
    0,
    0,
    0,
    0,
    0,
    0,
    0,
    0,
    0,
    57,
    57,
    54,
    0,
    0,
    0,
    0,
    0,
    0,
    0,
    0,
    123,
    121,
    121,
    121,
    121,
    121,
    121,
    121,
    121,
    121,
    121,
    121,
    118,
    121,
    121,
    121,
    121,
    121,
    121,
    121,
    121,
    121,
    121,
    121,
    121,
    122,
    77,
    81,
    78,
    0,
    0,
    0,
    0,
    0,
    0,
    0,
    0,
    0,
    0,
    0,
    0,
    0,
    0,
    0,
    0,
    0,
    0,
    0,
    0,
    0,
    0,
    0,
    0,
    0,
    0,
    0,
    0,
    0,
    0,
    119,
    0,
    0,
    0,
    0,
    0,
    0,
    0,
    0,
    0,
    0,
    0,
    119,
    0,
    0,
    0,
    0,
    0,
    0,
    0,
    0,
    0,
    0,
    0,
    0,
    0,
    0,
    0,
    0,
    0,
    0,
    0,
    0,
    0,
    0,
    0,
    0,
    0,
    0,
    0,
    0,
    0,
    0,
    0,
    0,
    0,
    0,
    0,
    0,
    0,
    0,
    0,
    0,
    0,
    0,
    0,
    0,
    0,
    0,
    119,
    0,
    0,
    0,
    0,
    0,
    0,
    0,
    0,
    0,
    0,
    0,
    119,
    0,
    0,
    0,
    0,
    0,
    0,
    0,
    0,
    0,
    0,
    0,
    0,
    0,
    0,
    0,
    0,
    0,
    0,
    0,
    0,
    0,
    0,
    0,
    0,
    0,
    0,
    0,
    0,
    0,
    0,
    0,
    0,
    0,
    0,
    0,
    54,
    0,
    0,
    0,
    0,
    0,
    0,
    0,
    0,
    0,
    0,
    120,
    0,
    0,
    0,
    0,
    0,
    0,
    0,
    0,
    0,
    0,
    0,
    119,
    0,
    0,
    0,
    0,
    0,
    0,
    0,
    0,
    0,
    0,
    0,
    0,
    0,
    0,
    0,
    0,
    0,
    0,
    0,
    0,
    0,
    57,
    56,
    0,
    0,
    0,
    0,
    0,
    0,
    0,
    0,
    0,
    0,
    0,
    0,
    0,
    0,
    0,
    0,
    0,
    0,
    0,
    0,
    0,
    0,
    0,
    0,
    0,
    0,
    0,
    0,
    0,
    0,
    0,
    0,
    0,
    0,
    0,
    119,
    0,
    0,
    0,
    0,
    0,
    0,
    0,
    0,
    0,
    0,
    0,
    0,
    0,
    0,
    0,
    0,
    0,
    0,
    0,
    0,
    0,
    54,
    0,
    0,
    0,
    0,
    0,
    0,
    0,
    0,
    0,
    0,
    0,
    0,
    0,
    0,
    54,
    0,
    0,
    0,
    0,
    0,
    0,
    0,
    0,
    0,
    0,
    0,
    0,
    0,
    0,
    0,
    0,
    0,
    0,
    0,
    0,
    16,
    119,
    0,
    0,
    0,
    0,
    0,
    0,
    0,
    0,
    0,
    0,
    0,
    0,
    0,
    0,
    0,
    0,
    0,
    0,
    0,
    0,
    0,
    0,
    0,
    0,
    0,
    0,
    0,
    0,
    0,
    0,
    0,
    0,
    0,
    0,
    0,
    0,
    0,
    54,
    0,
    0,
    0,
    0,
    0,
    0,
    0,
    0,
    0,
    0,
    0,
    0,
    0,
    0,
    0,
    0,
    0,
    0,
    0,
    16,
    16,
    16,
    0,
    0,
    0,
    0,
    0,
    0,
    0,
    0,
    0,
    0,
    0,
    0,
    0,
    0,
    0,
    0,
    0,
    0,
    0,
    0,
    54,
    0,
    0,
    0,
    0,
    0,
    0,
    0,
    0,
    0,
    0,
    0,
    0,
    0,
    0,
    0,
    0,
    0,
    0,
    0,
    0,
    0,
    0,
    0,
    0,
    0,
    0,
    0,
    0,
    0,
    0,
    0,
    0,
    0,
    0,
    0,
    16,
    16,
    16,
    0,
    0,
    0,
    0,
    0,
    0,
    0,
    0,
    0,
    0,
    0,
    0,
    0,
    0,
    0,
    0,
    0,
    0,
    0,
    0,
    0,
    57,
    0,
    0,
    0,
    0,
    0,
    0,
    0,
    0,
    0,
    0,
    0,
    0,
    54,
    0,
    0,
    0,
    0,
    0,
    0,
    0,
    0,
    0,
    0,
    0,
    0,
    0,
    0,
    0,
    0,
    0,
    0,
    0,
    0,
    0,
    16,
    16,
    16,
    0,
    0,
    0,
    0,
    0,
    0,
    0,
    0,
    0,
    0,
    0,
    0,
    0,
    0,
    0,
    0,
    0,
    0,
    0,
    0,
    0,
    0,
    0,
    0,
    0,
    0,
    0,
    0,
    0,
    0,
    0,
    0,
    0,
    0,
    0,
    54,
    54,
    54,
    0,
    0,
    0,
    57,
    54,
    0,
    0,
    54,
    0,
    0,
    0,
    0,
    0,
    0,
    0,
    0,
    0,
    0,
    16,
    16,
    16,
    0,
    0,
    0,
    0,
    0,
    0,
    0,
    0,
    0,
    0,
    0,
    54,
    0,
    0,
    0,
    0,
    0,
    0,
    0,
    0,
    0,
    0,
    56,
    0,
    0,
    0,
    0,
    0,
    0,
    0,
    0,
    0,
    0,
    0,
    0,
    0,
    0,
    55,
    55,
    0,
    57,
    0,
    0,
    0,
    54,
    0,
    54,
    0,
    0,
    0,
    0,
    0,
    0,
    0,
    0,
    0,
    0,
    0,
    0,
    0,
    0,
    0,
    0,
    0,
    0,
    0,
    0,
    0,
    0,
    56,
    57,
    0,
    0,
    54,
    0,
    0,
    57,
    0,
    0,
    56,
    57,
    0,
    0,
    0,
    0,
    0,
    0,
    0,
    0,
    0,
    0,
    0,
    0,
    57,
    0,
    0,
    0,
    55,
    56,
    57,
    0,
    0,
    0,
    0,
    0,
    54,
    0,
    0,
    0,
    0,
    0,
    0,
    0,
    0,
    0,
    0,
    0,
    0,
    0,
    0,
    0,
    0,
    0,
    0,
    0,
    0,
    57,
    0,
    0,
    0,
    0,
    0,
    57,
    0,
    0,
    0,
    0,
    0,
    0,
    0,
    0,
    0,
    0,
    0,
    0,
    0,
    0,
    0,
    0,
    0,
    0,
    0,
    0,
    0,
    0,
    0,
    55,
    54,
    0,
    0,
    0,
    57,
    0,
    0,
    56,
    0,
    0,
    0,
    0,
    0,
    0,
    0,
    0,
    0,
    0,
    0,
    0,
    0,
    0,
    0,
    0,
    0,
    0,
    0,
    0,
    54,
    0,
    0,
    0,
    56,
    0,
    0,
    0,
    0,
    54,
    0,
    0,
    57,
    0,
    0,
    0,
    0,
    0,
    0,
    0,
    0,
    0,
    0,
    0,
    0,
    0,
    0,
    57,
    57,
    0,
    0,
    57,
    56,
    0,
    57,
    0,
    54,
    0,
    54,
    0,
    0,
    0,
    0,
    0,
    0,
    0,
    0,
    0,
    0,
    0,
    0,
    0,
    0,
    0,
    0,
    0,
    0,
    0,
    0,
    57,
    0,
    0,
    0,
    57,
    0,
    0,
    54,
    57,
    0,
    54,
    0,
    57,
    0,
    0,
    0,
    0,
    0,
    0,
    0,
    0,
    0,
    0,
    0,
    0,
    0,
    0,
    0,
    54,
    0,
    56,
    0,
    0,
    0,
    0,
    0,
    0,
    56,
    0,
    0,
    0,
    0,
    0,
    0,
    0,
    0,
    0,
    0,
    0,
    0,
    0,
    0,
    0,
    0,
    0,
    0,
    0,
    0,
    0,
    56,
    0,
    0,
    0,
    0,
    0,
    0,
    56,
    0,
    0,
    0,
    0,
    0,
    0,
    0,
    0,
    0,
    0,
    0,
    0,
    0,
    0,
    0,
    0,
    0,
    0,
    0,
    0,
    0,
    0,
    0,
    0,
    0,
    0,
    0,
    0,
    0,
    0,
    0,
    0,
    0,
    0,
    0,
    0,
    0,
    0,
    0,
    0,
    0,
    0,
    0,
    0,
    0,
    0,
    0,
    0,
    0,
    0,
    0,
    0,
    0,
    0,
    0,
    0,
    0,
    0,
    0,
    0,
    0,
    0,
    0,
    0,
    0,
    0,
    0,
    0,
    0,
    0,
    0,
    0,
    0,
    0,
    0,
    0,
    0,
    0,
    0,
    0,
    0,
    0,
    0,
    0,
    0,
    0,
    0,
    0,
    0,
    0,
    0,
    0,
    0,
    0,
    0,
    0,
    0,
    0,
    0,
    0,
    0,
    0,
    0,
    0,
    0,
    0,
    0,
    0,
    0,
    0,
    0,
    0,
    0,
    0,
    0,
    0,
    0,
    0,
    0,
    0,
    0,
    0,
    0,
    0,
    0,
    0,
    0,
    0,
    0,
    0,
    0,
    0,
    0,
    0,
    0,
    0,
    0,
    0,
    0,
    0,
    0,
    0,
    0,
    0,
    0,
    0,
    0,
    0,
    0,
    0,
    0,
    0,
    0,
    0,
    0,
    0,
    0,
    0,
    0,
    0,
    0,
    0,
    0,
    0,
    0,
    0,
    0,
    0,
    0,
    0,
    0,
    0,
    0,
    0,
    0,
    0,
    0,
    0,
    0,
    0,
    0,
    0,
    0,
    0,
    0,
    0,
    0,
    0,
    0,
    0,
    0,
    0,
    0,
    0,
    0,
    0,
    0,
    0,
    0,
    0,
    0,
    0,
    0,
    0,
    0,
    0,
    0,
    0,
    0,
    0,
    0,
    0,
    0,
    0,
    0,
    0,
    0,
    0,
    0,
    0,
    0,
    0,
    0,
    0,
    0,
    0,
    0,
    0,
    0,
    0,
    0,
    0,
    0,
    0,
    0,
    0,
    0,
    0,
    0,
    0,
    0,
    0,
    0,
    0,
    0,
    0,
    0,
    0,
    0,
    0,
    0,
    0,
    0,
    0,
    0,
    0,
    0,
    0,
    0,
    0,
    0,
    0,
    0,
    0,
    0,
    0,
    0,
    0,
    0,
    0,
    0,
    0,
    0,
    0,
    0,
    0,
    0,
    0,
    0,
    0,
    0,
    0,
    0,
    0,
    0,
    0,
    0,
    0,
    0,
    0,
    0,
    0,
    0,
    0,
    0,
    0,
    0,
    0,
    0,
    0,
    0,
    0,
    0,
    0,
    0,
    0,
    0,
    0,
    0,
    0,
    0,
    0,
    0,
    0,
    0,
    0,
    0,
    0,
    0,
    0,
    0,
    0,
    0,
    0,
    0,
    0,
    0,
    0,
    0,
    0,
    0,
    0,
    0,
    0,
    0,
    0,
    0,
    0,
    0,
    0,
    0,
    0,
    0,
    0,
    0,
    0,
    0,
    0,
    0,
    0,
    0,
    0,
    0,
    0,
    0,
    0,
    0,
    0,
    0,
    0,
    0,
    0,
    0,
    0,
    0,
    0,
    0,
    0,
    0,
    0,
    0,
    0,
    0,
    0,
    0,
    0,
    0,
    0,
    0,
    0,
    0,
    0,
    0,
    0,
    0,
    0,
    0,
    0,
    0,
    0,
    0,
    0,
    0,
    0,
    0,
    0,
    0,
    0,
    0,
    0,
    0,
    0,
    0,
    0,
    0,
    0,
    0,
    0,
    0,
    0,
    0,
    0,
    0,
    0,
    0,
    0,
    0,
    0,
    0,
    0,
    0,
    0,
    0,
    0
   ],
   "properties": [
    {
     "name": "gv2layer",
     "type": "string",
     "value": "Over Floor"
    },
    {
     "name": "z",
     "type": "int",
     "value": 1
    },
    {
     "name": "collision",
     "type": "bool",
     "value": false
    }
   ]
  },
  {
   "type": "objectgroup",
   "id": 3,
   "name": "Over Floor \u00b7obj",
   "x": 0,
   "y": 0,
   "opacity": 1,
   "visible": true,
   "draworder": "index",
   "objects": [
    {
     "id": 1,
     "gid": 74,
     "name": "pagoda-floor_0_0",
     "x": 1152,
     "y": 1280,
     "width": 192,
     "height": 192,
     "visible": true
    },
    {
     "id": 2,
     "gid": 74,
     "name": "pagoda-floor_0_0",
     "x": 2560,
     "y": 1280,
     "width": 192,
     "height": 192,
     "visible": true
    }
   ],
   "properties": [
    {
     "name": "gv2layer",
     "type": "string",
     "value": "Over Floor"
    },
    {
     "name": "z",
     "type": "int",
     "value": 1
    },
    {
     "name": "collision",
     "type": "bool",
     "value": false
    }
   ]
  },
  {
   "type": "tilelayer",
   "id": 4,
   "name": "Water",
   "width": 59,
   "height": 46,
   "x": 0,
   "y": 0,
   "opacity": 1,
   "visible": true,
   "data": [
    0,
    0,
    0,
    0,
    0,
    0,
    0,
    0,
    0,
    0,
    0,
    0,
    0,
    0,
    0,
    0,
    0,
    0,
    0,
    0,
    0,
    0,
    0,
    0,
    0,
    0,
    0,
    0,
    0,
    0,
    0,
    0,
    0,
    0,
    0,
    0,
    0,
    0,
    0,
    0,
    0,
    0,
    0,
    0,
    0,
    0,
    0,
    0,
    0,
    0,
    0,
    0,
    0,
    0,
    0,
    0,
    0,
    0,
    0,
    0,
    0,
    0,
    0,
    0,
    0,
    0,
    0,
    0,
    0,
    0,
    0,
    0,
    0,
    0,
    0,
    0,
    0,
    0,
    0,
    0,
    0,
    0,
    0,
    0,
    0,
    0,
    0,
    0,
    0,
    0,
    0,
    0,
    0,
    0,
    0,
    0,
    0,
    0,
    0,
    0,
    0,
    0,
    0,
    0,
    0,
    0,
    0,
    0,
    0,
    0,
    0,
    0,
    0,
    0,
    0,
    0,
    0,
    0,
    0,
    0,
    0,
    0,
    0,
    0,
    0,
    0,
    0,
    0,
    0,
    0,
    0,
    0,
    0,
    0,
    0,
    0,
    0,
    0,
    0,
    0,
    0,
    0,
    0,
    0,
    0,
    0,
    0,
    0,
    0,
    0,
    0,
    0,
    0,
    0,
    0,
    0,
    0,
    0,
    0,
    0,
    0,
    0,
    0,
    0,
    0,
    0,
    0,
    0,
    0,
    0,
    0,
    0,
    0,
    0,
    0,
    0,
    0,
    0,
    0,
    0,
    0,
    0,
    0,
    0,
    0,
    0,
    0,
    0,
    0,
    0,
    0,
    0,
    0,
    0,
    0,
    0,
    0,
    0,
    0,
    0,
    0,
    0,
    0,
    0,
    0,
    0,
    0,
    0,
    0,
    0,
    0,
    0,
    0,
    0,
    0,
    0,
    0,
    0,
    0,
    0,
    0,
    0,
    0,
    0,
    0,
    0,
    0,
    0,
    0,
    0,
    0,
    0,
    0,
    0,
    0,
    0,
    0,
    0,
    0,
    0,
    0,
    0,
    0,
    0,
    0,
    0,
    0,
    0,
    0,
    0,
    0,
    0,
    0,
    0,
    0,
    0,
    0,
    0,
    0,
    0,
    0,
    0,
    0,
    0,
    0,
    0,
    0,
    0,
    0,
    0,
    0,
    0,
    0,
    0,
    0,
    0,
    0,
    0,
    0,
    0,
    0,
    0,
    0,
    0,
    0,
    0,
    0,
    0,
    0,
    0,
    0,
    0,
    0,
    0,
    0,
    0,
    0,
    0,
    0,
    0,
    0,
    0,
    0,
    0,
    0,
    0,
    0,
    0,
    0,
    0,
    0,
    0,
    0,
    0,
    0,
    0,
    0,
    0,
    0,
    0,
    0,
    0,
    0,
    0,
    0,
    0,
    0,
    0,
    0,
    0,
    0,
    0,
    0,
    0,
    0,
    0,
    0,
    0,
    0,
    0,
    0,
    0,
    0,
    0,
    0,
    0,
    0,
    0,
    0,
    0,
    0,
    0,
    0,
    0,
    0,
    0,
    0,
    0,
    0,
    0,
    0,
    0,
    0,
    0,
    0,
    0,
    0,
    0,
    0,
    0,
    0,
    0,
    0,
    0,
    0,
    0,
    0,
    0,
    0,
    0,
    0,
    0,
    0,
    0,
    0,
    0,
    0,
    0,
    0,
    0,
    0,
    0,
    0,
    0,
    0,
    0,
    0,
    0,
    0,
    0,
    0,
    0,
    0,
    0,
    0,
    0,
    0,
    0,
    0,
    0,
    0,
    0,
    0,
    0,
    0,
    0,
    0,
    0,
    0,
    0,
    0,
    0,
    0,
    0,
    0,
    0,
    0,
    0,
    0,
    0,
    0,
    0,
    0,
    0,
    0,
    0,
    0,
    0,
    0,
    0,
    0,
    0,
    0,
    0,
    0,
    0,
    0,
    0,
    0,
    0,
    0,
    0,
    0,
    0,
    0,
    0,
    0,
    0,
    0,
    0,
    0,
    0,
    0,
    0,
    0,
    0,
    0,
    0,
    0,
    0,
    0,
    0,
    0,
    0,
    0,
    0,
    0,
    0,
    0,
    0,
    0,
    0,
    0,
    0,
    0,
    0,
    0,
    0,
    0,
    0,
    0,
    0,
    0,
    0,
    0,
    0,
    0,
    0,
    0,
    0,
    0,
    0,
    0,
    0,
    0,
    0,
    0,
    0,
    0,
    0,
    0,
    0,
    0,
    0,
    0,
    0,
    0,
    0,
    0,
    0,
    0,
    0,
    0,
    0,
    0,
    0,
    0,
    0,
    0,
    0,
    0,
    0,
    0,
    0,
    0,
    0,
    0,
    0,
    0,
    0,
    0,
    0,
    0,
    0,
    0,
    0,
    0,
    0,
    0,
    0,
    0,
    0,
    0,
    0,
    0,
    0,
    0,
    0,
    0,
    0,
    0,
    0,
    0,
    0,
    0,
    0,
    0,
    0,
    0,
    0,
    0,
    0,
    0,
    0,
    0,
    0,
    0,
    0,
    0,
    0,
    0,
    0,
    0,
    0,
    0,
    0,
    0,
    0,
    0,
    0,
    0,
    0,
    0,
    0,
    0,
    0,
    0,
    0,
    0,
    0,
    0,
    0,
    0,
    0,
    0,
    0,
    0,
    0,
    0,
    0,
    0,
    0,
    0,
    0,
    0,
    0,
    0,
    0,
    0,
    0,
    0,
    0,
    0,
    0,
    0,
    0,
    0,
    0,
    0,
    0,
    0,
    0,
    0,
    0,
    0,
    0,
    0,
    0,
    0,
    0,
    0,
    0,
    0,
    0,
    0,
    0,
    0,
    0,
    0,
    0,
    0,
    0,
    0,
    0,
    0,
    0,
    0,
    0,
    0,
    0,
    0,
    0,
    0,
    0,
    0,
    0,
    0,
    0,
    0,
    0,
    0,
    0,
    0,
    0,
    0,
    0,
    0,
    0,
    0,
    0,
    0,
    0,
    0,
    0,
    0,
    0,
    0,
    0,
    0,
    0,
    0,
    0,
    0,
    0,
    0,
    0,
    0,
    0,
    0,
    0,
    0,
    0,
    0,
    0,
    0,
    0,
    0,
    0,
    0,
    0,
    0,
    0,
    0,
    0,
    0,
    0,
    0,
    0,
    0,
    0,
    0,
    0,
    0,
    0,
    0,
    0,
    0,
    0,
    0,
    0,
    0,
    0,
    0,
    0,
    0,
    0,
    0,
    0,
    0,
    0,
    0,
    0,
    0,
    0,
    0,
    0,
    0,
    0,
    0,
    0,
    0,
    0,
    0,
    0,
    0,
    0,
    0,
    0,
    0,
    0,
    0,
    0,
    0,
    0,
    0,
    0,
    0,
    0,
    0,
    0,
    0,
    0,
    0,
    0,
    0,
    0,
    0,
    0,
    0,
    0,
    0,
    0,
    0,
    0,
    0,
    0,
    0,
    0,
    0,
    0,
    0,
    0,
    0,
    0,
    0,
    0,
    0,
    0,
    0,
    0,
    0,
    0,
    0,
    0,
    0,
    0,
    0,
    0,
    0,
    0,
    0,
    0,
    0,
    0,
    0,
    0,
    0,
    0,
    0,
    0,
    0,
    0,
    0,
    0,
    0,
    0,
    0,
    0,
    0,
    0,
    0,
    0,
    0,
    0,
    0,
    0,
    0,
    0,
    0,
    0,
    0,
    0,
    0,
    0,
    0,
    0,
    0,
    0,
    0,
    0,
    0,
    0,
    0,
    0,
    0,
    0,
    0,
    0,
    0,
    0,
    0,
    0,
    0,
    0,
    0,
    0,
    0,
    0,
    0,
    0,
    0,
    0,
    0,
    0,
    0,
    0,
    0,
    0,
    0,
    0,
    0,
    0,
    0,
    0,
    0,
    0,
    0,
    0,
    0,
    0,
    0,
    0,
    0,
    0,
    0,
    0,
    0,
    0,
    0,
    0,
    0,
    0,
    0,
    0,
    0,
    0,
    0,
    0,
    0,
    0,
    0,
    0,
    0,
    0,
    0,
    0,
    0,
    0,
    0,
    0,
    0,
    0,
    0,
    0,
    0,
    0,
    0,
    0,
    0,
    0,
    0,
    0,
    0,
    0,
    0,
    0,
    0,
    0,
    0,
    0,
    0,
    0,
    0,
    0,
    0,
    0,
    0,
    0,
    0,
    0,
    0,
    0,
    0,
    0,
    0,
    0,
    0,
    0,
    0,
    0,
    0,
    0,
    0,
    0,
    0,
    0,
    0,
    0,
    0,
    0,
    0,
    0,
    0,
    0,
    0,
    0,
    0,
    0,
    0,
    0,
    0,
    0,
    0,
    0,
    0,
    0,
    0,
    0,
    0,
    0,
    0,
    0,
    0,
    0,
    0,
    0,
    0,
    0,
    0,
    0,
    0,
    0,
    0,
    0,
    0,
    0,
    0,
    0,
    0,
    0,
    0,
    0,
    0,
    0,
    0,
    0,
    0,
    0,
    0,
    0,
    0,
    0,
    0,
    0,
    0,
    0,
    0,
    0,
    0,
    0,
    0,
    0,
    0,
    0,
    0,
    0,
    0,
    0,
    0,
    0,
    0,
    0,
    0,
    0,
    0,
    0,
    0,
    0,
    0,
    0,
    0,
    0,
    0,
    0,
    0,
    0,
    0,
    0,
    0,
    0,
    0,
    0,
    0,
    0,
    0,
    0,
    0,
    0,
    0,
    0,
    0,
    0,
    0,
    0,
    0,
    0,
    0,
    0,
    0,
    0,
    0,
    0,
    0,
    0,
    0,
    0,
    0,
    0,
    0,
    0,
    0,
    0,
    0,
    0,
    0,
    0,
    0,
    0,
    0,
    0,
    0,
    0,
    0,
    0,
    0,
    0,
    0,
    0,
    0,
    0,
    0,
    0,
    0,
    0,
    0,
    0,
    0,
    0,
    0,
    0,
    0,
    0,
    0,
    0,
    0,
    0,
    0,
    0,
    0,
    0,
    0,
    0,
    0,
    0,
    0,
    0,
    0,
    0,
    0,
    0,
    0,
    0,
    0,
    0,
    0,
    0,
    0,
    0,
    0,
    0,
    0,
    0,
    0,
    0,
    0,
    0,
    0,
    0,
    0,
    0,
    0,
    0,
    0,
    0,
    0,
    0,
    0,
    0,
    0,
    0,
    0,
    0,
    0,
    0,
    0,
    0,
    0,
    0,
    0,
    0,
    0,
    0,
    0,
    0,
    0,
    0,
    0,
    0,
    0,
    0,
    0,
    0,
    0,
    0,
    0,
    0,
    0,
    0,
    0,
    0,
    0,
    0,
    0,
    0,
    0,
    0,
    0,
    0,
    0,
    0,
    0,
    0,
    0,
    84,
    88,
    88,
    88,
    88,
    88,
    83,
    0,
    0,
    0,
    0,
    0,
    0,
    0,
    0,
    0,
    0,
    0,
    0,
    0,
    0,
    0,
    0,
    0,
    0,
    0,
    0,
    0,
    0,
    0,
    0,
    0,
    0,
    0,
    0,
    0,
    0,
    0,
    0,
    0,
    0,
    0,
    0,
    0,
    0,
    0,
    0,
    0,
    0,
    0,
    0,
    0,
    0,
    0,
    0,
    0,
    0,
    0,
    0,
    86,
    89,
    89,
    82,
    82,
    82,
    87,
    0,
    0,
    0,
    0,
    0,
    0,
    0,
    0,
    0,
    0,
    0,
    0,
    0,
    0,
    0,
    0,
    0,
    0,
    0,
    0,
    0,
    0,
    0,
    0,
    0,
    0,
    0,
    0,
    0,
    0,
    0,
    0,
    0,
    0,
    0,
    0,
    0,
    0,
    0,
    0,
    0,
    0,
    0,
    0,
    0,
    0,
    0,
    0,
    0,
    0,
    0,
    0,
    0,
    0,
    0,
    86,
    82,
    82,
    87,
    0,
    0,
    0,
    0,
    0,
    0,
    0,
    0,
    0,
    0,
    0,
    0,
    0,
    0,
    0,
    0,
    0,
    0,
    0,
    0,
    0,
    0,
    0,
    0,
    0,
    0,
    0,
    0,
    0,
    0,
    0,
    0,
    0,
    0,
    0,
    0,
    0,
    0,
    0,
    0,
    0,
    0,
    0,
    0,
    0,
    0,
    0,
    0,
    0,
    0,
    0,
    0,
    0,
    0,
    0,
    0,
    86,
    89,
    85,
    0,
    0,
    0,
    0,
    0,
    0,
    0,
    0,
    0,
    0,
    0,
    0,
    0,
    0,
    0,
    0,
    0,
    0,
    0,
    0,
    0,
    0,
    0,
    0,
    0,
    0,
    0,
    0,
    0,
    0,
    0,
    0,
    0,
    0,
    0,
    0,
    0,
    0,
    0,
    0,
    0,
    0,
    0,
    0,
    0,
    0,
    0,
    0,
    0,
    0,
    0,
    0,
    0,
    0,
    0,
    0,
    0,
    0,
    0,
    0,
    0,
    0,
    0,
    0,
    0,
    0,
    0,
    0,
    0,
    0,
    0,
    0,
    0,
    0,
    0,
    0,
    0,
    0,
    0,
    0,
    0,
    0,
    0,
    0,
    0,
    0,
    0,
    0,
    0,
    0,
    0,
    0,
    0,
    0,
    0,
    0,
    0,
    0,
    0,
    0,
    0,
    0,
    0,
    0,
    0,
    0,
    0,
    0,
    0,
    0,
    0,
    0,
    0,
    0,
    0,
    0,
    0,
    0,
    0,
    0,
    0,
    0,
    0,
    0,
    0,
    0,
    0,
    0,
    0,
    0,
    0,
    0,
    0,
    0,
    0,
    0,
    0,
    0,
    0,
    0,
    0,
    0,
    0,
    0,
    0,
    0,
    0,
    0,
    0,
    0,
    0,
    0,
    0,
    0,
    0,
    0,
    0,
    0,
    0,
    0,
    0,
    0,
    0,
    0,
    0,
    0,
    0,
    0,
    0,
    0,
    0,
    0,
    0,
    0,
    0,
    0,
    0,
    0,
    0,
    0,
    0,
    0,
    0,
    0,
    0,
    0,
    0,
    0,
    0,
    0,
    0,
    0,
    0,
    0,
    0,
    0,
    0,
    0,
    0,
    0,
    0,
    0,
    0,
    0,
    0,
    0,
    0,
    0,
    0,
    0,
    0,
    0,
    0,
    0,
    0,
    0,
    0,
    0,
    0,
    0,
    0,
    0,
    0,
    0,
    0,
    0,
    0,
    0,
    0,
    0,
    0,
    0,
    0,
    0,
    0,
    0,
    0,
    0,
    0,
    0,
    0,
    0,
    0,
    0,
    0,
    0,
    0,
    0,
    0,
    0,
    0,
    0,
    0,
    0,
    0,
    0,
    0,
    0,
    0,
    0,
    0,
    0,
    0,
    0,
    0,
    0,
    0,
    0,
    0,
    0,
    0,
    0,
    0,
    0,
    0,
    0,
    0,
    0,
    0,
    0,
    0,
    0,
    0,
    0,
    0,
    0,
    0,
    0,
    0,
    0,
    0,
    0,
    0,
    0,
    0,
    0,
    0,
    0,
    0,
    0,
    0,
    0,
    0,
    0,
    0,
    0,
    0,
    0,
    0,
    0,
    0,
    0,
    0,
    0,
    0,
    0,
    0,
    0,
    0,
    0,
    0,
    0,
    0,
    0,
    0,
    0,
    0,
    0,
    0,
    0,
    0,
    0,
    0,
    0,
    0,
    0,
    0,
    0,
    0,
    0,
    0,
    0,
    0,
    0,
    0,
    0,
    0,
    0,
    0,
    0,
    0,
    0,
    0,
    0,
    0,
    0,
    0,
    0,
    0,
    0,
    0,
    0,
    0,
    0,
    0,
    0,
    0,
    0,
    0,
    0,
    0,
    0,
    0,
    0,
    0,
    0,
    0,
    0,
    0,
    0,
    0,
    0,
    0,
    0,
    0,
    0,
    0,
    0,
    0,
    0,
    0,
    0,
    0,
    0,
    0,
    0,
    0,
    0,
    0,
    0,
    0,
    0,
    0,
    0,
    0,
    0,
    0,
    0,
    0,
    0,
    0,
    0,
    0,
    0,
    0,
    0,
    0,
    0,
    0,
    0,
    0,
    0,
    0,
    0,
    0,
    0,
    0,
    0,
    0,
    0,
    0,
    0,
    0,
    0,
    0,
    0,
    0,
    0,
    0,
    0,
    0,
    0,
    0,
    0,
    0,
    0,
    0,
    0,
    0,
    0,
    0,
    0,
    0,
    0,
    0,
    0,
    0,
    0,
    0,
    0,
    0,
    0,
    0,
    0,
    0,
    0,
    0,
    0,
    0,
    0,
    0,
    0,
    0,
    0,
    0,
    0,
    0,
    0,
    0,
    0,
    0,
    0,
    0,
    0,
    0,
    0,
    0,
    0,
    0,
    0,
    0,
    0,
    0,
    0,
    0,
    0,
    0,
    0,
    0,
    0,
    0,
    0,
    0,
    0,
    0,
    0,
    0,
    0,
    0,
    0,
    0,
    0,
    0,
    0,
    0,
    0,
    0,
    0,
    0,
    0,
    0,
    0,
    0,
    0,
    0,
    0,
    0,
    0,
    0,
    0,
    0,
    0,
    0,
    0,
    0,
    0,
    0,
    0,
    0,
    0,
    0,
    0,
    0,
    0,
    0,
    0,
    0,
    0,
    0,
    0,
    0,
    0,
    0,
    0,
    0,
    0,
    0,
    0,
    0,
    0,
    0,
    0,
    0,
    0,
    0,
    0,
    0,
    0,
    0,
    0,
    0,
    0,
    0,
    0,
    0,
    0,
    0,
    0,
    0,
    0,
    0,
    0,
    0,
    0,
    0,
    0,
    0,
    0,
    0,
    0,
    0,
    0,
    0,
    0,
    0,
    0,
    0,
    0,
    0,
    0,
    0,
    0,
    0,
    0,
    0,
    0,
    0,
    0,
    0,
    0,
    0,
    0,
    0,
    0,
    0,
    0,
    0,
    0,
    0,
    0,
    0,
    0,
    0,
    0,
    0,
    0,
    0,
    0,
    0,
    0,
    0,
    0,
    0,
    0,
    0,
    0,
    0,
    0,
    0,
    0,
    0,
    0,
    0,
    0,
    0,
    0,
    0,
    0,
    0,
    0,
    0,
    0,
    0,
    0,
    0,
    0,
    0,
    0,
    0,
    0,
    0,
    0,
    0,
    0,
    0,
    0,
    0,
    0,
    0,
    0,
    0,
    0,
    0,
    0,
    0,
    0,
    0,
    0,
    0,
    0,
    0,
    0,
    0,
    0,
    0,
    0,
    0,
    0,
    0,
    0,
    0,
    0,
    0,
    0,
    0,
    0,
    0,
    0,
    0,
    0,
    0,
    0,
    0,
    0,
    0,
    0,
    0,
    0,
    0,
    0,
    0,
    0,
    0,
    0,
    0,
    0,
    0,
    0,
    0,
    0,
    0,
    0,
    0,
    0,
    0,
    0,
    0,
    0,
    0,
    0,
    0,
    0,
    0,
    0,
    0,
    0,
    0,
    0,
    0,
    0,
    0,
    0,
    0,
    0,
    0,
    0,
    0,
    0,
    0,
    0,
    0,
    0,
    0,
    0,
    0,
    0,
    0,
    0,
    0,
    0,
    0,
    0,
    0,
    0,
    0,
    0,
    0,
    0,
    0,
    0,
    0,
    0,
    0,
    0,
    0,
    0,
    0,
    0,
    0,
    0,
    0,
    0,
    0,
    0,
    0,
    0,
    0,
    0,
    0,
    0,
    0,
    0,
    0,
    0,
    0,
    0,
    0,
    0,
    0,
    0,
    0,
    0,
    0,
    0,
    0,
    0,
    0,
    0,
    0,
    0,
    0,
    0,
    0,
    0,
    0,
    0,
    0,
    0,
    0,
    0,
    0,
    0,
    0,
    0,
    0,
    0,
    0,
    0,
    0,
    0,
    0,
    0,
    0,
    0,
    0,
    0,
    0,
    0,
    0,
    0,
    0,
    0,
    0,
    0,
    0,
    0,
    0,
    0,
    0,
    0,
    0,
    0,
    0,
    0,
    0,
    0,
    0,
    0,
    0,
    0,
    0,
    0,
    0,
    0,
    0,
    0,
    0,
    0,
    0,
    0,
    0,
    0,
    0,
    0,
    0,
    0,
    0,
    0,
    0,
    0,
    0,
    0,
    0,
    0,
    0,
    0,
    0,
    0,
    0,
    0,
    0,
    0,
    0,
    0,
    0,
    0,
    0,
    0,
    0,
    0,
    0,
    0,
    0,
    0,
    0,
    0,
    0,
    0,
    0,
    0,
    0,
    0,
    0,
    0,
    0,
    0,
    0,
    0,
    0,
    0,
    0,
    0,
    0,
    0,
    0,
    0,
    0,
    0,
    0,
    0,
    0,
    0,
    0,
    0,
    0,
    0,
    0,
    0,
    0,
    0,
    0,
    0,
    0,
    0,
    0,
    0,
    0,
    0,
    0,
    0,
    0,
    0,
    0,
    0,
    0,
    0,
    0,
    0,
    0,
    0,
    0,
    0,
    0,
    0,
    0,
    0,
    0,
    0,
    0,
    0,
    0,
    0,
    0,
    0,
    0,
    0,
    0,
    0,
    0,
    0,
    0,
    0,
    0,
    0,
    0,
    0,
    0,
    0,
    0,
    0,
    0,
    0,
    0,
    0,
    0,
    0,
    0,
    0,
    0,
    0,
    0,
    0,
    0,
    0,
    0,
    0,
    0,
    0,
    0,
    0,
    0,
    0,
    0,
    0,
    0,
    0,
    0,
    0,
    0,
    0,
    0,
    0,
    0,
    0,
    0,
    0,
    0,
    0,
    0,
    0,
    0,
    0,
    0,
    0,
    0,
    0,
    0,
    0,
    0,
    0,
    0,
    0,
    0,
    0,
    0,
    0,
    0,
    0,
    0,
    0,
    0,
    0,
    0,
    0,
    0,
    0,
    0,
    0,
    0,
    0,
    0,
    0,
    0,
    0,
    0,
    0,
    0,
    0,
    0,
    0,
    0,
    0,
    0,
    0,
    0,
    0,
    0,
    0,
    0,
    0,
    0,
    0,
    0,
    0,
    0,
    0,
    0,
    0,
    0,
    0,
    0,
    0,
    0,
    0,
    0,
    0,
    0,
    0,
    0,
    0,
    0,
    0,
    0,
    0,
    0,
    0,
    0,
    0,
    0,
    0,
    0,
    0,
    0,
    0,
    0,
    0,
    0,
    0,
    0,
    0,
    0,
    0,
    0,
    0,
    0,
    0,
    0,
    0,
    0,
    0,
    0,
    0,
    0,
    0,
    0,
    0,
    0,
    0,
    0,
    0,
    0,
    0,
    0,
    0,
    0,
    0,
    0,
    0,
    0,
    0,
    0,
    0,
    0,
    0,
    0,
    0,
    0,
    0,
    0,
    0,
    0,
    0,
    0,
    0,
    0,
    0,
    0,
    0,
    0,
    0,
    0,
    0,
    0,
    0,
    0,
    0,
    0,
    0,
    0,
    0,
    0,
    0,
    0,
    0,
    0,
    0,
    0,
    0,
    0,
    0,
    0,
    0,
    0,
    0,
    0,
    0,
    0,
    0,
    0,
    0,
    0,
    0,
    0,
    0,
    0,
    0,
    0,
    0,
    0,
    0,
    0,
    0,
    0,
    0,
    0,
    0,
    0,
    0,
    0,
    0,
    0,
    0,
    0,
    0,
    0,
    0,
    0,
    0,
    0,
    0,
    0,
    0,
    0,
    0,
    0,
    0,
    0,
    0,
    0,
    0,
    0,
    0,
    0,
    0,
    0,
    0,
    0,
    0,
    0,
    0,
    0,
    0,
    0,
    0,
    0,
    0,
    0,
    0,
    0,
    0,
    0,
    0,
    0,
    0,
    0,
    0,
    0,
    0,
    0,
    0,
    0,
    0,
    0,
    0,
    0,
    0,
    0,
    0,
    0,
    0,
    0,
    0,
    0,
    0,
    0,
    0,
    0,
    0,
    0,
    0,
    0,
    0,
    0,
    0,
    0,
    0,
    0,
    0,
    0,
    0,
    0,
    0,
    0,
    0,
    0,
    0,
    0,
    0,
    0,
    0,
    0,
    0,
    0,
    0,
    0,
    0,
    0
   ],
   "properties": [
    {
     "name": "gv2layer",
     "type": "string",
     "value": "Water"
    },
    {
     "name": "z",
     "type": "int",
     "value": 1
    },
    {
     "name": "collision",
     "type": "bool",
     "value": false
    }
   ]
  },
  {
   "type": "objectgroup",
   "id": 5,
   "name": "Water \u00b7obj",
   "x": 0,
   "y": 0,
   "opacity": 1,
   "visible": true,
   "draworder": "index",
   "objects": [
    {
     "id": 3,
     "gid": 66,
     "name": "moat-north-west-corner_0_0",
     "x": 640,
     "y": 640,
     "width": 128,
     "height": 128,
     "visible": true
    },
    {
     "id": 4,
     "gid": 73,
     "name": "moat-west_0_0",
     "x": 640,
     "y": 768,
     "width": 128,
     "height": 64,
     "visible": true
    },
    {
     "id": 5,
     "gid": 73,
     "name": "moat-west_0_0",
     "x": 640,
     "y": 832,
     "width": 128,
     "height": 64,
     "visible": true
    },
    {
     "id": 6,
     "gid": 73,
     "name": "moat-west_0_0",
     "x": 640,
     "y": 896,
     "width": 128,
     "height": 64,
     "visible": true
    },
    {
     "id": 7,
     "gid": 72,
     "name": "moat-west-rocks_0_0",
     "x": 640,
     "y": 960,
     "width": 128,
     "height": 64,
     "visible": true
    },
    {
     "id": 8,
     "gid": 73,
     "name": "moat-west_0_0",
     "x": 640,
     "y": 1024,
     "width": 128,
     "height": 64,
     "visible": true
    },
    {
     "id": 9,
     "gid": 73,
     "name": "moat-west_0_0",
     "x": 640,
     "y": 1088,
     "width": 128,
     "height": 64,
     "visible": true
    },
    {
     "id": 10,
     "gid": 72,
     "name": "moat-west-rocks_0_0",
     "x": 640,
     "y": 1152,
     "width": 128,
     "height": 64,
     "visible": true
    },
    {
     "id": 11,
     "gid": 73,
     "name": "moat-west_0_0",
     "x": 640,
     "y": 1216,
     "width": 128,
     "height": 64,
     "visible": true
    },
    {
     "id": 12,
     "gid": 73,
     "name": "moat-west_0_0",
     "x": 640,
     "y": 1280,
     "width": 128,
     "height": 64,
     "visible": true
    },
    {
     "id": 13,
     "gid": 73,
     "name": "moat-west_0_0",
     "x": 640,
     "y": 1344,
     "width": 128,
     "height": 64,
     "visible": true
    },
    {
     "id": 14,
     "gid": 73,
     "name": "moat-west_0_0",
     "x": 640,
     "y": 1408,
     "width": 128,
     "height": 64,
     "visible": true
    },
    {
     "id": 15,
     "gid": 73,
     "name": "moat-west_0_0",
     "x": 640,
     "y": 1472,
     "width": 128,
     "height": 64,
     "visible": true
    },
    {
     "id": 16,
     "gid": 73,
     "name": "moat-west_0_0",
     "x": 640,
     "y": 1536,
     "width": 128,
     "height": 64,
     "visible": true
    },
    {
     "id": 17,
     "gid": 72,
     "name": "moat-west-rocks_0_0",
     "x": 640,
     "y": 1600,
     "width": 128,
     "height": 64,
     "visible": true
    },
    {
     "id": 18,
     "gid": 73,
     "name": "moat-west_0_0",
     "x": 640,
     "y": 1664,
     "width": 128,
     "height": 64,
     "visible": true
    },
    {
     "id": 19,
     "gid": 73,
     "name": "moat-west_0_0",
     "x": 640,
     "y": 1728,
     "width": 128,
     "height": 64,
     "visible": true
    },
    {
     "id": 20,
     "gid": 73,
     "name": "moat-west_0_0",
     "x": 640,
     "y": 1792,
     "width": 128,
     "height": 64,
     "visible": true
    },
    {
     "id": 21,
     "gid": 72,
     "name": "moat-west-rocks_0_0",
     "x": 640,
     "y": 1856,
     "width": 128,
     "height": 64,
     "visible": true
    },
    {
     "id": 22,
     "gid": 73,
     "name": "moat-west_0_0",
     "x": 640,
     "y": 1920,
     "width": 128,
     "height": 64,
     "visible": true
    },
    {
     "id": 23,
     "gid": 70,
     "name": "moat-south-west-corner_0_0",
     "x": 640,
     "y": 1984,
     "width": 128,
     "height": 128,
     "visible": true
    },
    {
     "id": 24,
     "gid": 67,
     "name": "moat-north_0_0",
     "x": 768,
     "y": 640,
     "width": 64,
     "height": 128,
     "visible": true
    },
    {
     "id": 25,
     "gid": 69,
     "name": "moat-south-rocks_0_0",
     "x": 768,
     "y": 1984,
     "width": 64,
     "height": 128,
     "visible": true
    },
    {
     "id": 26,
     "gid": 65,
     "name": "moat-north-rocks_0_0",
     "x": 832,
     "y": 640,
     "width": 64,
     "height": 128,
     "visible": true
    },
    {
     "id": 27,
     "gid": 71,
     "name": "moat-south_0_0",
     "x": 832,
     "y": 1984,
     "width": 64,
     "height": 128,
     "visible": true
    },
    {
     "id": 28,
     "gid": 67,
     "name": "moat-north_0_0",
     "x": 896,
     "y": 640,
     "width": 64,
     "height": 128,
     "visible": true
    },
    {
     "id": 29,
     "gid": 90,
     "name": "pond-leaf_0_0",
     "x": 896,
     "y": 1536,
     "width": 192,
     "height": 192,
     "visible": true
    },
    {
     "id": 30,
     "gid": 71,
     "name": "moat-south_0_0",
     "x": 896,
     "y": 1984,
     "width": 64,
     "height": 128,
     "visible": true
    },
    {
     "id": 31,
     "gid": 67,
     "name": "moat-north_0_0",
     "x": 960,
     "y": 640,
     "width": 64,
     "height": 128,
     "visible": true
    },
    {
     "id": 32,
     "gid": 71,
     "name": "moat-south_0_0",
     "x": 960,
     "y": 1984,
     "width": 64,
     "height": 128,
     "visible": true
    },
    {
     "id": 33,
     "gid": 67,
     "name": "moat-north_0_0",
     "x": 1024,
     "y": 640,
     "width": 64,
     "height": 128,
     "visible": true
    },
    {
     "id": 34,
     "gid": 71,
     "name": "moat-south_0_0",
     "x": 1024,
     "y": 1984,
     "width": 64,
     "height": 128,
     "visible": true
    },
    {
     "id": 35,
     "gid": 65,
     "name": "moat-north-rocks_0_0",
     "x": 1088,
     "y": 640,
     "width": 64,
     "height": 128,
     "visible": true
    },
    {
     "id": 36,
     "gid": 71,
     "name": "moat-south_0_0",
     "x": 1088,
     "y": 1984,
     "width": 64,
     "height": 128,
     "visible": true
    },
    {
     "id": 37,
     "gid": 67,
     "name": "moat-north_0_0",
     "x": 1152,
     "y": 640,
     "width": 64,
     "height": 128,
     "visible": true
    },
    {
     "id": 38,
     "gid": 69,
     "name": "moat-south-rocks_0_0",
     "x": 1152,
     "y": 1984,
     "width": 64,
     "height": 128,
     "visible": true
    },
    {
     "id": 39,
     "gid": 67,
     "name": "moat-north_0_0",
     "x": 1216,
     "y": 640,
     "width": 64,
     "height": 128,
     "visible": true
    },
    {
     "id": 40,
     "gid": 71,
     "name": "moat-south_0_0",
     "x": 1216,
     "y": 1984,
     "width": 64,
     "height": 128,
     "visible": true
    },
    {
     "id": 41,
     "gid": 67,
     "name": "moat-north_0_0",
     "x": 1280,
     "y": 640,
     "width": 64,
     "height": 128,
     "visible": true
    },
    {
     "id": 42,
     "gid": 71,
     "name": "moat-south_0_0",
     "x": 1280,
     "y": 1984,
     "width": 64,
     "height": 128,
     "visible": true
    },
    {
     "id": 43,
     "gid": 67,
     "name": "moat-north_0_0",
     "x": 1344,
     "y": 640,
     "width": 64,
     "height": 128,
     "visible": true
    },
    {
     "id": 44,
     "gid": 71,
     "name": "moat-south_0_0",
     "x": 1344,
     "y": 1984,
     "width": 64,
     "height": 128,
     "visible": true
    },
    {
     "id": 45,
     "gid": 67,
     "name": "moat-north_0_0",
     "x": 1408,
     "y": 640,
     "width": 64,
     "height": 128,
     "visible": true
    },
    {
     "id": 46,
     "gid": 71,
     "name": "moat-south_0_0",
     "x": 1408,
     "y": 1984,
     "width": 64,
     "height": 128,
     "visible": true
    },
    {
     "id": 47,
     "gid": 67,
     "name": "moat-north_0_0",
     "x": 1472,
     "y": 640,
     "width": 64,
     "height": 128,
     "visible": true
    },
    {
     "id": 48,
     "gid": 71,
     "name": "moat-south_0_0",
     "x": 1472,
     "y": 1984,
     "width": 64,
     "height": 128,
     "visible": true
    },
    {
     "id": 49,
     "gid": 67,
     "name": "moat-north_0_0",
     "x": 1536,
     "y": 640,
     "width": 64,
     "height": 128,
     "visible": true
    },
    {
     "id": 50,
     "gid": 71,
     "name": "moat-south_0_0",
     "x": 1536,
     "y": 1984,
     "width": 64,
     "height": 128,
     "visible": true
    },
    {
     "id": 51,
     "gid": 67,
     "name": "moat-north_0_0",
     "x": 1600,
     "y": 640,
     "width": 64,
     "height": 128,
     "visible": true
    },
    {
     "id": 52,
     "gid": 69,
     "name": "moat-south-rocks_0_0",
     "x": 1600,
     "y": 1984,
     "width": 64,
     "height": 128,
     "visible": true
    },
    {
     "id": 53,
     "gid": 67,
     "name": "moat-north_0_0",
     "x": 1664,
     "y": 640,
     "width": 64,
     "height": 128,
     "visible": true
    },
    {
     "id": 54,
     "gid": 71,
     "name": "moat-south_0_0",
     "x": 1664,
     "y": 1984,
     "width": 64,
     "height": 128,
     "visible": true
    },
    {
     "id": 55,
     "gid": 67,
     "name": "moat-north_0_0",
     "x": 1728,
     "y": 640,
     "width": 64,
     "height": 128,
     "visible": true
    },
    {
     "id": 56,
     "gid": 68,
     "name": "moat-sourth-east-corner_0_0",
     "x": 1728,
     "y": 1984,
     "width": 128,
     "height": 128,
     "visible": true
    },
    {
     "id": 57,
     "gid": 65,
     "name": "moat-north-rocks_0_0",
     "x": 1792,
     "y": 640,
     "width": 64,
     "height": 128,
     "visible": true
    },
    {
     "id": 58,
     "gid": 67,
     "name": "moat-north_0_0",
     "x": 1856,
     "y": 640,
     "width": 64,
     "height": 128,
     "visible": true
    },
    {
     "id": 59,
     "gid": 67,
     "name": "moat-north_0_0",
     "x": 1920,
     "y": 640,
     "width": 64,
     "height": 128,
     "visible": true
    },
    {
     "id": 60,
     "gid": 65,
     "name": "moat-north-rocks_0_0",
     "x": 1984,
     "y": 640,
     "width": 64,
     "height": 128,
     "visible": true
    },
    {
     "id": 61,
     "gid": 67,
     "name": "moat-north_0_0",
     "x": 2048,
     "y": 640,
     "width": 64,
     "height": 128,
     "visible": true
    },
    {
     "id": 62,
     "gid": 70,
     "name": "moat-south-west-corner_0_0",
     "x": 2048,
     "y": 1984,
     "width": 128,
     "height": 128,
     "visible": true
    },
    {
     "id": 63,
     "gid": 67,
     "name": "moat-north_0_0",
     "x": 2112,
     "y": 640,
     "width": 64,
     "height": 128,
     "visible": true
    },
    {
     "id": 64,
     "gid": 67,
     "name": "moat-north_0_0",
     "x": 2176,
     "y": 640,
     "width": 64,
     "height": 128,
     "visible": true
    },
    {
     "id": 65,
     "gid": 71,
     "name": "moat-south_0_0",
     "x": 2176,
     "y": 1984,
     "width": 64,
     "height": 128,
     "visible": true
    },
    {
     "id": 66,
     "gid": 67,
     "name": "moat-north_0_0",
     "x": 2240,
     "y": 640,
     "width": 64,
     "height": 128,
     "visible": true
    },
    {
     "id": 67,
     "gid": 71,
     "name": "moat-south_0_0",
     "x": 2240,
     "y": 1984,
     "width": 64,
     "height": 128,
     "visible": true
    },
    {
     "id": 68,
     "gid": 67,
     "name": "moat-north_0_0",
     "x": 2304,
     "y": 640,
     "width": 64,
     "height": 128,
     "visible": true
    },
    {
     "id": 69,
     "gid": 71,
     "name": "moat-south_0_0",
     "x": 2304,
     "y": 1984,
     "width": 64,
     "height": 128,
     "visible": true
    },
    {
     "id": 70,
     "gid": 67,
     "name": "moat-north_0_0",
     "x": 2368,
     "y": 640,
     "width": 64,
     "height": 128,
     "visible": true
    },
    {
     "id": 71,
     "gid": 71,
     "name": "moat-south_0_0",
     "x": 2368,
     "y": 1984,
     "width": 64,
     "height": 128,
     "visible": true
    },
    {
     "id": 72,
     "gid": 67,
     "name": "moat-north_0_0",
     "x": 2432,
     "y": 640,
     "width": 64,
     "height": 128,
     "visible": true
    },
    {
     "id": 73,
     "gid": 69,
     "name": "moat-south-rocks_0_0",
     "x": 2432,
     "y": 1984,
     "width": 64,
     "height": 128,
     "visible": true
    },
    {
     "id": 74,
     "gid": 65,
     "name": "moat-north-rocks_0_0",
     "x": 2496,
     "y": 640,
     "width": 64,
     "height": 128,
     "visible": true
    },
    {
     "id": 75,
     "gid": 71,
     "name": "moat-south_0_0",
     "x": 2496,
     "y": 1984,
     "width": 64,
     "height": 128,
     "visible": true
    },
    {
     "id": 76,
     "gid": 67,
     "name": "moat-north_0_0",
     "x": 2560,
     "y": 640,
     "width": 64,
     "height": 128,
     "visible": true
    },
    {
     "id": 77,
     "gid": 71,
     "name": "moat-south_0_0",
     "x": 2560,
     "y": 1984,
     "width": 64,
     "height": 128,
     "visible": true
    },
    {
     "id": 78,
     "gid": 67,
     "name": "moat-north_0_0",
     "x": 2624,
     "y": 640,
     "width": 64,
     "height": 128,
     "visible": true
    },
    {
     "id": 79,
     "gid": 71,
     "name": "moat-south_0_0",
     "x": 2624,
     "y": 1984,
     "width": 64,
     "height": 128,
     "visible": true
    },
    {
     "id": 80,
     "gid": 65,
     "name": "moat-north-rocks_0_0",
     "x": 2688,
     "y": 640,
     "width": 64,
     "height": 128,
     "visible": true
    },
    {
     "id": 81,
     "gid": 71,
     "name": "moat-south_0_0",
     "x": 2688,
     "y": 1984,
     "width": 64,
     "height": 128,
     "visible": true
    },
    {
     "id": 82,
     "gid": 67,
     "name": "moat-north_0_0",
     "x": 2752,
     "y": 640,
     "width": 64,
     "height": 128,
     "visible": true
    },
    {
     "id": 83,
     "gid": 71,
     "name": "moat-south_0_0",
     "x": 2752,
     "y": 1984,
     "width": 64,
     "height": 128,
     "visible": true
    },
    {
     "id": 84,
     "gid": 67,
     "name": "moat-north_0_0",
     "x": 2816,
     "y": 640,
     "width": 64,
     "height": 128,
     "visible": true
    },
    {
     "id": 85,
     "gid": 71,
     "name": "moat-south_0_0",
     "x": 2816,
     "y": 1984,
     "width": 64,
     "height": 128,
     "visible": true
    },
    {
     "id": 86,
     "gid": 67,
     "name": "moat-north_0_0",
     "x": 2880,
     "y": 640,
     "width": 64,
     "height": 128,
     "visible": true
    },
    {
     "id": 87,
     "gid": 69,
     "name": "moat-south-rocks_0_0",
     "x": 2880,
     "y": 1984,
     "width": 64,
     "height": 128,
     "visible": true
    },
    {
     "id": 88,
     "gid": 67,
     "name": "moat-north_0_0",
     "x": 2944,
     "y": 640,
     "width": 64,
     "height": 128,
     "visible": true
    },
    {
     "id": 89,
     "gid": 71,
     "name": "moat-south_0_0",
     "x": 2944,
     "y": 1984,
     "width": 64,
     "height": 128,
     "visible": true
    },
    {
     "id": 90,
     "gid": 67,
     "name": "moat-north_0_0",
     "x": 3008,
     "y": 640,
     "width": 64,
     "height": 128,
     "visible": true
    },
    {
     "id": 91,
     "gid": 71,
     "name": "moat-south_0_0",
     "x": 3008,
     "y": 1984,
     "width": 64,
     "height": 128,
     "visible": true
    },
    {
     "id": 92,
     "gid": 65,
     "name": "moat-north-rocks_0_0",
     "x": 3072,
     "y": 640,
     "width": 64,
     "height": 128,
     "visible": true
    },
    {
     "id": 93,
     "gid": 71,
     "name": "moat-south_0_0",
     "x": 3072,
     "y": 1984,
     "width": 64,
     "height": 128,
     "visible": true
    },
    {
     "id": 94,
     "gid": 67,
     "name": "moat-north_0_0",
     "x": 3136,
     "y": 640,
     "width": 64,
     "height": 128,
     "visible": true
    },
    {
     "id": 95,
     "gid": 71,
     "name": "moat-south_0_0",
     "x": 3136,
     "y": 1984,
     "width": 64,
     "height": 128,
     "visible": true
    },
    {
     "id": 96,
     "gid": 64,
     "name": "moat-north-east-corner_0_0",
     "x": 3200,
     "y": 640,
     "width": 128,
     "height": 128,
     "visible": true
    },
    {
     "id": 97,
     "gid": 62,
     "name": "moat-east-rocks_0_0",
     "x": 3200,
     "y": 768,
     "width": 128,
     "height": 64,
     "visible": true
    },
    {
     "id": 98,
     "gid": 63,
     "name": "moat-east_0_0",
     "x": 3200,
     "y": 832,
     "width": 128,
     "height": 64,
     "visible": true
    },
    {
     "id": 99,
     "gid": 62,
     "name": "moat-east-rocks_0_0",
     "x": 3200,
     "y": 896,
     "width": 128,
     "height": 64,
     "visible": true
    },
    {
     "id": 100,
     "gid": 63,
     "name": "moat-east_0_0",
     "x": 3200,
     "y": 960,
     "width": 128,
     "height": 64,
     "visible": true
    },
    {
     "id": 101,
     "gid": 63,
     "name": "moat-east_0_0",
     "x": 3200,
     "y": 1024,
     "width": 128,
     "height": 64,
     "visible": true
    },
    {
     "id": 102,
     "gid": 63,
     "name": "moat-east_0_0",
     "x": 3200,
     "y": 1088,
     "width": 128,
     "height": 64,
     "visible": true
    },
    {
     "id": 103,
     "gid": 63,
     "name": "moat-east_0_0",
     "x": 3200,
     "y": 1152,
     "width": 128,
     "height": 64,
     "visible": true
    },
    {
     "id": 104,
     "gid": 63,
     "name": "moat-east_0_0",
     "x": 3200,
     "y": 1216,
     "width": 128,
     "height": 64,
     "visible": true
    },
    {
     "id": 105,
     "gid": 62,
     "name": "moat-east-rocks_0_0",
     "x": 3200,
     "y": 1280,
     "width": 128,
     "height": 64,
     "visible": true
    },
    {
     "id": 106,
     "gid": 63,
     "name": "moat-east_0_0",
     "x": 3200,
     "y": 1344,
     "width": 128,
     "height": 64,
     "visible": true
    },
    {
     "id": 107,
     "gid": 63,
     "name": "moat-east_0_0",
     "x": 3200,
     "y": 1408,
     "width": 128,
     "height": 64,
     "visible": true
    },
    {
     "id": 108,
     "gid": 63,
     "name": "moat-east_0_0",
     "x": 3200,
     "y": 1472,
     "width": 128,
     "height": 64,
     "visible": true
    },
    {
     "id": 109,
     "gid": 63,
     "name": "moat-east_0_0",
     "x": 3200,
     "y": 1536,
     "width": 128,
     "height": 64,
     "visible": true
    },
    {
     "id": 110,
     "gid": 63,
     "name": "moat-east_0_0",
     "x": 3200,
     "y": 1600,
     "width": 128,
     "height": 64,
     "visible": true
    },
    {
     "id": 111,
     "gid": 63,
     "name": "moat-east_0_0",
     "x": 3200,
     "y": 1664,
     "width": 128,
     "height": 64,
     "visible": true
    },
    {
     "id": 112,
     "gid": 63,
     "name": "moat-east_0_0",
     "x": 3200,
     "y": 1728,
     "width": 128,
     "height": 64,
     "visible": true
    },
    {
     "id": 113,
     "gid": 63,
     "name": "moat-east_0_0",
     "x": 3200,
     "y": 1792,
     "width": 128,
     "height": 64,
     "visible": true
    },
    {
     "id": 114,
     "gid": 62,
     "name": "moat-east-rocks_0_0",
     "x": 3200,
     "y": 1856,
     "width": 128,
     "height": 64,
     "visible": true
    },
    {
     "id": 115,
     "gid": 63,
     "name": "moat-east_0_0",
     "x": 3200,
     "y": 1920,
     "width": 128,
     "height": 64,
     "visible": true
    },
    {
     "id": 116,
     "gid": 68,
     "name": "moat-sourth-east-corner_0_0",
     "x": 3200,
     "y": 1984,
     "width": 128,
     "height": 128,
     "visible": true
    }
   ],
   "properties": [
    {
     "name": "gv2layer",
     "type": "string",
     "value": "Water"
    },
    {
     "name": "z",
     "type": "int",
     "value": 1
    },
    {
     "name": "collision",
     "type": "bool",
     "value": false
    }
   ]
  },
  {
   "type": "tilelayer",
   "id": 6,
   "name": "Collidables",
   "width": 59,
   "height": 46,
   "x": 0,
   "y": 0,
   "opacity": 1,
   "visible": true,
   "data": [
    29,
    0,
    0,
    0,
    0,
    0,
    0,
    0,
    0,
    0,
    0,
    0,
    0,
    0,
    0,
    0,
    0,
    0,
    0,
    0,
    0,
    0,
    0,
    0,
    0,
    0,
    0,
    0,
    0,
    0,
    0,
    0,
    0,
    0,
    0,
    0,
    0,
    0,
    0,
    0,
    0,
    0,
    0,
    0,
    0,
    0,
    0,
    0,
    0,
    0,
    0,
    0,
    0,
    0,
    0,
    0,
    0,
    0,
    0,
    29,
    0,
    0,
    0,
    0,
    0,
    0,
    0,
    0,
    0,
    0,
    0,
    0,
    0,
    0,
    0,
    0,
    0,
    0,
    0,
    0,
    0,
    0,
    0,
    0,
    0,
    0,
    0,
    0,
    0,
    0,
    0,
    0,
    0,
    0,
    0,
    0,
    0,
    0,
    0,
    0,
    0,
    0,
    0,
    0,
    0,
    0,
    0,
    0,
    0,
    0,
    0,
    0,
    0,
    0,
    0,
    0,
    0,
    0,
    29,
    0,
    0,
    0,
    0,
    0,
    0,
    0,
    0,
    0,
    0,
    0,
    0,
    0,
    0,
    0,
    0,
    0,
    0,
    0,
    0,
    0,
    0,
    0,
    0,
    0,
    0,
    0,
    0,
    0,
    0,
    0,
    0,
    0,
    0,
    0,
    0,
    0,
    0,
    0,
    0,
    0,
    0,
    0,
    0,
    0,
    0,
    0,
    0,
    0,
    0,
    0,
    0,
    0,
    0,
    0,
    0,
    0,
    0,
    29,
    0,
    0,
    0,
    0,
    0,
    0,
    0,
    0,
    0,
    0,
    0,
    0,
    0,
    0,
    0,
    0,
    0,
    0,
    0,
    0,
    0,
    0,
    0,
    0,
    0,
    0,
    0,
    0,
    0,
    0,
    0,
    0,
    0,
    0,
    0,
    0,
    0,
    0,
    0,
    0,
    0,
    0,
    0,
    0,
    0,
    0,
    0,
    0,
    0,
    0,
    0,
    0,
    0,
    0,
    0,
    0,
    0,
    0,
    29,
    0,
    0,
    0,
    0,
    0,
    0,
    0,
    0,
    0,
    0,
    0,
    0,
    0,
    0,
    0,
    0,
    0,
    0,
    0,
    0,
    0,
    0,
    0,
    0,
    0,
    0,
    0,
    0,
    0,
    0,
    0,
    0,
    0,
    0,
    0,
    0,
    0,
    0,
    0,
    0,
    0,
    0,
    0,
    0,
    0,
    0,
    0,
    0,
    0,
    0,
    0,
    0,
    0,
    0,
    0,
    0,
    0,
    0,
    29,
    0,
    0,
    0,
    0,
    0,
    0,
    0,
    0,
    0,
    0,
    0,
    0,
    0,
    0,
    0,
    0,
    0,
    0,
    0,
    0,
    0,
    0,
    0,
    0,
    0,
    0,
    0,
    0,
    0,
    0,
    0,
    0,
    0,
    0,
    0,
    0,
    0,
    0,
    0,
    0,
    0,
    0,
    0,
    0,
    0,
    0,
    0,
    0,
    0,
    0,
    0,
    0,
    0,
    0,
    0,
    0,
    0,
    0,
    29,
    0,
    0,
    0,
    0,
    0,
    0,
    0,
    0,
    0,
    0,
    0,
    0,
    0,
    0,
    0,
    0,
    0,
    0,
    0,
    0,
    0,
    0,
    0,
    0,
    0,
    0,
    0,
    0,
    0,
    0,
    0,
    0,
    0,
    0,
    0,
    0,
    0,
    0,
    0,
    0,
    0,
    0,
    0,
    0,
    0,
    0,
    0,
    0,
    0,
    0,
    0,
    0,
    0,
    0,
    0,
    0,
    0,
    0,
    29,
    0,
    0,
    0,
    0,
    0,
    0,
    0,
    0,
    0,
    0,
    0,
    0,
    0,
    0,
    0,
    0,
    0,
    0,
    0,
    0,
    0,
    0,
    0,
    0,
    0,
    0,
    0,
    0,
    0,
    0,
    0,
    0,
    0,
    0,
    0,
    0,
    0,
    0,
    0,
    0,
    0,
    0,
    0,
    0,
    0,
    0,
    0,
    0,
    0,
    0,
    0,
    0,
    0,
    0,
    0,
    0,
    0,
    0,
    29,
    0,
    0,
    0,
    0,
    0,
    0,
    0,
    101,
    0,
    0,
    0,
    0,
    0,
    0,
    0,
    0,
    0,
    0,
    0,
    0,
    0,
    0,
    0,
    0,
    0,
    0,
    0,
    0,
    0,
    0,
    0,
    0,
    0,
    0,
    0,
    0,
    0,
    0,
    0,
    0,
    0,
    0,
    0,
    0,
    0,
    0,
    0,
    0,
    0,
    0,
    0,
    0,
    0,
    0,
    0,
    0,
    0,
    0,
    29,
    0,
    0,
    0,
    0,
    0,
    0,
    0,
    0,
    0,
    0,
    0,
    0,
    0,
    0,
    0,
    0,
    0,
    101,
    0,
    0,
    0,
    0,
    0,
    0,
    0,
    0,
    0,
    0,
    0,
    103,
    0,
    0,
    0,
    0,
    0,
    0,
    0,
    0,
    0,
    0,
    0,
    0,
    0,
    0,
    0,
    0,
    0,
    0,
    0,
    101,
    0,
    0,
    0,
    0,
    0,
    0,
    0,
    0,
    29,
    0,
    0,
    0,
    0,
    0,
    0,
    0,
    0,
    0,
    0,
    0,
    0,
    0,
    0,
    0,
    0,
    0,
    0,
    0,
    0,
    0,
    0,
    0,
    0,
    0,
    0,
    0,
    0,
    0,
    0,
    0,
    0,
    0,
    0,
    0,
    0,
    0,
    0,
    0,
    0,
    0,
    0,
    0,
    0,
    0,
    0,
    0,
    0,
    0,
    0,
    0,
    0,
    0,
    0,
    0,
    0,
    0,
    0,
    29,
    0,
    0,
    0,
    0,
    0,
    0,
    0,
    0,
    0,
    0,
    0,
    7,
    0,
    0,
    0,
    0,
    0,
    0,
    0,
    0,
    0,
    0,
    0,
    0,
    0,
    0,
    0,
    0,
    0,
    0,
    0,
    0,
    0,
    0,
    0,
    0,
    0,
    0,
    0,
    0,
    0,
    0,
    0,
    0,
    0,
    0,
    0,
    0,
    6,
    0,
    0,
    0,
    0,
    0,
    0,
    0,
    0,
    0,
    29,
    0,
    0,
    0,
    0,
    0,
    0,
    0,
    0,
    0,
    0,
    0,
    14,
    0,
    0,
    0,
    0,
    0,
    0,
    0,
    0,
    0,
    0,
    0,
    0,
    0,
    0,
    0,
    0,
    0,
    0,
    0,
    0,
    0,
    0,
    0,
    0,
    0,
    0,
    0,
    0,
    0,
    0,
    0,
    0,
    0,
    0,
    0,
    0,
    14,
    0,
    0,
    0,
    0,
    0,
    0,
    0,
    0,
    0,
    29,
    0,
    0,
    0,
    0,
    0,
    0,
    0,
    0,
    0,
    0,
    0,
    9,
    0,
    0,
    0,
    0,
    0,
    0,
    0,
    0,
    0,
    0,
    0,
    0,
    0,
    0,
    0,
    0,
    0,
    0,
    0,
    0,
    0,
    0,
    0,
    0,
    0,
    0,
    0,
    0,
    0,
    0,
    0,
    0,
    0,
    0,
    0,
    0,
    14,
    0,
    0,
    0,
    0,
    0,
    0,
    0,
    0,
    0,
    29,
    0,
    0,
    0,
    0,
    0,
    0,
    0,
    0,
    0,
    0,
    0,
    9,
    0,
    0,
    0,
    109,
    0,
    0,
    0,
    0,
    0,
    0,
    0,
    0,
    0,
    0,
    0,
    0,
    0,
    0,
    0,
    0,
    0,
    0,
    0,
    0,
    0,
    0,
    0,
    0,
    0,
    0,
    0,
    0,
    0,
    0,
    0,
    0,
    14,
    0,
    0,
    0,
    0,
    0,
    0,
    0,
    0,
    0,
    29,
    0,
    0,
    0,
    0,
    0,
    0,
    0,
    0,
    0,
    0,
    0,
    9,
    0,
    0,
    0,
    0,
    116,
    0,
    0,
    0,
    0,
    0,
    0,
    0,
    116,
    0,
    0,
    0,
    0,
    0,
    0,
    0,
    0,
    116,
    0,
    0,
    0,
    0,
    0,
    0,
    0,
    0,
    0,
    0,
    0,
    0,
    0,
    0,
    14,
    0,
    0,
    0,
    0,
    0,
    0,
    0,
    0,
    0,
    29,
    0,
    0,
    0,
    0,
    0,
    0,
    0,
    0,
    0,
    0,
    0,
    9,
    0,
    0,
    0,
    0,
    109,
    0,
    0,
    0,
    0,
    110,
    112,
    0,
    0,
    0,
    0,
    0,
    0,
    0,
    0,
    0,
    0,
    0,
    0,
    0,
    109,
    114,
    0,
    0,
    0,
    0,
    114,
    0,
    0,
    0,
    0,
    114,
    14,
    0,
    0,
    0,
    0,
    0,
    0,
    0,
    0,
    0,
    29,
    0,
    0,
    0,
    0,
    0,
    0,
    0,
    0,
    0,
    0,
    0,
    9,
    109,
    0,
    115,
    0,
    115,
    0,
    0,
    0,
    0,
    111,
    0,
    0,
    0,
    0,
    0,
    0,
    0,
    0,
    0,
    0,
    0,
    0,
    0,
    0,
    0,
    0,
    0,
    0,
    0,
    0,
    0,
    0,
    0,
    0,
    0,
    0,
    14,
    0,
    0,
    0,
    0,
    0,
    0,
    0,
    0,
    0,
    29,
    0,
    0,
    0,
    0,
    0,
    0,
    0,
    0,
    0,
    0,
    0,
    9,
    110,
    112,
    0,
    0,
    0,
    0,
    0,
    0,
    0,
    0,
    0,
    0,
    0,
    0,
    0,
    0,
    0,
    0,
    0,
    0,
    0,
    0,
    0,
    0,
    0,
    0,
    0,
    0,
    0,
    0,
    0,
    0,
    0,
    0,
    0,
    0,
    14,
    0,
    0,
    101,
    0,
    0,
    0,
    0,
    0,
    0,
    29,
    0,
    0,
    0,
    0,
    0,
    0,
    0,
    0,
    0,
    0,
    0,
    9,
    111,
    113,
    109,
    0,
    0,
    0,
    0,
    0,
    0,
    0,
    0,
    0,
    0,
    0,
    0,
    0,
    0,
    0,
    0,
    0,
    0,
    0,
    0,
    0,
    0,
    0,
    0,
    0,
    0,
    0,
    0,
    0,
    0,
    0,
    0,
    0,
    14,
    0,
    0,
    0,
    0,
    0,
    0,
    0,
    0,
    0,
    29,
    0,
    0,
    0,
    0,
    0,
    0,
    0,
    0,
    0,
    0,
    0,
    9,
    0,
    0,
    0,
    109,
    114,
    0,
    0,
    0,
    0,
    0,
    0,
    3,
    0,
    3,
    0,
    3,
    0,
    0,
    0,
    3,
    0,
    0,
    0,
    0,
    0,
    0,
    0,
    0,
    0,
    0,
    0,
    0,
    0,
    0,
    0,
    0,
    14,
    0,
    0,
    0,
    0,
    0,
    0,
    0,
    0,
    0,
    29,
    0,
    0,
    0,
    0,
    0,
    0,
    0,
    0,
    0,
    0,
    0,
    9,
    109,
    115,
    0,
    0,
    0,
    0,
    0,
    0,
    0,
    101,
    0,
    0,
    0,
    0,
    0,
    0,
    0,
    0,
    0,
    0,
    0,
    0,
    0,
    0,
    0,
    0,
    0,
    0,
    0,
    0,
    0,
    0,
    0,
    0,
    0,
    0,
    14,
    0,
    0,
    0,
    0,
    103,
    0,
    0,
    0,
    0,
    29,
    0,
    0,
    0,
    0,
    0,
    0,
    0,
    0,
    0,
    0,
    0,
    9,
    0,
    0,
    0,
    114,
    0,
    0,
    0,
    0,
    0,
    0,
    0,
    0,
    103,
    0,
    0,
    0,
    4,
    0,
    4,
    0,
    0,
    0,
    0,
    0,
    0,
    0,
    0,
    0,
    0,
    0,
    0,
    0,
    0,
    0,
    0,
    0,
    14,
    0,
    0,
    0,
    0,
    0,
    0,
    0,
    0,
    0,
    29,
    0,
    0,
    0,
    0,
    0,
    0,
    0,
    101,
    0,
    0,
    0,
    9,
    0,
    0,
    0,
    109,
    3,
    109,
    0,
    109,
    0,
    3,
    109,
    3,
    0,
    3,
    0,
    109,
    3,
    0,
    3,
    109,
    0,
    103,
    3,
    109,
    0,
    0,
    0,
    0,
    0,
    0,
    3,
    0,
    0,
    0,
    0,
    0,
    14,
    0,
    0,
    0,
    0,
    0,
    0,
    0,
    0,
    0,
    29,
    0,
    0,
    0,
    0,
    0,
    0,
    0,
    0,
    0,
    0,
    0,
    9,
    0,
    0,
    0,
    0,
    0,
    0,
    0,
    0,
    0,
    0,
    0,
    0,
    0,
    0,
    0,
    0,
    0,
    0,
    0,
    0,
    0,
    0,
    0,
    0,
    0,
    0,
    0,
    0,
    0,
    0,
    0,
    0,
    0,
    0,
    0,
    0,
    14,
    0,
    0,
    0,
    0,
    0,
    0,
    0,
    0,
    0,
    29,
    0,
    0,
    0,
    0,
    0,
    0,
    0,
    0,
    0,
    0,
    0,
    9,
    0,
    0,
    0,
    0,
    3,
    0,
    0,
    0,
    109,
    3,
    0,
    0,
    0,
    3,
    109,
    0,
    0,
    0,
    0,
    0,
    0,
    0,
    0,
    0,
    0,
    3,
    0,
    3,
    0,
    0,
    3,
    0,
    0,
    0,
    109,
    0,
    14,
    0,
    0,
    0,
    0,
    0,
    0,
    0,
    0,
    0,
    29,
    0,
    0,
    0,
    0,
    0,
    0,
    0,
    0,
    0,
    0,
    0,
    9,
    0,
    0,
    0,
    0,
    0,
    0,
    0,
    0,
    0,
    0,
    0,
    101,
    0,
    0,
    0,
    0,
    0,
    0,
    0,
    101,
    0,
    109,
    0,
    0,
    0,
    0,
    0,
    0,
    109,
    115,
    0,
    0,
    115,
    0,
    0,
    0,
    14,
    0,
    0,
    0,
    0,
    0,
    0,
    0,
    0,
    0,
    29,
    0,
    0,
    0,
    0,
    0,
    0,
    0,
    0,
    0,
    0,
    0,
    9,
    0,
    0,
    0,
    0,
    3,
    0,
    109,
    0,
    0,
    0,
    0,
    0,
    0,
    0,
    0,
    0,
    0,
    0,
    0,
    0,
    0,
    0,
    0,
    0,
    101,
    0,
    0,
    0,
    0,
    109,
    0,
    0,
    109,
    0,
    0,
    0,
    14,
    0,
    0,
    0,
    0,
    0,
    0,
    0,
    0,
    0,
    29,
    0,
    0,
    0,
    0,
    0,
    0,
    0,
    0,
    0,
    0,
    0,
    0,
    0,
    0,
    0,
    0,
    0,
    0,
    0,
    0,
    0,
    0,
    0,
    0,
    0,
    0,
    0,
    0,
    0,
    0,
    0,
    0,
    0,
    0,
    0,
    0,
    0,
    0,
    0,
    0,
    0,
    0,
    0,
    0,
    0,
    0,
    0,
    0,
    0,
    0,
    0,
    0,
    0,
    0,
    0,
    0,
    0,
    0,
    29,
    0,
    0,
    0,
    0,
    0,
    0,
    0,
    0,
    101,
    0,
    0,
    0,
    0,
    0,
    0,
    0,
    0,
    0,
    0,
    0,
    0,
    0,
    0,
    0,
    0,
    0,
    0,
    0,
    0,
    0,
    0,
    0,
    0,
    0,
    0,
    0,
    0,
    0,
    0,
    0,
    0,
    0,
    0,
    0,
    0,
    0,
    0,
    0,
    0,
    0,
    0,
    0,
    0,
    0,
    0,
    0,
    0,
    0,
    29,
    0,
    0,
    0,
    0,
    0,
    0,
    0,
    0,
    0,
    0,
    0,
    0,
    0,
    0,
    0,
    0,
    0,
    0,
    0,
    0,
    0,
    0,
    0,
    0,
    0,
    0,
    0,
    0,
    0,
    0,
    0,
    0,
    0,
    0,
    0,
    0,
    0,
    0,
    0,
    0,
    0,
    0,
    0,
    0,
    0,
    0,
    0,
    0,
    0,
    0,
    0,
    0,
    0,
    0,
    0,
    0,
    0,
    0,
    29,
    0,
    0,
    0,
    0,
    0,
    0,
    0,
    0,
    0,
    0,
    0,
    0,
    0,
    0,
    0,
    0,
    0,
    0,
    0,
    0,
    0,
    0,
    0,
    0,
    0,
    0,
    0,
    0,
    0,
    0,
    0,
    0,
    0,
    0,
    0,
    0,
    0,
    0,
    0,
    0,
    0,
    0,
    0,
    0,
    0,
    0,
    0,
    0,
    0,
    0,
    0,
    0,
    0,
    0,
    0,
    0,
    0,
    0,
    29,
    0,
    0,
    0,
    0,
    0,
    0,
    0,
    0,
    0,
    0,
    0,
    0,
    0,
    0,
    0,
    0,
    0,
    0,
    0,
    0,
    0,
    0,
    0,
    0,
    0,
    0,
    0,
    0,
    0,
    0,
    0,
    0,
    0,
    0,
    0,
    0,
    0,
    0,
    0,
    0,
    0,
    0,
    0,
    0,
    0,
    0,
    0,
    0,
    0,
    0,
    0,
    0,
    0,
    0,
    0,
    0,
    0,
    0,
    29,
    0,
    0,
    0,
    0,
    0,
    0,
    0,
    0,
    0,
    0,
    0,
    0,
    0,
    0,
    0,
    0,
    0,
    0,
    0,
    0,
    0,
    0,
    0,
    0,
    0,
    0,
    0,
    0,
    0,
    0,
    0,
    0,
    0,
    0,
    0,
    0,
    0,
    0,
    0,
    0,
    0,
    0,
    0,
    0,
    0,
    0,
    0,
    0,
    0,
    0,
    0,
    0,
    0,
    0,
    0,
    0,
    0,
    0,
    29,
    0,
    0,
    0,
    0,
    0,
    0,
    0,
    0,
    0,
    0,
    0,
    103,
    0,
    0,
    0,
    0,
    0,
    0,
    0,
    0,
    109,
    0,
    0,
    0,
    0,
    0,
    0,
    0,
    0,
    0,
    0,
    0,
    0,
    0,
    0,
    0,
    0,
    0,
    109,
    0,
    103,
    0,
    0,
    0,
    0,
    0,
    0,
    0,
    0,
    0,
    0,
    0,
    0,
    0,
    0,
    0,
    0,
    0,
    29,
    0,
    0,
    0,
    0,
    0,
    0,
    0,
    0,
    0,
    0,
    0,
    0,
    0,
    0,
    0,
    101,
    0,
    0,
    0,
    0,
    0,
    0,
    0,
    0,
    0,
    0,
    0,
    0,
    0,
    0,
    0,
    0,
    0,
    0,
    0,
    0,
    0,
    0,
    0,
    0,
    0,
    0,
    0,
    0,
    0,
    0,
    0,
    101,
    0,
    0,
    0,
    0,
    0,
    0,
    0,
    0,
    0,
    0,
    29,
    0,
    0,
    0,
    0,
    0,
    0,
    0,
    0,
    0,
    0,
    0,
    0,
    0,
    0,
    0,
    0,
    0,
    0,
    0,
    0,
    0,
    0,
    0,
    0,
    0,
    0,
    0,
    0,
    0,
    0,
    0,
    0,
    0,
    0,
    0,
    0,
    0,
    0,
    0,
    0,
    0,
    0,
    0,
    0,
    0,
    0,
    0,
    0,
    0,
    0,
    0,
    0,
    0,
    0,
    0,
    0,
    0,
    0,
    29,
    0,
    0,
    0,
    0,
    0,
    0,
    0,
    0,
    0,
    0,
    0,
    0,
    0,
    0,
    0,
    0,
    0,
    101,
    0,
    0,
    0,
    0,
    0,
    109,
    0,
    0,
    0,
    0,
    0,
    0,
    0,
    0,
    0,
    0,
    0,
    109,
    0,
    0,
    0,
    0,
    0,
    0,
    0,
    0,
    0,
    103,
    0,
    0,
    0,
    0,
    101,
    0,
    0,
    0,
    0,
    0,
    0,
    0,
    29,
    0,
    0,
    0,
    0,
    0,
    0,
    0,
    0,
    0,
    0,
    0,
    0,
    0,
    0,
    0,
    0,
    0,
    0,
    0,
    0,
    0,
    0,
    0,
    0,
    0,
    0,
    0,
    0,
    0,
    0,
    0,
    0,
    0,
    0,
    0,
    0,
    0,
    0,
    0,
    0,
    0,
    0,
    0,
    0,
    0,
    0,
    0,
    0,
    0,
    0,
    0,
    0,
    0,
    0,
    0,
    0,
    0,
    0,
    29,
    0,
    0,
    0,
    0,
    0,
    0,
    0,
    0,
    0,
    0,
    0,
    0,
    0,
    0,
    0,
    0,
    0,
    0,
    0,
    0,
    0,
    0,
    0,
    0,
    0,
    0,
    0,
    0,
    0,
    0,
    0,
    0,
    0,
    0,
    0,
    0,
    0,
    0,
    0,
    0,
    0,
    0,
    0,
    0,
    0,
    0,
    0,
    0,
    0,
    0,
    0,
    0,
    0,
    0,
    0,
    0,
    0,
    0,
    29,
    0,
    0,
    0,
    0,
    0,
    0,
    0,
    0,
    0,
    0,
    0,
    0,
    0,
    0,
    0,
    0,
    0,
    0,
    0,
    0,
    0,
    0,
    0,
    0,
    0,
    0,
    0,
    0,
    0,
    0,
    0,
    0,
    0,
    0,
    0,
    0,
    0,
    0,
    0,
    0,
    0,
    0,
    0,
    0,
    0,
    0,
    0,
    0,
    0,
    0,
    0,
    0,
    0,
    0,
    0,
    0,
    0,
    0,
    29,
    0,
    0,
    0,
    0,
    0,
    0,
    0,
    0,
    0,
    0,
    0,
    0,
    0,
    0,
    0,
    0,
    0,
    0,
    0,
    0,
    0,
    0,
    0,
    0,
    0,
    0,
    0,
    0,
    0,
    0,
    0,
    0,
    0,
    0,
    0,
    0,
    0,
    0,
    0,
    0,
    0,
    0,
    0,
    0,
    0,
    0,
    0,
    0,
    0,
    0,
    0,
    0,
    0,
    0,
    0,
    0,
    0,
    0,
    29,
    0,
    0,
    0,
    0,
    0,
    0,
    0,
    0,
    0,
    0,
    0,
    0,
    0,
    0,
    0,
    0,
    0,
    0,
    0,
    0,
    0,
    0,
    0,
    0,
    0,
    0,
    0,
    0,
    0,
    0,
    0,
    0,
    0,
    0,
    0,
    0,
    0,
    0,
    0,
    0,
    0,
    0,
    0,
    0,
    0,
    0,
    0,
    0,
    0,
    0,
    0,
    0,
    0,
    0,
    0,
    0,
    0,
    0,
    29,
    0,
    0,
    0,
    0,
    0,
    0,
    0,
    0,
    0,
    0,
    0,
    0,
    0,
    0,
    0,
    0,
    0,
    0,
    0,
    0,
    0,
    0,
    0,
    0,
    0,
    0,
    0,
    0,
    0,
    0,
    0,
    0,
    0,
    0,
    0,
    0,
    0,
    0,
    0,
    0,
    0,
    0,
    0,
    0,
    0,
    0,
    0,
    0,
    0,
    0,
    0,
    0,
    0,
    0,
    0,
    0,
    0,
    0,
    29,
    0,
    0,
    0,
    0,
    0,
    0,
    0,
    0,
    0,
    0,
    0,
    0,
    0,
    0,
    0,
    0,
    0,
    0,
    0,
    0,
    0,
    0,
    0,
    0,
    0,
    0,
    0,
    0,
    0,
    0,
    0,
    0,
    0,
    0,
    0,
    0,
    0,
    0,
    0,
    0,
    0,
    0,
    0,
    0,
    0,
    0,
    0,
    0,
    0,
    0,
    0,
    0,
    0,
    0,
    0,
    0,
    0,
    0,
    30,
    31,
    31,
    31,
    31,
    31,
    31,
    31,
    31,
    31,
    31,
    31,
    31,
    31,
    31,
    31,
    31,
    31,
    31,
    31,
    31,
    31,
    31,
    31,
    31,
    31,
    31,
    31,
    31,
    31,
    31,
    31,
    31,
    31,
    31,
    31,
    31,
    31,
    31,
    31,
    31,
    31,
    31,
    31,
    31,
    31,
    31,
    31,
    31,
    31,
    31,
    31,
    31,
    31,
    32,
    0,
    0,
    0,
    0
   ],
   "properties": [
    {
     "name": "gv2layer",
     "type": "string",
     "value": "Collidables"
    },
    {
     "name": "z",
     "type": "int",
     "value": 5
    },
    {
     "name": "collision",
     "type": "bool",
     "value": false
    }
   ]
  },
  {
   "type": "objectgroup",
   "id": 7,
   "name": "Collidables \u00b7obj",
   "x": 0,
   "y": 0,
   "opacity": 1,
   "visible": true,
   "draworder": "index",
   "objects": [
    {
     "id": 117,
     "gid": 130,
     "name": "tree-3-base-shadow_0_0",
     "x": 640,
     "y": 448,
     "width": 128,
     "height": 64,
     "visible": true
    },
    {
     "id": 118,
     "gid": 11,
     "name": "blue-wall-front-west-corner_0_0",
     "x": 768,
     "y": 1792,
     "width": 64,
     "height": 128,
     "visible": true
    },
    {
     "id": 119,
     "gid": 17,
     "name": "castle-wall-siding_0_0",
     "x": 768,
     "y": 1856,
     "width": 64,
     "height": 128,
     "visible": true
    },
    {
     "id": 120,
     "gid": 13,
     "name": "blue-wall-short_0_0",
     "x": 832,
     "y": 704,
     "width": 64,
     "height": 128,
     "visible": true
    },
    {
     "id": 121,
     "gid": 13,
     "name": "blue-wall-short_0_0",
     "x": 832,
     "y": 1792,
     "width": 64,
     "height": 128,
     "visible": true
    },
    {
     "id": 122,
     "gid": 17,
     "name": "castle-wall-siding_0_0",
     "x": 832,
     "y": 1856,
     "width": 64,
     "height": 128,
     "visible": true
    },
    {
     "id": 123,
     "gid": 130,
     "name": "tree-3-base-shadow_0_0",
     "x": 832,
     "y": 576,
     "width": 128,
     "height": 64,
     "visible": true
    },
    {
     "id": 124,
     "gid": 13,
     "name": "blue-wall-short_0_0",
     "x": 896,
     "y": 704,
     "width": 64,
     "height": 128,
     "visible": true
    },
    {
     "id": 125,
     "gid": 108,
     "name": "shrub-large-circle_0_0",
     "x": 896,
     "y": 960,
     "width": 128,
     "height": 128,
     "visible": true
    },
    {
     "id": 126,
     "gid": 108,
     "name": "shrub-large-circle_0_0",
     "x": 896,
     "y": 1408,
     "width": 128,
     "height": 128,
     "visible": true
    },
    {
     "id": 127,
     "gid": 13,
     "name": "blue-wall-short_0_0",
     "x": 896,
     "y": 1792,
     "width": 64,
     "height": 128,
     "visible": true
    },
    {
     "id": 128,
     "gid": 17,
     "name": "castle-wall-siding_0_0",
     "x": 896,
     "y": 1856,
     "width": 64,
     "height": 128,
     "visible": true
    },
    {
     "id": 129,
     "gid": 13,
     "name": "blue-wall-short_0_0",
     "x": 960,
     "y": 704,
     "width": 64,
     "height": 128,
     "visible": true
    },
    {
     "id": 130,
     "gid": 13,
     "name": "blue-wall-short_0_0",
     "x": 960,
     "y": 1792,
     "width": 64,
     "height": 128,
     "visible": true
    },
    {
     "id": 131,
     "gid": 17,
     "name": "castle-wall-siding_0_0",
     "x": 960,
     "y": 1856,
     "width": 64,
     "height": 128,
     "visible": true
    },
    {
     "id": 132,
     "gid": 13,
     "name": "blue-wall-short_0_0",
     "x": 1024,
     "y": 704,
     "width": 64,
     "height": 128,
     "visible": true
    },
    {
     "id": 133,
     "gid": 108,
     "name": "shrub-large-circle_0_0",
     "x": 1024,
     "y": 1152,
     "width": 128,
     "height": 128,
     "visible": true
    },
    {
     "id": 134,
     "gid": 13,
     "name": "blue-wall-short_0_0",
     "x": 1024,
     "y": 1792,
     "width": 64,
     "height": 128,
     "visible": true
    },
    {
     "id": 135,
     "gid": 17,
     "name": "castle-wall-siding_0_0",
     "x": 1024,
     "y": 1856,
     "width": 64,
     "height": 128,
     "visible": true
    },
    {
     "id": 136,
     "gid": 13,
     "name": "blue-wall-short_0_0",
     "x": 1088,
     "y": 704,
     "width": 64,
     "height": 128,
     "visible": true
    },
    {
     "id": 137,
     "gid": 13,
     "name": "blue-wall-short_0_0",
     "x": 1088,
     "y": 1792,
     "width": 64,
     "height": 128,
     "visible": true
    },
    {
     "id": 138,
     "gid": 17,
     "name": "castle-wall-siding_0_0",
     "x": 1088,
     "y": 1856,
     "width": 64,
     "height": 128,
     "visible": true
    },
    {
     "id": 139,
     "gid": 13,
     "name": "blue-wall-short_0_0",
     "x": 1152,
     "y": 704,
     "width": 64,
     "height": 128,
     "visible": true
    },
    {
     "id": 140,
     "gid": 13,
     "name": "blue-wall-short_0_0",
     "x": 1152,
     "y": 1792,
     "width": 64,
     "height": 128,
     "visible": true
    },
    {
     "id": 141,
     "gid": 17,
     "name": "castle-wall-siding_0_0",
     "x": 1152,
     "y": 1856,
     "width": 64,
     "height": 128,
     "visible": true
    },
    {
     "id": 142,
     "gid": 13,
     "name": "blue-wall-short_0_0",
     "x": 1216,
     "y": 704,
     "width": 64,
     "height": 128,
     "visible": true
    },
    {
     "id": 143,
     "gid": 108,
     "name": "shrub-large-circle_0_0",
     "x": 1216,
     "y": 1600,
     "width": 128,
     "height": 128,
     "visible": true
    },
    {
     "id": 144,
     "gid": 13,
     "name": "blue-wall-short_0_0",
     "x": 1216,
     "y": 1792,
     "width": 64,
     "height": 128,
     "visible": true
    },
    {
     "id": 145,
     "gid": 17,
     "name": "castle-wall-siding_0_0",
     "x": 1216,
     "y": 1856,
     "width": 64,
     "height": 128,
     "visible": true
    },
    {
     "id": 146,
     "gid": 13,
     "name": "blue-wall-short_0_0",
     "x": 1280,
     "y": 704,
     "width": 64,
     "height": 128,
     "visible": true
    },
    {
     "id": 147,
     "gid": 13,
     "name": "blue-wall-short_0_0",
     "x": 1280,
     "y": 1792,
     "width": 64,
     "height": 128,
     "visible": true
    },
    {
     "id": 148,
     "gid": 17,
     "name": "castle-wall-siding_0_0",
     "x": 1280,
     "y": 1856,
     "width": 64,
     "height": 128,
     "visible": true
    },
    {
     "id": 149,
     "gid": 13,
     "name": "blue-wall-short_0_0",
     "x": 1344,
     "y": 704,
     "width": 64,
     "height": 128,
     "visible": true
    },
    {
     "id": 150,
     "gid": 108,
     "name": "shrub-large-circle_0_0",
     "x": 1344,
     "y": 896,
     "width": 128,
     "height": 128,
     "visible": true
    },
    {
     "id": 151,
     "gid": 13,
     "name": "blue-wall-short_0_0",
     "x": 1344,
     "y": 1792,
     "width": 64,
     "height": 128,
     "visible": true
    },
    {
     "id": 152,
     "gid": 17,
     "name": "castle-wall-siding_0_0",
     "x": 1344,
     "y": 1856,
     "width": 64,
     "height": 128,
     "visible": true
    },
    {
     "id": 153,
     "gid": 108,
     "name": "shrub-large-circle_0_0",
     "x": 1344,
     "y": 2304,
     "width": 128,
     "height": 128,
     "visible": true
    },
    {
     "id": 154,
     "gid": 130,
     "name": "tree-3-base-shadow_0_0",
     "x": 1344,
     "y": 576,
     "width": 128,
     "height": 64,
     "visible": true
    },
    {
     "id": 155,
     "gid": 13,
     "name": "blue-wall-short_0_0",
     "x": 1408,
     "y": 704,
     "width": 64,
     "height": 128,
     "visible": true
    },
    {
     "id": 156,
     "gid": 13,
     "name": "blue-wall-short_0_0",
     "x": 1408,
     "y": 1792,
     "width": 64,
     "height": 128,
     "visible": true
    },
    {
     "id": 157,
     "gid": 17,
     "name": "castle-wall-siding_0_0",
     "x": 1408,
     "y": 1856,
     "width": 64,
     "height": 128,
     "visible": true
    },
    {
     "id": 158,
     "gid": 13,
     "name": "blue-wall-short_0_0",
     "x": 1472,
     "y": 704,
     "width": 64,
     "height": 128,
     "visible": true
    },
    {
     "id": 159,
     "gid": 13,
     "name": "blue-wall-short_0_0",
     "x": 1472,
     "y": 1792,
     "width": 64,
     "height": 128,
     "visible": true
    },
    {
     "id": 160,
     "gid": 17,
     "name": "castle-wall-siding_0_0",
     "x": 1472,
     "y": 1856,
     "width": 64,
     "height": 128,
     "visible": true
    },
    {
     "id": 161,
     "gid": 108,
     "name": "shrub-large-circle_0_0",
     "x": 1472,
     "y": 2176,
     "width": 128,
     "height": 128,
     "visible": true
    },
    {
     "id": 162,
     "gid": 13,
     "name": "blue-wall-short_0_0",
     "x": 1536,
     "y": 704,
     "width": 64,
     "height": 128,
     "visible": true
    },
    {
     "id": 163,
     "gid": 108,
     "name": "shrub-large-circle_0_0",
     "x": 1536,
     "y": 1024,
     "width": 128,
     "height": 128,
     "visible": true
    },
    {
     "id": 164,
     "gid": 13,
     "name": "blue-wall-short_0_0",
     "x": 1536,
     "y": 1792,
     "width": 64,
     "height": 128,
     "visible": true
    },
    {
     "id": 165,
     "gid": 17,
     "name": "castle-wall-siding_0_0",
     "x": 1536,
     "y": 1856,
     "width": 64,
     "height": 128,
     "visible": true
    },
    {
     "id": 166,
     "gid": 13,
     "name": "blue-wall-short_0_0",
     "x": 1600,
     "y": 704,
     "width": 64,
     "height": 128,
     "visible": true
    },
    {
     "id": 167,
     "gid": 13,
     "name": "blue-wall-short_0_0",
     "x": 1600,
     "y": 1792,
     "width": 64,
     "height": 128,
     "visible": true
    },
    {
     "id": 168,
     "gid": 17,
     "name": "castle-wall-siding_0_0",
     "x": 1600,
     "y": 1856,
     "width": 64,
     "height": 128,
     "visible": true
    },
    {
     "id": 169,
     "gid": 13,
     "name": "blue-wall-short_0_0",
     "x": 1664,
     "y": 704,
     "width": 64,
     "height": 128,
     "visible": true
    },
    {
     "id": 170,
     "gid": 108,
     "name": "shrub-large-circle_0_0",
     "x": 1664,
     "y": 960,
     "width": 128,
     "height": 128,
     "visible": true
    },
    {
     "id": 171,
     "gid": 13,
     "name": "blue-wall-short_0_0",
     "x": 1664,
     "y": 1792,
     "width": 64,
     "height": 128,
     "visible": true
    },
    {
     "id": 172,
     "gid": 17,
     "name": "castle-wall-siding_0_0",
     "x": 1664,
     "y": 1856,
     "width": 64,
     "height": 128,
     "visible": true
    },
    {
     "id": 173,
     "gid": 13,
     "name": "blue-wall-short_0_0",
     "x": 1728,
     "y": 704,
     "width": 64,
     "height": 128,
     "visible": true
    },
    {
     "id": 174,
     "gid": 13,
     "name": "blue-wall-short_0_0",
     "x": 1728,
     "y": 1792,
     "width": 64,
     "height": 128,
     "visible": true
    },
    {
     "id": 175,
     "gid": 17,
     "name": "castle-wall-siding_0_0",
     "x": 1728,
     "y": 1856,
     "width": 64,
     "height": 128,
     "visible": true
    },
    {
     "id": 176,
     "gid": 130,
     "name": "tree-3-base-shadow_0_0",
     "x": 1728,
     "y": 576,
     "width": 128,
     "height": 64,
     "visible": true
    },
    {
     "id": 177,
     "gid": 13,
     "name": "blue-wall-short_0_0",
     "x": 1792,
     "y": 704,
     "width": 64,
     "height": 128,
     "visible": true
    },
    {
     "id": 178,
     "gid": 1,
     "name": "bell-blue-baseless_0_0",
     "x": 1792,
     "y": 1664,
     "width": 128,
     "height": 128,
     "visible": true
    },
    {
     "id": 179,
     "gid": 13,
     "name": "blue-wall-short_0_0",
     "x": 1792,
     "y": 1792,
     "width": 64,
     "height": 128,
     "visible": true
    },
    {
     "id": 180,
     "gid": 17,
     "name": "castle-wall-siding_0_0",
     "x": 1792,
     "y": 1856,
     "width": 64,
     "height": 128,
     "visible": true
    },
    {
     "id": 181,
     "gid": 13,
     "name": "blue-wall-short_0_0",
     "x": 1856,
     "y": 704,
     "width": 64,
     "height": 128,
     "visible": true
    },
    {
     "id": 182,
     "gid": 106,
     "name": "shrine-building_0_0",
     "x": 1856,
     "y": 1024,
     "width": 192,
     "height": 384,
     "visible": true
    },
    {
     "id": 183,
     "gid": 19,
     "name": "castle-wall-southwest-corner_0_0",
     "x": 1856,
     "y": 1856,
     "width": 64,
     "height": 128,
     "visible": true
    },
    {
     "id": 184,
     "gid": 13,
     "name": "blue-wall-short_0_0",
     "x": 1920,
     "y": 704,
     "width": 64,
     "height": 128,
     "visible": true
    },
    {
     "id": 185,
     "gid": 13,
     "name": "blue-wall-short_0_0",
     "x": 1984,
     "y": 704,
     "width": 64,
     "height": 128,
     "visible": true
    },
    {
     "id": 186,
     "gid": 18,
     "name": "castle-wall-southeast-corner_0_0",
     "x": 1984,
     "y": 1856,
     "width": 64,
     "height": 128,
     "visible": true
    },
    {
     "id": 187,
     "gid": 13,
     "name": "blue-wall-short_0_0",
     "x": 2048,
     "y": 704,
     "width": 64,
     "height": 128,
     "visible": true
    },
    {
     "id": 188,
     "gid": 13,
     "name": "blue-wall-short_0_0",
     "x": 2048,
     "y": 1792,
     "width": 64,
     "height": 128,
     "visible": true
    },
    {
     "id": 189,
     "gid": 17,
     "name": "castle-wall-siding_0_0",
     "x": 2048,
     "y": 1856,
     "width": 64,
     "height": 128,
     "visible": true
    },
    {
     "id": 190,
     "gid": 13,
     "name": "blue-wall-short_0_0",
     "x": 2112,
     "y": 704,
     "width": 64,
     "height": 128,
     "visible": true
    },
    {
     "id": 191,
     "gid": 108,
     "name": "shrub-large-circle_0_0",
     "x": 2112,
     "y": 1024,
     "width": 128,
     "height": 128,
     "visible": true
    },
    {
     "id": 192,
     "gid": 13,
     "name": "blue-wall-short_0_0",
     "x": 2112,
     "y": 1792,
     "width": 64,
     "height": 128,
     "visible": true
    },
    {
     "id": 193,
     "gid": 17,
     "name": "castle-wall-siding_0_0",
     "x": 2112,
     "y": 1856,
     "width": 64,
     "height": 128,
     "visible": true
    },
    {
     "id": 194,
     "gid": 13,
     "name": "blue-wall-short_0_0",
     "x": 2176,
     "y": 704,
     "width": 64,
     "height": 128,
     "visible": true
    },
    {
     "id": 195,
     "gid": 13,
     "name": "blue-wall-short_0_0",
     "x": 2176,
     "y": 1792,
     "width": 64,
     "height": 128,
     "visible": true
    },
    {
     "id": 196,
     "gid": 17,
     "name": "castle-wall-siding_0_0",
     "x": 2176,
     "y": 1856,
     "width": 64,
     "height": 128,
     "visible": true
    },
    {
     "id": 197,
     "gid": 13,
     "name": "blue-wall-short_0_0",
     "x": 2240,
     "y": 704,
     "width": 64,
     "height": 128,
     "visible": true
    },
    {
     "id": 198,
     "gid": 108,
     "name": "shrub-large-circle_0_0",
     "x": 2240,
     "y": 960,
     "width": 128,
     "height": 128,
     "visible": true
    },
    {
     "id": 199,
     "gid": 13,
     "name": "blue-wall-short_0_0",
     "x": 2240,
     "y": 1792,
     "width": 64,
     "height": 128,
     "visible": true
    },
    {
     "id": 200,
     "gid": 17,
     "name": "castle-wall-siding_0_0",
     "x": 2240,
     "y": 1856,
     "width": 64,
     "height": 128,
     "visible": true
    },
    {
     "id": 201,
     "gid": 126,
     "name": "tree-1-base-shadow_0_0",
     "x": 2240,
     "y": 512,
     "width": 128,
     "height": 128,
     "visible": true
    },
    {
     "id": 202,
     "gid": 13,
     "name": "blue-wall-short_0_0",
     "x": 2304,
     "y": 704,
     "width": 64,
     "height": 128,
     "visible": true
    },
    {
     "id": 203,
     "gid": 13,
     "name": "blue-wall-short_0_0",
     "x": 2304,
     "y": 1792,
     "width": 64,
     "height": 128,
     "visible": true
    },
    {
     "id": 204,
     "gid": 17,
     "name": "castle-wall-siding_0_0",
     "x": 2304,
     "y": 1856,
     "width": 64,
     "height": 128,
     "visible": true
    },
    {
     "id": 205,
     "gid": 108,
     "name": "shrub-large-circle_0_0",
     "x": 2304,
     "y": 2176,
     "width": 128,
     "height": 128,
     "visible": true
    },
    {
     "id": 206,
     "gid": 13,
     "name": "blue-wall-short_0_0",
     "x": 2368,
     "y": 704,
     "width": 64,
     "height": 128,
     "visible": true
    },
    {
     "id": 207,
     "gid": 13,
     "name": "blue-wall-short_0_0",
     "x": 2368,
     "y": 1792,
     "width": 64,
     "height": 128,
     "visible": true
    },
    {
     "id": 208,
     "gid": 17,
     "name": "castle-wall-siding_0_0",
     "x": 2368,
     "y": 1856,
     "width": 64,
     "height": 128,
     "visible": true
    },
    {
     "id": 209,
     "gid": 13,
     "name": "blue-wall-short_0_0",
     "x": 2432,
     "y": 704,
     "width": 64,
     "height": 128,
     "visible": true
    },
    {
     "id": 210,
     "gid": 13,
     "name": "blue-wall-short_0_0",
     "x": 2432,
     "y": 1792,
     "width": 64,
     "height": 128,
     "visible": true
    },
    {
     "id": 211,
     "gid": 17,
     "name": "castle-wall-siding_0_0",
     "x": 2432,
     "y": 1856,
     "width": 64,
     "height": 128,
     "visible": true
    },
    {
     "id": 212,
     "gid": 108,
     "name": "shrub-large-circle_0_0",
     "x": 2432,
     "y": 2304,
     "width": 128,
     "height": 128,
     "visible": true
    },
    {
     "id": 213,
     "gid": 13,
     "name": "blue-wall-short_0_0",
     "x": 2496,
     "y": 704,
     "width": 64,
     "height": 128,
     "visible": true
    },
    {
     "id": 214,
     "gid": 13,
     "name": "blue-wall-short_0_0",
     "x": 2496,
     "y": 1792,
     "width": 64,
     "height": 128,
     "visible": true
    },
    {
     "id": 215,
     "gid": 17,
     "name": "castle-wall-siding_0_0",
     "x": 2496,
     "y": 1856,
     "width": 64,
     "height": 128,
     "visible": true
    },
    {
     "id": 216,
     "gid": 13,
     "name": "blue-wall-short_0_0",
     "x": 2560,
     "y": 704,
     "width": 64,
     "height": 128,
     "visible": true
    },
    {
     "id": 217,
     "gid": 13,
     "name": "blue-wall-short_0_0",
     "x": 2560,
     "y": 1792,
     "width": 64,
     "height": 128,
     "visible": true
    },
    {
     "id": 218,
     "gid": 17,
     "name": "castle-wall-siding_0_0",
     "x": 2560,
     "y": 1856,
     "width": 64,
     "height": 128,
     "visible": true
    },
    {
     "id": 219,
     "gid": 13,
     "name": "blue-wall-short_0_0",
     "x": 2624,
     "y": 704,
     "width": 64,
     "height": 128,
     "visible": true
    },
    {
     "id": 220,
     "gid": 13,
     "name": "blue-wall-short_0_0",
     "x": 2624,
     "y": 1792,
     "width": 64,
     "height": 128,
     "visible": true
    },
    {
     "id": 221,
     "gid": 17,
     "name": "castle-wall-siding_0_0",
     "x": 2624,
     "y": 1856,
     "width": 64,
     "height": 128,
     "visible": true
    },
    {
     "id": 222,
     "gid": 13,
     "name": "blue-wall-short_0_0",
     "x": 2688,
     "y": 704,
     "width": 64,
     "height": 128,
     "visible": true
    },
    {
     "id": 223,
     "gid": 13,
     "name": "blue-wall-short_0_0",
     "x": 2688,
     "y": 1792,
     "width": 64,
     "height": 128,
     "visible": true
    },
    {
     "id": 224,
     "gid": 17,
     "name": "castle-wall-siding_0_0",
     "x": 2688,
     "y": 1856,
     "width": 64,
     "height": 128,
     "visible": true
    },
    {
     "id": 225,
     "gid": 13,
     "name": "blue-wall-short_0_0",
     "x": 2752,
     "y": 704,
     "width": 64,
     "height": 128,
     "visible": true
    },
    {
     "id": 226,
     "gid": 13,
     "name": "blue-wall-short_0_0",
     "x": 2752,
     "y": 1792,
     "width": 64,
     "height": 128,
     "visible": true
    },
    {
     "id": 227,
     "gid": 17,
     "name": "castle-wall-siding_0_0",
     "x": 2752,
     "y": 1856,
     "width": 64,
     "height": 128,
     "visible": true
    },
    {
     "id": 228,
     "gid": 13,
     "name": "blue-wall-short_0_0",
     "x": 2816,
     "y": 704,
     "width": 64,
     "height": 128,
     "visible": true
    },
    {
     "id": 229,
     "gid": 43,
     "name": "fox-statue-base-2_0_0",
     "x": 2816,
     "y": 1088,
     "width": 64,
     "height": 128,
     "visible": true
    },
    {
     "id": 230,
     "gid": 124,
     "name": "torii-blue-feet_0_0",
     "x": 2816,
     "y": 1280,
     "width": 256,
     "height": 128,
     "visible": true
    },
    {
     "id": 231,
     "gid": 43,
     "name": "fox-statue-base-2_0_0",
     "x": 2816,
     "y": 1408,
     "width": 64,
     "height": 128,
     "visible": true
    },
    {
     "id": 232,
     "gid": 13,
     "name": "blue-wall-short_0_0",
     "x": 2816,
     "y": 1792,
     "width": 64,
     "height": 128,
     "visible": true
    },
    {
     "id": 233,
     "gid": 17,
     "name": "castle-wall-siding_0_0",
     "x": 2816,
     "y": 1856,
     "width": 64,
     "height": 128,
     "visible": true
    },
    {
     "id": 234,
     "gid": 128,
     "name": "tree-2-base-shadow_0_0",
     "x": 2816,
     "y": 512,
     "width": 128,
     "height": 128,
     "visible": true
    },
    {
     "id": 235,
     "gid": 13,
     "name": "blue-wall-short_0_0",
     "x": 2880,
     "y": 704,
     "width": 64,
     "height": 128,
     "visible": true
    },
    {
     "id": 236,
     "gid": 8,
     "name": "blue-shrine-platform-base_0_0",
     "x": 2880,
     "y": 960,
     "width": 128,
     "height": 128,
     "visible": true
    },
    {
     "id": 237,
     "gid": 13,
     "name": "blue-wall-short_0_0",
     "x": 2880,
     "y": 1792,
     "width": 64,
     "height": 128,
     "visible": true
    },
    {
     "id": 238,
     "gid": 17,
     "name": "castle-wall-siding_0_0",
     "x": 2880,
     "y": 1856,
     "width": 64,
     "height": 128,
     "visible": true
    },
    {
     "id": 239,
     "gid": 13,
     "name": "blue-wall-short_0_0",
     "x": 2944,
     "y": 704,
     "width": 64,
     "height": 128,
     "visible": true
    },
    {
     "id": 240,
     "gid": 108,
     "name": "shrub-large-circle_0_0",
     "x": 2944,
     "y": 1664,
     "width": 128,
     "height": 128,
     "visible": true
    },
    {
     "id": 241,
     "gid": 13,
     "name": "blue-wall-short_0_0",
     "x": 2944,
     "y": 1792,
     "width": 64,
     "height": 128,
     "visible": true
    },
    {
     "id": 242,
     "gid": 17,
     "name": "castle-wall-siding_0_0",
     "x": 2944,
     "y": 1856,
     "width": 64,
     "height": 128,
     "visible": true
    },
    {
     "id": 243,
     "gid": 13,
     "name": "blue-wall-short_0_0",
     "x": 3008,
     "y": 704,
     "width": 64,
     "height": 128,
     "visible": true
    },
    {
     "id": 244,
     "gid": 42,
     "name": "fox-statue-base-1_0_0",
     "x": 3008,
     "y": 1088,
     "width": 64,
     "height": 128,
     "visible": true
    },
    {
     "id": 245,
     "gid": 42,
     "name": "fox-statue-base-1_0_0",
     "x": 3008,
     "y": 1408,
     "width": 64,
     "height": 128,
     "visible": true
    },
    {
     "id": 246,
     "gid": 13,
     "name": "blue-wall-short_0_0",
     "x": 3008,
     "y": 1792,
     "width": 64,
     "height": 128,
     "visible": true
    },
    {
     "id": 247,
     "gid": 17,
     "name": "castle-wall-siding_0_0",
     "x": 3008,
     "y": 1856,
     "width": 64,
     "height": 128,
     "visible": true
    },
    {
     "id": 248,
     "gid": 13,
     "name": "blue-wall-short_0_0",
     "x": 3072,
     "y": 704,
     "width": 64,
     "height": 128,
     "visible": true
    },
    {
     "id": 249,
     "gid": 13,
     "name": "blue-wall-short_0_0",
     "x": 3072,
     "y": 1792,
     "width": 64,
     "height": 128,
     "visible": true
    },
    {
     "id": 250,
     "gid": 17,
     "name": "castle-wall-siding_0_0",
     "x": 3072,
     "y": 1856,
     "width": 64,
     "height": 128,
     "visible": true
    },
    {
     "id": 251,
     "gid": 10,
     "name": "blue-wall-front-east-corner_0_0",
     "x": 3136,
     "y": 1792,
     "width": 64,
     "height": 128,
     "visible": true
    },
    {
     "id": 252,
     "gid": 17,
     "name": "castle-wall-siding_0_0",
     "x": 3136,
     "y": 1856,
     "width": 64,
     "height": 128,
     "visible": true
    },
    {
     "id": 253,
     "gid": 130,
     "name": "tree-3-base-shadow_0_0",
     "x": 3328,
     "y": 832,
     "width": 128,
     "height": 64,
     "visible": true
    },
    {
     "id": 254,
     "gid": 126,
     "name": "tree-1-base-shadow_0_0",
     "x": 3328,
     "y": 1600,
     "width": 128,
     "height": 128,
     "visible": true
    },
    {
     "id": 255,
     "gid": 130,
     "name": "tree-3-base-shadow_0_0",
     "x": 3328,
     "y": 2112,
     "width": 128,
     "height": 64,
     "visible": true
    },
    {
     "id": 256,
     "gid": 128,
     "name": "tree-2-base-shadow_0_0",
     "x": 3392,
     "y": 1856,
     "width": 128,
     "height": 128,
     "visible": true
    },
    {
     "id": 257,
     "gid": 15,
     "name": "building-entrance-3_0_0",
     "x": 3584,
     "y": 1408,
     "width": 192,
     "height": 64,
     "visible": true
    },
    {
     "id": 258,
     "gid": 130,
     "name": "tree-3-base-shadow_0_0",
     "x": 448,
     "y": 1280,
     "width": 128,
     "height": 64,
     "visible": true
    },
    {
     "id": 259,
     "gid": 126,
     "name": "tree-1-base-shadow_0_0",
     "x": 448,
     "y": 1920,
     "width": 128,
     "height": 128,
     "visible": true
    },
    {
     "id": 260,
     "gid": 130,
     "name": "tree-3-base-shadow_0_0",
     "x": 512,
     "y": 768,
     "width": 128,
     "height": 64,
     "visible": true
    }
   ],
   "properties": [
    {
     "name": "gv2layer",
     "type": "string",
     "value": "Collidables"
    },
    {
     "name": "z",
     "type": "int",
     "value": 5
    },
    {
     "name": "collision",
     "type": "bool",
     "value": false
    }
   ]
  },
  {
   "type": "tilelayer",
   "id": 8,
   "name": "Other",
   "width": 59,
   "height": 46,
   "x": 0,
   "y": 0,
   "opacity": 1,
   "visible": true,
   "data": [
    0,
    0,
    0,
    0,
    0,
    0,
    0,
    0,
    0,
    0,
    0,
    0,
    0,
    0,
    0,
    0,
    0,
    0,
    0,
    0,
    0,
    0,
    0,
    0,
    0,
    0,
    0,
    0,
    0,
    0,
    0,
    0,
    0,
    0,
    0,
    0,
    0,
    0,
    0,
    0,
    0,
    0,
    0,
    0,
    0,
    0,
    0,
    0,
    0,
    0,
    0,
    0,
    0,
    0,
    0,
    0,
    0,
    0,
    0,
    0,
    0,
    0,
    0,
    0,
    0,
    0,
    0,
    0,
    0,
    0,
    0,
    0,
    0,
    0,
    0,
    0,
    0,
    0,
    0,
    0,
    0,
    0,
    0,
    0,
    0,
    0,
    0,
    0,
    0,
    0,
    0,
    0,
    0,
    0,
    0,
    0,
    0,
    0,
    0,
    0,
    0,
    0,
    0,
    0,
    0,
    0,
    0,
    0,
    0,
    0,
    0,
    0,
    0,
    0,
    0,
    0,
    0,
    0,
    0,
    0,
    0,
    0,
    0,
    0,
    0,
    0,
    0,
    0,
    0,
    0,
    0,
    0,
    0,
    0,
    0,
    0,
    0,
    0,
    0,
    0,
    0,
    0,
    0,
    0,
    0,
    0,
    0,
    0,
    0,
    0,
    0,
    0,
    0,
    0,
    0,
    0,
    0,
    0,
    0,
    0,
    0,
    0,
    0,
    0,
    0,
    0,
    0,
    0,
    0,
    0,
    0,
    0,
    0,
    0,
    0,
    0,
    0,
    0,
    0,
    0,
    0,
    0,
    0,
    0,
    0,
    0,
    0,
    0,
    0,
    0,
    0,
    0,
    0,
    0,
    0,
    0,
    0,
    0,
    0,
    0,
    0,
    0,
    0,
    0,
    0,
    0,
    0,
    0,
    0,
    0,
    0,
    0,
    0,
    0,
    0,
    0,
    0,
    0,
    0,
    0,
    0,
    0,
    0,
    0,
    0,
    0,
    0,
    0,
    0,
    0,
    0,
    0,
    0,
    0,
    0,
    0,
    0,
    0,
    0,
    0,
    0,
    0,
    0,
    0,
    0,
    0,
    0,
    0,
    0,
    0,
    0,
    0,
    0,
    0,
    0,
    0,
    0,
    0,
    0,
    0,
    0,
    0,
    0,
    0,
    0,
    0,
    0,
    0,
    0,
    0,
    0,
    0,
    0,
    0,
    0,
    0,
    0,
    0,
    0,
    0,
    0,
    0,
    0,
    0,
    0,
    0,
    0,
    0,
    0,
    0,
    0,
    0,
    0,
    0,
    0,
    0,
    0,
    0,
    0,
    0,
    0,
    0,
    0,
    0,
    0,
    0,
    0,
    0,
    0,
    0,
    0,
    0,
    0,
    0,
    0,
    0,
    0,
    0,
    0,
    0,
    0,
    0,
    0,
    0,
    0,
    0,
    0,
    0,
    0,
    0,
    0,
    0,
    0,
    0,
    0,
    0,
    0,
    0,
    0,
    0,
    0,
    0,
    0,
    0,
    0,
    0,
    0,
    0,
    0,
    0,
    0,
    0,
    0,
    0,
    0,
    0,
    0,
    0,
    0,
    0,
    0,
    0,
    0,
    0,
    0,
    0,
    0,
    0,
    0,
    0,
    0,
    0,
    0,
    0,
    0,
    0,
    0,
    0,
    0,
    0,
    0,
    0,
    0,
    0,
    0,
    0,
    0,
    0,
    0,
    0,
    0,
    0,
    0,
    0,
    0,
    0,
    0,
    0,
    0,
    0,
    0,
    0,
    0,
    0,
    0,
    0,
    0,
    0,
    0,
    0,
    0,
    0,
    0,
    0,
    0,
    0,
    0,
    0,
    0,
    0,
    0,
    0,
    0,
    0,
    0,
    0,
    0,
    0,
    0,
    0,
    0,
    0,
    0,
    0,
    0,
    0,
    0,
    0,
    0,
    0,
    0,
    0,
    0,
    0,
    0,
    0,
    0,
    0,
    0,
    0,
    0,
    0,
    0,
    0,
    0,
    0,
    0,
    0,
    0,
    0,
    0,
    0,
    0,
    0,
    0,
    0,
    0,
    0,
    0,
    0,
    0,
    0,
    0,
    0,
    0,
    0,
    0,
    0,
    0,
    0,
    0,
    0,
    0,
    0,
    0,
    0,
    0,
    0,
    0,
    0,
    0,
    0,
    0,
    0,
    0,
    0,
    0,
    0,
    0,
    0,
    0,
    0,
    0,
    0,
    0,
    0,
    0,
    0,
    0,
    0,
    0,
    0,
    0,
    0,
    0,
    0,
    0,
    0,
    0,
    0,
    0,
    0,
    0,
    0,
    0,
    0,
    0,
    0,
    0,
    0,
    0,
    0,
    0,
    0,
    0,
    0,
    0,
    0,
    0,
    0,
    0,
    0,
    0,
    0,
    0,
    0,
    0,
    0,
    0,
    0,
    0,
    0,
    0,
    0,
    0,
    0,
    0,
    0,
    0,
    0,
    0,
    0,
    0,
    0,
    0,
    0,
    0,
    0,
    0,
    0,
    0,
    0,
    0,
    0,
    0,
    0,
    0,
    0,
    0,
    0,
    0,
    0,
    0,
    0,
    0,
    0,
    0,
    0,
    0,
    0,
    0,
    0,
    0,
    0,
    0,
    0,
    0,
    0,
    0,
    0,
    0,
    0,
    0,
    0,
    0,
    0,
    0,
    0,
    0,
    0,
    0,
    0,
    0,
    0,
    0,
    0,
    0,
    0,
    0,
    0,
    0,
    0,
    0,
    0,
    0,
    0,
    0,
    0,
    0,
    0,
    0,
    0,
    0,
    0,
    0,
    0,
    0,
    0,
    0,
    0,
    0,
    0,
    0,
    0,
    0,
    0,
    0,
    0,
    0,
    0,
    0,
    0,
    0,
    0,
    0,
    0,
    0,
    0,
    0,
    0,
    0,
    0,
    0,
    0,
    0,
    0,
    0,
    0,
    0,
    0,
    0,
    0,
    0,
    0,
    0,
    0,
    0,
    0,
    0,
    0,
    0,
    0,
    0,
    0,
    0,
    0,
    0,
    0,
    0,
    0,
    0,
    0,
    0,
    0,
    0,
    0,
    0,
    0,
    0,
    0,
    0,
    0,
    0,
    0,
    0,
    0,
    0,
    0,
    0,
    0,
    0,
    0,
    0,
    0,
    0,
    0,
    0,
    0,
    0,
    0,
    0,
    0,
    0,
    0,
    0,
    0,
    0,
    0,
    0,
    0,
    0,
    0,
    0,
    0,
    0,
    0,
    0,
    0,
    0,
    0,
    0,
    0,
    0,
    0,
    0,
    0,
    0,
    0,
    0,
    0,
    0,
    0,
    0,
    0,
    0,
    0,
    0,
    0,
    0,
    0,
    0,
    0,
    0,
    0,
    0,
    0,
    0,
    0,
    0,
    0,
    0,
    0,
    0,
    0,
    0,
    0,
    0,
    0,
    0,
    0,
    0,
    0,
    0,
    0,
    0,
    0,
    0,
    0,
    0,
    0,
    0,
    0,
    0,
    0,
    0,
    0,
    0,
    0,
    0,
    0,
    0,
    0,
    0,
    0,
    0,
    0,
    0,
    0,
    0,
    0,
    0,
    0,
    0,
    0,
    0,
    0,
    0,
    0,
    0,
    0,
    0,
    0,
    0,
    0,
    0,
    0,
    0,
    0,
    0,
    0,
    0,
    0,
    0,
    0,
    0,
    0,
    0,
    0,
    0,
    0,
    0,
    0,
    0,
    0,
    0,
    0,
    0,
    0,
    0,
    0,
    0,
    0,
    0,
    0,
    0,
    0,
    0,
    0,
    0,
    0,
    0,
    0,
    0,
    0,
    0,
    0,
    0,
    0,
    0,
    0,
    0,
    0,
    0,
    0,
    0,
    0,
    0,
    0,
    0,
    0,
    0,
    0,
    0,
    0,
    0,
    0,
    0,
    0,
    0,
    0,
    0,
    0,
    0,
    0,
    0,
    0,
    0,
    0,
    0,
    0,
    0,
    0,
    0,
    0,
    0,
    0,
    0,
    0,
    0,
    0,
    0,
    0,
    0,
    0,
    0,
    0,
    0,
    0,
    0,
    0,
    0,
    0,
    0,
    0,
    0,
    0,
    0,
    0,
    0,
    0,
    0,
    0,
    0,
    0,
    0,
    0,
    0,
    0,
    0,
    0,
    0,
    0,
    0,
    0,
    0,
    0,
    0,
    0,
    0,
    0,
    0,
    0,
    0,
    0,
    0,
    0,
    0,
    0,
    0,
    0,
    0,
    0,
    0,
    0,
    0,
    0,
    0,
    0,
    0,
    0,
    0,
    0,
    0,
    0,
    0,
    0,
    0,
    0,
    0,
    0,
    0,
    0,
    0,
    0,
    0,
    0,
    0,
    0,
    0,
    0,
    0,
    0,
    0,
    0,
    0,
    0,
    0,
    0,
    0,
    0,
    0,
    0,
    0,
    0,
    0,
    0,
    0,
    0,
    0,
    0,
    0,
    0,
    0,
    0,
    0,
    0,
    0,
    0,
    0,
    0,
    0,
    0,
    0,
    0,
    0,
    0,
    0,
    0,
    0,
    0,
    0,
    0,
    0,
    0,
    0,
    0,
    0,
    0,
    0,
    0,
    0,
    0,
    0,
    0,
    0,
    0,
    0,
    0,
    0,
    0,
    0,
    0,
    0,
    0,
    0,
    0,
    0,
    0,
    0,
    0,
    0,
    0,
    0,
    0,
    0,
    0,
    0,
    0,
    0,
    0,
    0,
    0,
    0,
    0,
    0,
    0,
    0,
    0,
    0,
    0,
    0,
    0,
    0,
    0,
    0,
    0,
    0,
    0,
    0,
    0,
    0,
    0,
    0,
    0,
    0,
    0,
    0,
    0,
    0,
    0,
    0,
    0,
    0,
    0,
    0,
    0,
    0,
    0,
    0,
    0,
    0,
    0,
    0,
    0,
    0,
    0,
    0,
    0,
    0,
    0,
    0,
    0,
    0,
    0,
    0,
    0,
    0,
    0,
    0,
    0,
    0,
    0,
    0,
    0,
    0,
    0,
    0,
    0,
    0,
    0,
    0,
    0,
    0,
    0,
    0,
    0,
    0,
    0,
    0,
    0,
    0,
    0,
    0,
    0,
    0,
    0,
    0,
    0,
    0,
    0,
    0,
    0,
    0,
    0,
    0,
    0,
    0,
    0,
    0,
    0,
    0,
    0,
    0,
    0,
    0,
    0,
    0,
    0,
    0,
    0,
    0,
    0,
    0,
    0,
    0,
    0,
    0,
    0,
    0,
    0,
    0,
    0,
    0,
    0,
    0,
    0,
    0,
    0,
    0,
    0,
    0,
    0,
    0,
    0,
    0,
    0,
    0,
    0,
    0,
    0,
    0,
    0,
    0,
    0,
    0,
    0,
    0,
    0,
    0,
    0,
    0,
    0,
    0,
    0,
    0,
    0,
    0,
    0,
    0,
    0,
    0,
    0,
    0,
    0,
    0,
    0,
    0,
    0,
    0,
    0,
    0,
    0,
    0,
    0,
    0,
    0,
    0,
    0,
    0,
    0,
    0,
    0,
    0,
    0,
    0,
    0,
    0,
    0,
    0,
    0,
    0,
    0,
    0,
    0,
    0,
    0,
    0,
    0,
    0,
    0,
    0,
    0,
    0,
    0,
    0,
    0,
    0,
    0,
    0,
    0,
    0,
    0,
    0,
    0,
    0,
    0,
    0,
    0,
    0,
    0,
    0,
    0,
    0,
    0,
    0,
    0,
    0,
    0,
    0,
    0,
    0,
    0,
    0,
    0,
    0,
    0,
    0,
    0,
    0,
    0,
    0,
    0,
    0,
    0,
    0,
    0,
    0,
    0,
    0,
    0,
    0,
    0,
    0,
    0,
    0,
    0,
    0,
    0,
    0,
    0,
    0,
    0,
    0,
    0,
    0,
    0,
    0,
    0,
    0,
    0,
    0,
    0,
    0,
    0,
    0,
    0,
    0,
    0,
    0,
    0,
    0,
    0,
    0,
    0,
    0,
    0,
    0,
    0,
    0,
    0,
    0,
    0,
    0,
    0,
    0,
    0,
    0,
    0,
    0,
    0,
    0,
    0,
    0,
    0,
    0,
    0,
    0,
    0,
    0,
    0,
    0,
    0,
    0,
    0,
    0,
    0,
    0,
    0,
    0,
    0,
    0,
    0,
    0,
    0,
    0,
    0,
    0,
    0,
    0,
    0,
    0,
    0,
    0,
    0,
    0,
    0,
    0,
    0,
    0,
    0,
    0,
    0,
    0,
    0,
    0,
    0,
    0,
    0,
    0,
    0,
    0,
    0,
    0,
    0,
    0,
    0,
    0,
    0,
    0,
    0,
    0,
    0,
    0,
    0,
    0,
    0,
    0,
    0,
    0,
    0,
    0,
    0,
    0,
    0,
    0,
    0,
    0,
    0,
    0,
    0,
    0,
    0,
    0,
    0,
    0,
    0,
    0,
    0,
    0,
    0,
    0,
    0,
    0,
    0,
    0,
    0,
    0,
    0,
    0,
    0,
    0,
    0,
    0,
    0,
    0,
    0,
    0,
    0,
    0,
    0,
    0,
    0,
    0,
    0,
    0,
    0,
    0,
    0,
    0,
    0,
    0,
    0,
    0,
    0,
    0,
    0,
    0,
    0,
    0,
    0,
    0,
    0,
    0,
    0,
    0,
    0,
    0,
    0,
    0,
    0,
    0,
    0,
    0,
    0,
    0,
    0,
    0,
    0,
    0,
    0,
    0,
    0,
    0,
    0,
    0,
    0,
    0,
    0,
    0,
    0,
    0,
    0,
    0,
    0,
    0,
    0,
    0,
    0,
    0,
    0,
    0,
    0,
    0,
    0,
    0,
    0,
    0,
    0,
    0,
    0,
    0,
    0,
    0,
    0,
    0,
    0,
    0,
    0,
    0,
    0,
    0,
    0,
    0,
    0,
    0,
    0,
    0,
    0,
    0,
    0,
    0,
    0,
    0,
    0,
    0,
    0,
    0,
    0,
    0,
    0,
    0,
    0,
    0,
    0,
    0,
    0,
    0,
    0,
    0,
    0,
    0,
    0,
    0,
    0,
    0,
    0,
    0,
    0,
    0,
    0,
    0,
    0,
    0,
    0,
    0,
    0,
    0,
    0,
    0,
    0,
    0,
    0,
    0,
    0,
    0,
    0,
    0,
    0,
    0,
    0,
    0,
    0,
    0,
    0,
    0,
    0,
    0,
    0,
    0,
    0,
    0,
    0,
    0,
    0,
    0,
    0,
    0,
    0,
    0,
    0,
    0,
    0,
    0,
    0,
    0,
    0,
    0,
    0,
    0,
    0,
    0,
    0,
    0,
    0,
    0,
    0,
    0,
    0,
    0,
    0,
    0,
    0,
    0,
    0,
    0,
    0,
    0,
    0,
    0,
    0,
    0,
    0,
    0,
    0,
    0,
    0,
    0,
    0,
    0,
    0,
    0,
    0,
    0,
    0,
    0,
    0,
    0,
    0,
    0,
    0,
    0,
    0,
    0,
    0,
    0,
    0,
    0,
    0,
    0,
    0,
    0,
    0,
    0,
    0,
    0,
    0,
    0,
    0,
    0,
    0,
    0,
    0,
    0,
    0,
    0,
    0,
    0,
    0,
    0,
    0,
    0,
    0,
    0,
    0,
    0,
    0,
    0,
    0,
    0,
    0,
    0,
    0,
    0,
    0,
    0,
    0,
    0,
    0,
    0,
    0,
    0,
    0,
    0,
    0,
    0,
    0,
    0,
    0,
    0,
    0,
    0,
    0,
    0,
    0,
    0,
    0,
    0,
    0,
    0,
    0,
    0,
    0,
    0,
    0,
    0,
    0,
    0,
    0,
    0,
    0,
    0,
    0,
    0,
    0,
    0,
    0,
    0,
    0,
    0,
    0,
    0,
    0,
    0,
    0,
    0,
    0,
    0,
    0,
    0,
    0,
    0,
    0,
    0,
    0,
    0,
    0,
    0,
    0,
    0,
    0,
    0,
    0,
    0,
    0,
    0,
    0,
    0,
    0,
    0,
    0,
    0,
    0,
    0,
    0,
    0,
    0,
    0,
    0,
    0,
    0,
    0,
    0,
    0,
    0,
    0,
    0,
    0,
    0,
    0,
    0,
    0,
    0,
    0,
    0,
    0,
    0,
    0,
    0,
    0,
    0,
    0,
    0,
    0,
    0,
    0,
    0,
    0,
    0,
    0,
    0,
    0,
    0,
    0,
    0,
    0,
    0,
    0,
    0,
    0,
    0,
    0,
    0,
    0,
    0,
    0,
    0,
    0,
    0,
    0,
    0,
    0,
    0,
    0,
    0,
    0,
    0,
    0,
    0,
    0,
    0,
    0,
    0,
    0,
    0,
    0,
    0,
    0,
    0,
    0,
    0,
    0,
    0,
    0,
    0,
    0,
    0,
    0,
    0,
    0,
    0,
    0,
    0,
    0,
    0,
    0,
    0,
    0,
    0,
    0,
    0,
    0,
    0,
    0,
    0,
    0,
    0,
    0,
    0,
    0,
    0,
    0,
    0,
    0,
    0,
    0,
    0,
    0,
    0,
    0,
    0,
    0,
    0,
    0,
    0,
    0,
    0,
    0,
    0,
    0,
    0,
    0,
    0,
    0,
    0,
    0,
    0,
    0,
    0,
    0,
    0,
    0,
    0,
    0,
    0,
    0,
    0,
    0,
    0,
    0,
    0,
    0,
    0,
    0,
    0,
    0,
    0,
    0,
    0,
    0,
    0,
    0,
    0,
    0,
    0,
    0,
    0,
    0,
    0,
    0,
    0,
    0,
    0,
    0,
    0,
    0,
    0,
    0,
    0,
    0,
    0,
    0,
    0,
    0,
    0,
    0,
    0,
    0,
    0,
    0,
    0,
    0,
    0,
    0,
    0,
    0,
    0,
    0,
    0,
    0,
    0,
    0,
    0,
    0,
    0,
    0,
    0,
    0,
    0,
    0,
    0,
    0,
    0,
    0,
    0,
    0,
    0,
    0,
    0,
    0,
    0,
    0,
    0,
    0,
    0,
    0,
    0,
    0,
    0,
    0,
    0,
    0,
    0,
    0,
    0,
    0,
    0,
    0,
    0,
    0,
    0,
    0,
    0,
    0,
    0,
    0,
    0,
    0,
    0,
    0,
    0,
    0,
    0,
    0,
    0,
    0,
    0,
    0,
    0,
    0,
    0,
    0,
    0,
    0,
    0,
    0,
    0,
    0,
    0,
    0,
    0,
    0,
    0,
    0,
    0,
    0,
    0,
    0,
    0,
    0,
    0,
    0,
    0,
    0,
    0,
    0,
    0,
    0,
    0,
    0,
    0,
    0,
    0,
    0,
    0,
    0,
    0,
    0,
    0,
    0,
    0,
    0,
    0,
    0,
    0,
    0,
    0,
    0,
    0,
    0,
    0,
    0,
    0,
    0,
    0,
    0,
    0,
    0,
    0,
    0,
    0,
    0,
    0,
    0,
    0,
    0,
    0,
    0,
    0,
    0,
    0,
    0,
    0,
    0,
    0,
    0,
    0,
    0,
    0,
    0,
    0,
    0,
    0,
    0,
    0,
    0,
    0,
    0,
    0,
    0,
    0,
    0,
    0,
    0,
    0,
    0,
    0,
    0,
    0,
    0,
    0,
    0,
    0,
    0,
    0,
    0,
    0,
    0,
    0,
    0,
    0,
    0,
    0,
    0,
    0,
    0,
    0,
    0,
    0,
    0,
    0,
    0,
    0,
    0,
    0,
    0,
    0,
    0,
    0,
    0,
    0,
    0,
    0,
    0,
    0,
    0,
    0,
    0,
    0,
    0,
    0,
    0,
    0,
    0,
    0,
    0,
    0,
    0,
    0,
    0,
    0,
    0,
    0,
    0,
    0,
    0,
    0,
    0,
    0,
    0,
    0,
    0,
    0,
    0,
    0,
    0,
    0,
    0,
    0,
    0,
    0,
    0,
    0,
    0,
    0,
    0,
    0,
    0,
    0,
    0,
    0,
    0,
    0,
    0,
    0,
    0,
    0,
    0,
    0,
    0,
    0,
    0,
    0,
    0,
    0,
    0,
    0,
    0,
    0,
    0,
    94,
    0,
    0,
    0,
    0,
    0,
    0,
    0,
    0,
    135,
    0,
    135,
    0,
    0,
    0,
    0,
    0,
    0,
    0,
    0,
    0,
    0,
    0,
    0,
    0,
    0,
    0,
    0,
    0,
    0,
    0,
    0,
    0,
    0,
    0,
    0,
    0,
    0,
    0,
    0,
    0,
    0,
    0,
    0,
    0,
    0,
    0,
    0,
    0,
    0,
    0,
    0,
    0,
    0,
    0,
    0,
    0,
    0,
    0,
    92,
    0,
    0,
    0,
    0,
    0,
    0,
    0,
    0,
    133,
    132,
    133,
    0,
    0,
    0,
    0,
    0,
    0,
    0,
    0,
    0,
    0,
    0,
    0,
    0,
    0,
    0,
    91,
    0,
    0,
    0,
    0,
    0,
    0,
    0,
    0,
    0,
    0,
    0,
    0,
    0,
    0,
    0,
    0,
    0,
    0,
    0,
    0,
    0,
    0,
    0,
    0,
    0,
    0,
    0,
    0,
    0,
    0,
    0,
    0,
    0,
    0,
    0,
    0,
    0,
    0,
    0,
    0,
    0,
    0,
    0,
    0,
    0,
    0,
    0,
    0,
    0,
    0,
    0,
    0,
    0,
    0,
    0,
    0,
    0,
    0,
    0,
    0,
    0,
    0,
    0,
    0,
    0,
    0,
    0,
    0,
    0,
    0,
    0,
    0,
    0,
    0,
    0,
    0,
    0,
    0,
    0,
    0,
    0,
    0,
    0,
    0,
    0,
    0,
    0,
    0,
    0,
    0,
    0,
    0,
    0,
    0,
    0,
    0,
    0,
    0,
    0,
    0,
    0,
    0,
    0,
    0,
    0,
    0,
    0,
    0,
    0,
    0,
    0,
    0,
    0,
    0,
    0,
    0,
    0,
    0,
    0,
    0,
    0,
    0,
    0,
    0,
    0,
    0,
    0,
    0,
    0,
    0,
    0,
    0,
    0,
    0,
    0,
    0,
    0,
    0,
    0,
    0,
    0,
    0,
    0,
    0,
    0,
    0,
    0,
    0,
    0,
    0,
    0,
    0,
    0,
    0,
    0,
    0,
    0,
    0,
    0,
    0,
    0,
    0,
    0,
    0,
    0,
    0,
    0,
    0,
    0,
    0,
    0,
    0,
    0,
    0,
    0,
    0,
    0,
    0,
    0,
    0,
    0,
    0,
    0,
    0,
    0,
    0,
    0,
    0,
    0,
    0,
    0,
    0,
    0,
    0,
    0,
    0,
    0,
    0,
    0,
    0,
    0,
    0,
    0,
    0,
    0,
    0,
    0,
    0,
    0,
    0,
    0,
    0,
    0,
    0,
    0,
    0,
    0,
    0,
    0,
    0,
    0,
    0,
    0,
    0,
    0,
    0,
    0,
    0,
    0,
    0,
    0,
    0,
    0,
    0,
    0,
    0,
    0,
    0,
    0,
    0,
    0,
    0,
    0,
    0,
    0,
    0,
    0,
    0,
    0,
    0,
    0,
    0,
    0,
    0,
    0,
    0,
    0,
    0,
    0,
    0,
    0,
    0,
    0,
    0,
    0,
    0,
    0,
    0,
    0,
    0,
    0,
    0,
    0,
    0,
    0,
    0,
    0,
    0,
    0,
    0,
    0,
    0,
    0,
    0,
    0,
    0,
    0,
    0,
    0,
    0,
    0,
    0,
    0,
    0,
    0,
    0,
    0,
    0,
    0,
    0,
    0,
    0,
    0,
    0,
    0,
    0,
    0,
    0,
    0,
    0,
    0,
    0,
    0,
    0,
    0,
    0,
    0,
    0,
    0,
    0,
    0,
    0,
    0,
    0,
    0,
    0,
    0,
    0,
    0,
    0,
    0,
    0,
    0,
    0,
    0,
    0,
    0,
    0,
    0,
    0,
    0,
    0,
    0,
    0,
    0,
    0,
    0,
    0,
    0,
    0,
    0,
    0,
    0,
    0,
    0,
    0,
    0,
    0
   ],
   "properties": [
    {
     "name": "gv2layer",
     "type": "string",
     "value": "Other"
    },
    {
     "name": "z",
     "type": "int",
     "value": 6
    },
    {
     "name": "collision",
     "type": "bool",
     "value": false
    }
   ]
  },
  {
   "type": "objectgroup",
   "id": 9,
   "name": "Other \u00b7obj",
   "x": 0,
   "y": 0,
   "opacity": 1,
   "visible": true,
   "draworder": "index",
   "objects": [
    {
     "id": 261,
     "gid": 134,
     "name": "white-vending-machine-top-3_0_0",
     "x": 2368,
     "y": 2368,
     "width": 64,
     "height": 128,
     "visible": true
    },
    {
     "id": 262,
     "gid": 93,
     "name": "red-vending-machine-top-3_0_0",
     "x": 3456,
     "y": 2368,
     "width": 64,
     "height": 128,
     "visible": true
    }
   ],
   "properties": [
    {
     "name": "gv2layer",
     "type": "string",
     "value": "Other"
    },
    {
     "name": "z",
     "type": "int",
     "value": 6
    },
    {
     "name": "collision",
     "type": "bool",
     "value": false
    }
   ]
  },
  {
   "type": "tilelayer",
   "id": 10,
   "name": "Tops",
   "width": 59,
   "height": 46,
   "x": 0,
   "y": 0,
   "opacity": 1,
   "visible": true,
   "data": [
    0,
    0,
    0,
    0,
    0,
    0,
    0,
    0,
    0,
    0,
    0,
    0,
    0,
    0,
    0,
    0,
    0,
    0,
    0,
    0,
    0,
    0,
    0,
    0,
    0,
    0,
    0,
    0,
    0,
    0,
    0,
    0,
    0,
    0,
    0,
    0,
    0,
    0,
    0,
    0,
    0,
    0,
    0,
    0,
    0,
    0,
    0,
    0,
    0,
    0,
    0,
    0,
    0,
    0,
    0,
    0,
    0,
    0,
    0,
    0,
    0,
    0,
    0,
    0,
    0,
    0,
    0,
    0,
    0,
    0,
    0,
    0,
    0,
    0,
    0,
    0,
    0,
    0,
    0,
    0,
    0,
    0,
    0,
    0,
    0,
    0,
    0,
    0,
    0,
    0,
    0,
    0,
    0,
    0,
    0,
    0,
    0,
    0,
    0,
    0,
    0,
    0,
    0,
    0,
    0,
    0,
    0,
    0,
    0,
    0,
    0,
    0,
    0,
    0,
    0,
    0,
    0,
    0,
    0,
    0,
    0,
    0,
    0,
    0,
    0,
    0,
    0,
    0,
    0,
    0,
    0,
    0,
    0,
    0,
    0,
    0,
    0,
    0,
    0,
    0,
    0,
    0,
    0,
    0,
    0,
    0,
    0,
    0,
    0,
    0,
    0,
    0,
    0,
    0,
    0,
    0,
    0,
    0,
    0,
    0,
    0,
    0,
    0,
    0,
    0,
    0,
    0,
    0,
    0,
    0,
    0,
    0,
    0,
    0,
    0,
    0,
    0,
    0,
    0,
    0,
    0,
    0,
    0,
    0,
    0,
    0,
    0,
    0,
    0,
    0,
    0,
    0,
    0,
    0,
    0,
    0,
    0,
    0,
    0,
    0,
    0,
    0,
    0,
    0,
    0,
    0,
    0,
    0,
    0,
    0,
    0,
    0,
    0,
    0,
    0,
    0,
    0,
    0,
    0,
    0,
    0,
    0,
    0,
    0,
    0,
    0,
    0,
    0,
    0,
    0,
    0,
    0,
    0,
    0,
    0,
    0,
    0,
    0,
    0,
    0,
    0,
    0,
    0,
    0,
    0,
    0,
    0,
    0,
    0,
    0,
    0,
    0,
    0,
    0,
    0,
    0,
    0,
    0,
    0,
    0,
    0,
    0,
    0,
    0,
    0,
    0,
    0,
    0,
    0,
    0,
    0,
    0,
    0,
    0,
    0,
    0,
    0,
    0,
    0,
    0,
    0,
    0,
    0,
    0,
    0,
    0,
    0,
    0,
    0,
    0,
    0,
    0,
    0,
    0,
    0,
    0,
    0,
    0,
    0,
    0,
    0,
    0,
    0,
    0,
    0,
    0,
    0,
    0,
    0,
    0,
    0,
    0,
    0,
    0,
    0,
    0,
    0,
    0,
    0,
    0,
    0,
    0,
    0,
    0,
    0,
    0,
    0,
    0,
    0,
    0,
    0,
    0,
    0,
    0,
    0,
    0,
    0,
    0,
    0,
    0,
    0,
    0,
    0,
    0,
    0,
    0,
    0,
    0,
    0,
    0,
    0,
    0,
    0,
    0,
    0,
    0,
    0,
    0,
    0,
    0,
    0,
    0,
    0,
    0,
    0,
    0,
    0,
    0,
    0,
    0,
    0,
    0,
    0,
    0,
    0,
    0,
    0,
    0,
    0,
    0,
    0,
    0,
    0,
    0,
    0,
    0,
    0,
    0,
    0,
    0,
    0,
    0,
    0,
    0,
    0,
    0,
    0,
    0,
    0,
    0,
    0,
    0,
    0,
    0,
    0,
    0,
    0,
    0,
    0,
    0,
    0,
    0,
    0,
    0,
    0,
    0,
    0,
    0,
    0,
    0,
    0,
    0,
    0,
    0,
    0,
    0,
    0,
    0,
    0,
    0,
    0,
    0,
    0,
    0,
    0,
    0,
    0,
    0,
    0,
    0,
    0,
    0,
    0,
    0,
    0,
    0,
    0,
    0,
    0,
    0,
    0,
    0,
    0,
    0,
    0,
    0,
    0,
    0,
    0,
    0,
    0,
    0,
    0,
    0,
    0,
    0,
    0,
    0,
    0,
    0,
    0,
    0,
    0,
    0,
    0,
    0,
    0,
    0,
    0,
    0,
    0,
    0,
    0,
    0,
    0,
    0,
    0,
    0,
    0,
    0,
    0,
    0,
    0,
    0,
    0,
    0,
    0,
    0,
    0,
    0,
    0,
    0,
    0,
    0,
    0,
    0,
    0,
    0,
    0,
    0,
    0,
    0,
    0,
    0,
    0,
    0,
    0,
    0,
    0,
    0,
    0,
    0,
    0,
    0,
    0,
    0,
    0,
    0,
    0,
    0,
    0,
    0,
    0,
    0,
    0,
    0,
    0,
    0,
    0,
    0,
    0,
    0,
    0,
    0,
    0,
    0,
    0,
    0,
    0,
    0,
    0,
    0,
    0,
    0,
    0,
    0,
    0,
    0,
    0,
    0,
    0,
    0,
    0,
    0,
    0,
    0,
    0,
    0,
    0,
    0,
    0,
    0,
    0,
    0,
    0,
    0,
    0,
    0,
    0,
    0,
    0,
    0,
    0,
    0,
    0,
    0,
    0,
    0,
    0,
    0,
    0,
    0,
    0,
    0,
    0,
    0,
    0,
    0,
    0,
    0,
    0,
    0,
    0,
    0,
    0,
    0,
    0,
    0,
    0,
    0,
    0,
    0,
    0,
    0,
    0,
    0,
    0,
    0,
    0,
    0,
    0,
    0,
    0,
    0,
    0,
    0,
    0,
    0,
    0,
    0,
    0,
    0,
    0,
    0,
    0,
    0,
    0,
    0,
    0,
    0,
    0,
    0,
    0,
    0,
    0,
    0,
    0,
    0,
    0,
    0,
    0,
    0,
    0,
    0,
    0,
    0,
    0,
    0,
    0,
    0,
    0,
    0,
    0,
    0,
    0,
    0,
    0,
    0,
    0,
    0,
    0,
    0,
    0,
    0,
    0,
    0,
    0,
    0,
    0,
    0,
    0,
    0,
    0,
    0,
    0,
    0,
    0,
    0,
    0,
    0,
    0,
    0,
    0,
    0,
    0,
    0,
    0,
    0,
    0,
    0,
    0,
    0,
    0,
    0,
    0,
    0,
    0,
    0,
    0,
    0,
    0,
    0,
    0,
    0,
    0,
    0,
    0,
    0,
    0,
    0,
    0,
    0,
    0,
    0,
    0,
    0,
    0,
    0,
    0,
    0,
    0,
    0,
    0,
    0,
    0,
    0,
    0,
    0,
    0,
    0,
    0,
    0,
    0,
    0,
    0,
    0,
    0,
    0,
    0,
    0,
    0,
    0,
    0,
    0,
    0,
    0,
    0,
    0,
    0,
    0,
    0,
    0,
    0,
    0,
    0,
    0,
    0,
    0,
    0,
    0,
    0,
    0,
    0,
    0,
    0,
    0,
    0,
    0,
    0,
    0,
    0,
    0,
    0,
    0,
    0,
    0,
    0,
    0,
    0,
    0,
    0,
    0,
    0,
    0,
    0,
    0,
    0,
    0,
    0,
    0,
    0,
    0,
    0,
    0,
    0,
    0,
    0,
    0,
    0,
    0,
    0,
    0,
    0,
    0,
    0,
    0,
    0,
    0,
    0,
    0,
    0,
    0,
    0,
    0,
    0,
    0,
    0,
    0,
    0,
    0,
    0,
    0,
    0,
    0,
    0,
    0,
    0,
    0,
    0,
    0,
    0,
    0,
    0,
    0,
    0,
    0,
    0,
    0,
    0,
    0,
    0,
    0,
    0,
    0,
    0,
    0,
    0,
    0,
    0,
    0,
    0,
    0,
    0,
    0,
    0,
    0,
    0,
    0,
    0,
    0,
    0,
    0,
    0,
    0,
    0,
    0,
    0,
    0,
    0,
    0,
    0,
    0,
    0,
    0,
    0,
    0,
    0,
    0,
    0,
    0,
    0,
    0,
    0,
    0,
    0,
    0,
    0,
    0,
    0,
    0,
    0,
    0,
    0,
    0,
    0,
    0,
    0,
    0,
    0,
    0,
    0,
    0,
    0,
    0,
    0,
    0,
    0,
    0,
    0,
    0,
    0,
    0,
    0,
    0,
    0,
    0,
    0,
    0,
    0,
    0,
    0,
    0,
    0,
    0,
    0,
    0,
    0,
    0,
    0,
    0,
    0,
    0,
    0,
    0,
    0,
    0,
    0,
    0,
    0,
    0,
    0,
    0,
    0,
    0,
    0,
    0,
    0,
    0,
    0,
    0,
    0,
    0,
    0,
    0,
    0,
    0,
    0,
    0,
    0,
    0,
    0,
    0,
    0,
    0,
    0,
    0,
    0,
    0,
    0,
    0,
    0,
    0,
    0,
    0,
    0,
    0,
    0,
    0,
    0,
    0,
    0,
    0,
    0,
    0,
    0,
    0,
    0,
    0,
    0,
    0,
    0,
    0,
    0,
    0,
    0,
    0,
    0,
    0,
    0,
    0,
    0,
    0,
    0,
    0,
    0,
    0,
    0,
    0,
    0,
    0,
    0,
    0,
    0,
    0,
    0,
    0,
    0,
    0,
    0,
    0,
    0,
    0,
    0,
    0,
    0,
    0,
    0,
    0,
    0,
    0,
    0,
    0,
    0,
    0,
    0,
    0,
    0,
    0,
    0,
    0,
    0,
    0,
    0,
    0,
    0,
    0,
    0,
    0,
    0,
    0,
    0,
    0,
    0,
    0,
    0,
    0,
    0,
    0,
    0,
    0,
    0,
    0,
    0,
    0,
    0,
    0,
    0,
    0,
    0,
    0,
    0,
    0,
    0,
    0,
    0,
    0,
    0,
    0,
    0,
    0,
    0,
    0,
    0,
    0,
    0,
    0,
    0,
    0,
    0,
    0,
    0,
    0,
    0,
    0,
    0,
    0,
    0,
    0,
    0,
    0,
    0,
    0,
    0,
    0,
    0,
    0,
    0,
    0,
    0,
    0,
    0,
    0,
    0,
    0,
    0,
    0,
    0,
    0,
    0,
    0,
    0,
    0,
    0,
    0,
    0,
    0,
    0,
    0,
    0,
    0,
    0,
    0,
    0,
    0,
    0,
    0,
    0,
    0,
    0,
    0,
    0,
    0,
    0,
    0,
    0,
    0,
    0,
    0,
    0,
    0,
    0,
    0,
    0,
    0,
    0,
    0,
    0,
    0,
    0,
    0,
    0,
    0,
    0,
    0,
    0,
    0,
    0,
    0,
    0,
    0,
    0,
    0,
    0,
    0,
    0,
    0,
    0,
    0,
    0,
    0,
    0,
    0,
    0,
    0,
    0,
    0,
    0,
    0,
    0,
    0,
    0,
    0,
    0,
    0,
    0,
    0,
    0,
    0,
    0,
    0,
    0,
    0,
    0,
    0,
    0,
    0,
    0,
    0,
    0,
    0,
    0,
    0,
    0,
    0,
    0,
    0,
    0,
    0,
    0,
    0,
    0,
    0,
    0,
    0,
    0,
    0,
    0,
    0,
    0,
    0,
    0,
    0,
    0,
    0,
    0,
    0,
    0,
    0,
    0,
    0,
    0,
    0,
    0,
    0,
    0,
    0,
    0,
    0,
    0,
    0,
    0,
    0,
    0,
    0,
    0,
    0,
    0,
    0,
    5,
    0,
    5,
    0,
    0,
    0,
    0,
    0,
    0,
    0,
    0,
    0,
    0,
    0,
    0,
    0,
    0,
    0,
    0,
    0,
    0,
    0,
    0,
    0,
    0,
    0,
    0,
    0,
    0,
    0,
    0,
    0,
    0,
    0,
    0,
    0,
    0,
    0,
    0,
    0,
    0,
    0,
    0,
    0,
    0,
    0,
    0,
    0,
    0,
    0,
    0,
    0,
    0,
    0,
    0,
    0,
    0,
    0,
    0,
    0,
    0,
    0,
    0,
    0,
    0,
    0,
    0,
    0,
    0,
    0,
    0,
    0,
    0,
    0,
    0,
    0,
    0,
    0,
    0,
    0,
    0,
    0,
    0,
    0,
    0,
    0,
    0,
    0,
    0,
    0,
    0,
    0,
    0,
    0,
    0,
    0,
    0,
    0,
    0,
    0,
    0,
    0,
    0,
    0,
    0,
    0,
    0,
    0,
    0,
    0,
    0,
    0,
    0,
    0,
    0,
    0,
    0,
    0,
    0,
    0,
    0,
    0,
    0,
    0,
    0,
    0,
    0,
    0,
    0,
    0,
    0,
    0,
    0,
    0,
    0,
    0,
    0,
    0,
    0,
    0,
    0,
    0,
    0,
    0,
    0,
    0,
    0,
    0,
    0,
    0,
    0,
    0,
    0,
    0,
    0,
    0,
    0,
    0,
    0,
    0,
    0,
    0,
    0,
    0,
    0,
    0,
    0,
    0,
    0,
    0,
    0,
    0,
    0,
    0,
    0,
    0,
    0,
    0,
    0,
    0,
    0,
    0,
    0,
    0,
    0,
    0,
    0,
    0,
    0,
    0,
    0,
    0,
    0,
    0,
    0,
    0,
    0,
    0,
    0,
    0,
    0,
    0,
    0,
    0,
    0,
    0,
    0,
    0,
    0,
    0,
    0,
    0,
    0,
    0,
    0,
    0,
    0,
    0,
    0,
    0,
    0,
    0,
    0,
    0,
    0,
    0,
    0,
    0,
    0,
    0,
    0,
    0,
    0,
    0,
    0,
    0,
    0,
    0,
    0,
    0,
    0,
    0,
    0,
    0,
    0,
    0,
    0,
    0,
    0,
    0,
    0,
    0,
    0,
    0,
    0,
    0,
    0,
    0,
    0,
    0,
    0,
    0,
    0,
    0,
    0,
    0,
    0,
    0,
    0,
    0,
    0,
    0,
    0,
    0,
    0,
    0,
    0,
    0,
    0,
    0,
    0,
    0,
    0,
    0,
    0,
    0,
    0,
    0,
    0,
    0,
    0,
    0,
    0,
    0,
    0,
    0,
    0,
    0,
    0,
    0,
    0,
    0,
    0,
    0,
    0,
    0,
    0,
    0,
    0,
    0,
    0,
    0,
    0,
    0,
    0,
    0,
    0,
    0,
    0,
    0,
    0,
    0,
    0,
    0,
    0,
    0,
    0,
    0,
    0,
    0,
    0,
    0,
    0,
    0,
    0,
    0,
    0,
    0,
    0,
    0,
    0,
    0,
    0,
    0,
    0,
    0,
    0,
    0,
    0,
    0,
    0,
    0,
    0,
    0,
    0,
    0,
    0,
    0,
    0,
    0,
    0,
    0,
    0,
    0,
    0,
    0,
    0,
    0,
    0,
    0,
    0,
    0,
    0,
    0,
    0,
    0,
    0,
    0,
    0,
    0,
    0,
    0,
    0,
    0,
    0,
    0,
    0,
    0,
    0,
    0,
    0,
    0,
    0,
    0,
    0,
    0,
    0,
    0,
    0,
    0,
    0,
    0,
    0,
    0,
    0,
    0,
    0,
    0,
    0,
    0,
    0,
    0,
    0,
    0,
    0,
    0,
    0,
    0,
    0,
    0,
    0,
    0,
    0,
    0,
    0,
    0,
    0,
    0,
    0,
    0,
    0,
    0,
    0,
    0,
    0,
    0,
    0,
    0,
    0,
    0,
    0,
    0,
    0,
    0,
    0,
    0,
    0,
    0,
    0,
    0,
    0,
    0,
    0,
    0,
    0,
    0,
    0,
    0,
    0,
    0,
    0,
    0,
    0,
    0,
    0,
    0,
    0,
    0,
    0,
    0,
    0,
    0,
    0,
    0,
    0,
    0,
    0,
    0,
    0,
    0,
    0,
    0,
    0,
    0,
    0,
    0,
    0,
    0,
    0,
    0,
    0,
    0,
    0,
    0,
    0,
    0,
    0,
    0,
    0,
    0,
    0,
    0,
    0,
    0,
    0,
    0,
    0,
    0,
    0,
    0,
    0,
    0,
    0,
    0,
    0,
    0,
    0,
    0,
    0,
    0,
    0,
    0,
    0,
    0,
    0,
    0,
    0,
    0,
    0,
    0,
    0,
    0,
    0,
    0,
    0,
    0,
    0,
    0,
    0,
    0,
    0,
    0,
    0,
    0,
    0,
    0,
    0,
    0,
    0,
    0,
    0,
    0,
    0,
    0,
    0,
    0,
    0,
    0,
    0,
    0,
    0,
    0,
    0,
    0,
    0,
    0,
    0,
    0,
    0,
    0,
    0,
    0,
    0,
    0,
    0,
    0,
    0,
    0,
    0,
    0,
    0,
    0,
    0,
    0,
    0,
    0,
    0,
    0,
    0,
    0,
    0,
    0,
    0,
    0,
    0,
    0,
    0,
    0,
    0,
    0,
    0,
    0,
    0,
    0,
    0,
    0,
    0,
    0,
    0,
    0,
    0,
    0,
    0,
    0,
    0,
    0,
    0,
    0,
    0,
    0,
    0,
    0,
    0,
    0,
    0,
    0,
    0,
    0,
    0,
    0,
    0,
    0,
    0,
    0,
    0,
    0,
    0,
    0,
    0,
    0,
    0,
    0,
    0,
    0,
    0,
    0,
    0,
    0,
    0,
    0,
    0,
    0,
    0,
    0,
    0,
    0,
    0,
    0,
    0,
    0,
    0,
    0,
    0,
    0,
    0,
    0,
    0,
    0,
    0,
    0,
    0,
    0,
    0,
    0,
    0,
    0,
    0,
    0,
    0,
    0,
    0,
    0,
    0,
    0,
    0,
    0,
    0,
    0,
    0,
    0,
    0,
    0,
    0,
    0,
    0,
    0,
    0,
    0,
    0,
    0,
    0,
    0,
    0,
    0,
    0,
    0,
    0,
    0,
    0,
    0,
    0,
    0,
    0,
    0,
    0,
    0,
    0,
    0,
    0,
    0,
    0,
    0,
    0,
    0,
    0,
    0,
    0,
    0,
    0,
    0,
    0,
    0,
    0,
    0,
    0,
    0,
    0,
    0,
    0,
    0,
    0,
    0,
    0,
    0,
    0,
    0,
    0,
    0,
    0,
    0,
    0,
    0,
    0,
    0,
    0,
    0,
    0,
    0,
    0,
    0,
    0,
    0,
    0,
    0,
    0,
    0,
    0,
    0,
    0,
    0,
    0,
    0,
    0,
    0,
    0,
    0,
    0,
    0,
    0,
    0,
    0,
    0,
    0,
    0,
    0,
    0,
    0,
    0,
    0,
    0,
    0,
    0,
    0,
    0,
    0,
    0,
    0,
    0,
    0,
    0,
    0,
    0,
    0,
    0,
    0,
    0,
    0,
    0,
    0,
    0,
    0,
    0,
    0,
    0,
    0,
    0,
    0,
    0,
    0,
    0,
    0,
    0,
    0,
    0,
    0,
    0,
    0,
    0,
    0,
    0,
    0,
    0,
    0,
    0,
    0,
    0,
    0,
    0,
    0,
    0,
    0,
    0,
    0,
    0,
    0,
    0,
    0,
    0,
    0,
    0,
    0,
    0,
    0,
    0,
    0,
    0,
    0,
    0,
    0,
    0,
    0,
    0,
    0,
    0,
    0,
    0,
    0,
    0,
    0,
    0,
    0,
    0,
    0,
    0,
    0,
    0,
    0,
    0,
    0,
    0,
    0,
    0,
    0,
    0,
    0,
    0,
    0,
    0,
    0,
    0,
    0,
    0,
    0,
    0,
    0,
    0,
    0,
    0,
    0,
    0,
    0,
    0,
    0,
    0,
    0,
    0,
    0,
    0,
    0,
    0,
    0,
    0,
    0,
    0,
    0,
    0,
    0,
    0,
    0,
    0,
    0,
    0,
    0,
    0,
    0,
    0,
    0,
    0,
    0,
    0,
    0,
    0,
    0,
    0,
    0,
    0,
    0,
    0,
    0,
    0,
    0,
    0,
    0,
    0,
    0,
    0,
    0,
    0,
    0,
    0,
    0,
    0,
    0,
    0,
    0,
    0,
    0,
    0,
    0,
    0,
    0,
    0,
    0,
    0,
    0,
    0,
    0,
    0,
    0,
    0,
    0,
    0,
    0,
    0,
    0,
    0,
    0,
    0,
    0,
    0,
    0,
    0,
    0,
    0,
    0,
    0,
    0,
    0,
    0,
    0,
    0,
    0,
    0,
    0,
    0,
    0,
    0,
    0,
    0,
    0,
    0,
    0,
    0,
    0,
    0,
    0,
    0,
    0,
    0,
    0,
    0,
    0,
    0,
    0,
    0,
    0,
    0,
    0,
    0,
    0,
    0,
    0,
    0,
    0,
    0,
    0,
    0,
    0,
    0,
    0,
    0,
    0,
    0,
    0,
    0,
    0,
    0,
    0,
    0,
    0,
    0,
    0,
    0,
    0,
    0,
    0,
    0,
    0,
    0,
    0,
    0,
    0,
    0,
    0,
    0,
    0,
    0,
    0,
    0,
    0,
    0,
    0,
    0,
    0,
    0,
    0,
    0,
    0,
    0,
    0,
    0,
    0,
    0,
    0,
    0,
    0,
    0,
    0,
    0,
    0,
    0,
    0,
    0,
    0,
    0,
    0,
    0,
    0,
    0,
    0,
    0,
    0,
    0,
    0,
    0,
    0,
    0,
    0,
    0,
    0,
    0,
    0,
    0,
    0,
    0,
    0,
    0,
    0,
    0,
    0,
    0,
    0,
    0,
    0,
    0,
    0,
    0,
    0,
    0,
    0,
    0,
    0,
    0,
    0,
    0,
    0,
    0,
    0,
    0,
    0,
    0,
    0,
    0,
    0,
    0,
    0,
    0,
    0,
    0,
    0,
    0,
    0,
    0,
    0,
    0,
    0,
    0,
    0,
    0,
    0,
    0,
    0,
    0,
    0,
    0,
    0,
    0,
    0,
    0,
    0,
    0,
    0,
    0,
    0,
    0,
    0,
    0,
    0,
    0,
    0,
    0,
    0,
    0,
    0,
    0,
    0,
    0,
    0,
    0,
    0,
    0,
    0,
    0,
    0,
    0,
    0,
    0,
    0,
    0,
    0,
    0,
    0,
    0,
    0,
    0,
    0,
    0,
    0,
    0,
    0,
    0,
    0,
    0,
    0,
    0,
    0,
    0,
    0,
    0,
    0,
    0,
    0,
    0,
    0,
    0,
    0,
    0,
    0,
    0,
    0,
    0,
    0,
    0,
    0,
    0,
    0,
    0,
    0,
    0,
    0,
    0,
    0,
    0,
    0,
    0,
    0,
    0,
    0,
    0,
    0,
    0,
    0,
    0,
    0,
    0,
    0,
    0,
    0,
    0,
    0,
    0,
    0,
    0,
    0,
    0,
    0,
    0,
    0,
    0,
    0,
    0,
    0,
    0,
    0,
    0,
    0,
    0,
    0,
    0,
    0,
    0,
    0,
    0,
    0,
    0,
    0,
    0,
    0,
    0,
    0,
    0,
    0,
    0,
    0,
    0,
    0,
    0,
    0,
    0,
    0,
    0,
    0,
    0,
    0,
    0,
    0,
    0,
    0,
    0,
    0,
    0,
    0,
    0,
    0,
    0,
    0,
    0,
    0,
    0,
    0,
    0,
    0,
    0,
    0,
    0,
    0,
    0,
    0,
    0,
    0,
    0,
    0,
    0,
    0,
    0,
    0,
    0,
    0,
    0,
    0,
    0,
    0,
    0,
    0,
    0,
    0,
    0,
    0,
    0,
    0,
    0,
    0,
    0,
    0,
    0,
    0,
    0,
    0,
    0,
    0,
    0,
    0,
    0,
    0,
    0,
    0,
    0,
    0,
    0,
    0,
    0,
    0,
    0,
    0,
    0,
    0,
    0,
    0,
    0,
    0,
    0,
    0,
    0,
    0,
    0,
    0,
    0,
    0,
    0,
    0,
    0,
    0,
    0,
    0,
    0,
    0,
    0,
    0,
    0,
    0,
    0,
    0,
    0,
    0,
    0,
    0,
    0,
    0,
    0,
    0,
    0,
    0,
    0,
    0,
    0,
    0,
    0,
    0,
    0,
    0,
    0,
    0,
    0,
    0,
    0,
    0,
    0,
    0,
    0,
    0,
    0,
    0,
    0,
    0,
    0,
    0,
    0,
    0,
    0,
    0,
    0,
    0,
    0,
    0,
    0,
    0,
    0,
    0,
    0,
    0,
    0,
    0,
    0,
    0,
    0,
    0
   ],
   "properties": [
    {
     "name": "gv2layer",
     "type": "string",
     "value": "Tops"
    },
    {
     "name": "z",
     "type": "int",
     "value": 7
    },
    {
     "name": "collision",
     "type": "bool",
     "value": false
    }
   ]
  },
  {
   "type": "objectgroup",
   "id": 11,
   "name": "Tops \u00b7obj",
   "x": 0,
   "y": 0,
   "opacity": 1,
   "visible": true,
   "draworder": "index",
   "objects": [
    {
     "id": 263,
     "gid": 105,
     "name": "sakura-small_0_0",
     "x": 640,
     "y": 2176,
     "width": 64,
     "height": 128,
     "visible": true
    },
    {
     "id": 264,
     "gid": 131,
     "name": "tree-3-top_0_0",
     "x": 640,
     "y": 320,
     "width": 128,
     "height": 128,
     "visible": true
    },
    {
     "id": 265,
     "gid": 104,
     "name": "sakura-small-top_0_0",
     "x": 704,
     "y": 2048,
     "width": 192,
     "height": 128,
     "visible": true
    },
    {
     "id": 266,
     "gid": 105,
     "name": "sakura-small_0_0",
     "x": 704,
     "y": 2304,
     "width": 64,
     "height": 128,
     "visible": true
    },
    {
     "id": 267,
     "gid": 105,
     "name": "sakura-small_0_0",
     "x": 768,
     "y": 448,
     "width": 64,
     "height": 128,
     "visible": true
    },
    {
     "id": 268,
     "gid": 105,
     "name": "sakura-small_0_0",
     "x": 832,
     "y": 2240,
     "width": 64,
     "height": 128,
     "visible": true
    },
    {
     "id": 269,
     "gid": 131,
     "name": "tree-3-top_0_0",
     "x": 832,
     "y": 448,
     "width": 128,
     "height": 128,
     "visible": true
    },
    {
     "id": 270,
     "gid": 105,
     "name": "sakura-small_0_0",
     "x": 896,
     "y": 2176,
     "width": 64,
     "height": 128,
     "visible": true
    },
    {
     "id": 271,
     "gid": 102,
     "name": "sakura-large-top_0_0",
     "x": 960,
     "y": 2112,
     "width": 192,
     "height": 128,
     "visible": true
    },
    {
     "id": 272,
     "gid": 105,
     "name": "sakura-small_0_0",
     "x": 960,
     "y": 2240,
     "width": 64,
     "height": 128,
     "visible": true
    },
    {
     "id": 273,
     "gid": 105,
     "name": "sakura-small_0_0",
     "x": 1024,
     "y": 512,
     "width": 64,
     "height": 128,
     "visible": true
    },
    {
     "id": 274,
     "gid": 102,
     "name": "sakura-large-top_0_0",
     "x": 1088,
     "y": 2240,
     "width": 192,
     "height": 128,
     "visible": true
    },
    {
     "id": 275,
     "gid": 102,
     "name": "sakura-large-top_0_0",
     "x": 1088,
     "y": 448,
     "width": 192,
     "height": 128,
     "visible": true
    },
    {
     "id": 276,
     "gid": 75,
     "name": "pagoda-roof_0_0",
     "x": 1152,
     "y": 960,
     "width": 192,
     "height": 320,
     "visible": true
    },
    {
     "id": 277,
     "gid": 117,
     "name": "temple-hallway_0_0",
     "x": 1280,
     "y": 1088,
     "width": 192,
     "height": 192,
     "visible": true
    },
    {
     "id": 278,
     "gid": 102,
     "name": "sakura-large-top_0_0",
     "x": 1344,
     "y": 1216,
     "width": 192,
     "height": 128,
     "visible": true
    },
    {
     "id": 279,
     "gid": 131,
     "name": "tree-3-top_0_0",
     "x": 1344,
     "y": 448,
     "width": 128,
     "height": 128,
     "visible": true
    },
    {
     "id": 280,
     "gid": 117,
     "name": "temple-hallway_0_0",
     "x": 1472,
     "y": 1088,
     "width": 192,
     "height": 192,
     "visible": true
    },
    {
     "id": 281,
     "gid": 102,
     "name": "sakura-large-top_0_0",
     "x": 1472,
     "y": 1536,
     "width": 192,
     "height": 128,
     "visible": true
    },
    {
     "id": 282,
     "gid": 105,
     "name": "sakura-small_0_0",
     "x": 1472,
     "y": 512,
     "width": 64,
     "height": 128,
     "visible": true
    },
    {
     "id": 283,
     "gid": 104,
     "name": "sakura-small-top_0_0",
     "x": 1536,
     "y": 1280,
     "width": 192,
     "height": 128,
     "visible": true
    },
    {
     "id": 284,
     "gid": 61,
     "name": "kirin-statue-2-top_0_0",
     "x": 1600,
     "y": 2112,
     "width": 192,
     "height": 64,
     "visible": true
    },
    {
     "id": 285,
     "gid": 60,
     "name": "kirin-statue-2-bottom_0_0",
     "x": 1600,
     "y": 2176,
     "width": 192,
     "height": 128,
     "visible": true
    },
    {
     "id": 286,
     "gid": 61,
     "name": "kirin-statue-2-top_0_0",
     "x": 1600,
     "y": 2304,
     "width": 192,
     "height": 64,
     "visible": true
    },
    {
     "id": 287,
     "gid": 60,
     "name": "kirin-statue-2-bottom_0_0",
     "x": 1600,
     "y": 2368,
     "width": 192,
     "height": 128,
     "visible": true
    },
    {
     "id": 288,
     "gid": 117,
     "name": "temple-hallway_0_0",
     "x": 1664,
     "y": 1088,
     "width": 192,
     "height": 192,
     "visible": true
    },
    {
     "id": 289,
     "gid": 105,
     "name": "sakura-small_0_0",
     "x": 1664,
     "y": 448,
     "width": 64,
     "height": 128,
     "visible": true
    },
    {
     "id": 290,
     "gid": 131,
     "name": "tree-3-top_0_0",
     "x": 1728,
     "y": 448,
     "width": 128,
     "height": 128,
     "visible": true
    },
    {
     "id": 291,
     "gid": 107,
     "name": "shrine-top_0_0",
     "x": 1792,
     "y": 896,
     "width": 320,
     "height": 320,
     "visible": true
    },
    {
     "id": 292,
     "gid": 2,
     "name": "blue-bell-top_0_0",
     "x": 1792,
     "y": 1536,
     "width": 128,
     "height": 128,
     "visible": true
    },
    {
     "id": 293,
     "gid": 12,
     "name": "blue-wall-gate_0_0",
     "x": 1856,
     "y": 1792,
     "width": 192,
     "height": 128,
     "visible": true
    },
    {
     "id": 294,
     "gid": 104,
     "name": "sakura-small-top_0_0",
     "x": 1856,
     "y": 448,
     "width": 192,
     "height": 128,
     "visible": true
    },
    {
     "id": 295,
     "gid": 102,
     "name": "sakura-large-top_0_0",
     "x": 1984,
     "y": 1536,
     "width": 192,
     "height": 128,
     "visible": true
    },
    {
     "id": 296,
     "gid": 117,
     "name": "temple-hallway_0_0",
     "x": 2048,
     "y": 1088,
     "width": 192,
     "height": 192,
     "visible": true
    },
    {
     "id": 297,
     "gid": 104,
     "name": "sakura-small-top_0_0",
     "x": 2112,
     "y": 1344,
     "width": 192,
     "height": 128,
     "visible": true
    },
    {
     "id": 298,
     "gid": 59,
     "name": "kirin-statue-1-top_0_0",
     "x": 2112,
     "y": 2112,
     "width": 192,
     "height": 64,
     "visible": true
    },
    {
     "id": 299,
     "gid": 58,
     "name": "kirin-statue-1-bottom_0_0",
     "x": 2112,
     "y": 2176,
     "width": 192,
     "height": 128,
     "visible": true
    },
    {
     "id": 300,
     "gid": 59,
     "name": "kirin-statue-1-top_0_0",
     "x": 2112,
     "y": 2304,
     "width": 192,
     "height": 64,
     "visible": true
    },
    {
     "id": 301,
     "gid": 58,
     "name": "kirin-statue-1-bottom_0_0",
     "x": 2112,
     "y": 2368,
     "width": 192,
     "height": 128,
     "visible": true
    },
    {
     "id": 302,
     "gid": 105,
     "name": "sakura-small_0_0",
     "x": 2176,
     "y": 448,
     "width": 64,
     "height": 128,
     "visible": true
    },
    {
     "id": 303,
     "gid": 117,
     "name": "temple-hallway_0_0",
     "x": 2240,
     "y": 1088,
     "width": 192,
     "height": 192,
     "visible": true
    },
    {
     "id": 304,
     "gid": 127,
     "name": "tree-1-top_0_0",
     "x": 2240,
     "y": 448,
     "width": 128,
     "height": 64,
     "visible": true
    },
    {
     "id": 305,
     "gid": 102,
     "name": "sakura-large-top_0_0",
     "x": 2304,
     "y": 1600,
     "width": 192,
     "height": 128,
     "visible": true
    },
    {
     "id": 306,
     "gid": 105,
     "name": "sakura-small_0_0",
     "x": 2368,
     "y": 448,
     "width": 64,
     "height": 128,
     "visible": true
    },
    {
     "id": 307,
     "gid": 117,
     "name": "temple-hallway_0_0",
     "x": 2432,
     "y": 1088,
     "width": 192,
     "height": 192,
     "visible": true
    },
    {
     "id": 308,
     "gid": 105,
     "name": "sakura-small_0_0",
     "x": 2496,
     "y": 512,
     "width": 64,
     "height": 128,
     "visible": true
    },
    {
     "id": 309,
     "gid": 75,
     "name": "pagoda-roof_0_0",
     "x": 2560,
     "y": 960,
     "width": 192,
     "height": 320,
     "visible": true
    },
    {
     "id": 310,
     "gid": 104,
     "name": "sakura-small-top_0_0",
     "x": 2560,
     "y": 2048,
     "width": 192,
     "height": 128,
     "visible": true
    },
    {
     "id": 311,
     "gid": 105,
     "name": "sakura-small_0_0",
     "x": 2688,
     "y": 2176,
     "width": 64,
     "height": 128,
     "visible": true
    },
    {
     "id": 312,
     "gid": 125,
     "name": "torii-blue-top_0_0",
     "x": 2752,
     "y": 1088,
     "width": 384,
     "height": 192,
     "visible": true
    },
    {
     "id": 313,
     "gid": 105,
     "name": "sakura-small_0_0",
     "x": 2752,
     "y": 2240,
     "width": 64,
     "height": 128,
     "visible": true
    },
    {
     "id": 314,
     "gid": 105,
     "name": "sakura-small_0_0",
     "x": 2752,
     "y": 448,
     "width": 64,
     "height": 128,
     "visible": true
    },
    {
     "id": 315,
     "gid": 129,
     "name": "tree-2-top_0_0",
     "x": 2816,
     "y": 448,
     "width": 128,
     "height": 64,
     "visible": true
    },
    {
     "id": 316,
     "gid": 2,
     "name": "blue-bell-top_0_0",
     "x": 2880,
     "y": 832,
     "width": 128,
     "height": 128,
     "visible": true
    },
    {
     "id": 317,
     "gid": 104,
     "name": "sakura-small-top_0_0",
     "x": 2880,
     "y": 2240,
     "width": 192,
     "height": 128,
     "visible": true
    },
    {
     "id": 318,
     "gid": 102,
     "name": "sakura-large-top_0_0",
     "x": 3008,
     "y": 2112,
     "width": 192,
     "height": 128,
     "visible": true
    },
    {
     "id": 319,
     "gid": 105,
     "name": "sakura-small_0_0",
     "x": 3008,
     "y": 512,
     "width": 64,
     "height": 128,
     "visible": true
    },
    {
     "id": 320,
     "gid": 102,
     "name": "sakura-large-top_0_0",
     "x": 3136,
     "y": 448,
     "width": 192,
     "height": 128,
     "visible": true
    },
    {
     "id": 321,
     "gid": 102,
     "name": "sakura-large-top_0_0",
     "x": 3200,
     "y": 2240,
     "width": 192,
     "height": 128,
     "visible": true
    },
    {
     "id": 322,
     "gid": 102,
     "name": "sakura-large-top_0_0",
     "x": 3264,
     "y": 1024,
     "width": 192,
     "height": 128,
     "visible": true
    },
    {
     "id": 323,
     "gid": 131,
     "name": "tree-3-top_0_0",
     "x": 3328,
     "y": 704,
     "width": 128,
     "height": 128,
     "visible": true
    },
    {
     "id": 324,
     "gid": 105,
     "name": "sakura-small_0_0",
     "x": 3328,
     "y": 1280,
     "width": 64,
     "height": 128,
     "visible": true
    },
    {
     "id": 325,
     "gid": 127,
     "name": "tree-1-top_0_0",
     "x": 3328,
     "y": 1536,
     "width": 128,
     "height": 64,
     "visible": true
    },
    {
     "id": 326,
     "gid": 131,
     "name": "tree-3-top_0_0",
     "x": 3328,
     "y": 1984,
     "width": 128,
     "height": 128,
     "visible": true
    },
    {
     "id": 327,
     "gid": 104,
     "name": "sakura-small-top_0_0",
     "x": 3392,
     "y": 1216,
     "width": 192,
     "height": 128,
     "visible": true
    },
    {
     "id": 328,
     "gid": 129,
     "name": "tree-2-top_0_0",
     "x": 3392,
     "y": 1792,
     "width": 128,
     "height": 64,
     "visible": true
    },
    {
     "id": 329,
     "gid": 105,
     "name": "sakura-small_0_0",
     "x": 3392,
     "y": 2304,
     "width": 64,
     "height": 128,
     "visible": true
    },
    {
     "id": 330,
     "gid": 105,
     "name": "sakura-small_0_0",
     "x": 3392,
     "y": 512,
     "width": 64,
     "height": 128,
     "visible": true
    },
    {
     "id": 331,
     "gid": 105,
     "name": "sakura-small_0_0",
     "x": 448,
     "y": 768,
     "width": 64,
     "height": 128,
     "visible": true
    },
    {
     "id": 332,
     "gid": 131,
     "name": "tree-3-top_0_0",
     "x": 448,
     "y": 1152,
     "width": 128,
     "height": 128,
     "visible": true
    },
    {
     "id": 333,
     "gid": 102,
     "name": "sakura-large-top_0_0",
     "x": 448,
     "y": 1344,
     "width": 192,
     "height": 128,
     "visible": true
    },
    {
     "id": 334,
     "gid": 105,
     "name": "sakura-small_0_0",
     "x": 448,
     "y": 1600,
     "width": 64,
     "height": 128,
     "visible": true
    },
    {
     "id": 335,
     "gid": 127,
     "name": "tree-1-top_0_0",
     "x": 448,
     "y": 1856,
     "width": 128,
     "height": 64,
     "visible": true
    },
    {
     "id": 336,
     "gid": 102,
     "name": "sakura-large-top_0_0",
     "x": 448,
     "y": 384,
     "width": 192,
     "height": 128,
     "visible": true
    },
    {
     "id": 337,
     "gid": 131,
     "name": "tree-3-top_0_0",
     "x": 512,
     "y": 640,
     "width": 128,
     "height": 128,
     "visible": true
    },
    {
     "id": 338,
     "gid": 102,
     "name": "sakura-large-top_0_0",
     "x": 512,
     "y": 1728,
     "width": 192,
     "height": 128,
     "visible": true
    },
    {
     "id": 339,
     "gid": 105,
     "name": "sakura-small_0_0",
     "x": 512,
     "y": 2112,
     "width": 64,
     "height": 128,
     "visible": true
    },
    {
     "id": 340,
     "gid": 105,
     "name": "sakura-small_0_0",
     "x": 512,
     "y": 2304,
     "width": 64,
     "height": 128,
     "visible": true
    },
    {
     "id": 341,
     "gid": 105,
     "name": "sakura-small_0_0",
     "x": 576,
     "y": 896,
     "width": 64,
     "height": 128,
     "visible": true
    },
    {
     "id": 342,
     "gid": 105,
     "name": "sakura-small_0_0",
     "x": 576,
     "y": 1152,
     "width": 64,
     "height": 128,
     "visible": true
    },
    {
     "id": 343,
     "gid": 105,
     "name": "sakura-small_0_0",
     "x": 576,
     "y": 1472,
     "width": 64,
     "height": 128,
     "visible": true
    },
    {
     "id": 344,
     "gid": 105,
     "name": "sakura-small_0_0",
     "x": 576,
     "y": 1984,
     "width": 64,
     "height": 128,
     "visible": true
    }
   ],
   "properties": [
    {
     "name": "gv2layer",
     "type": "string",
     "value": "Tops"
    },
    {
     "name": "z",
     "type": "int",
     "value": 7
    },
    {
     "name": "collision",
     "type": "bool",
     "value": false
    }
   ]
  },
  {
   "type": "tilelayer",
   "id": 12,
   "name": "Colliders",
   "width": 59,
   "height": 46,
   "x": 0,
   "y": 0,
   "opacity": 1,
   "visible": true,
   "data": [
    44,
    0,
    0,
    0,
    0,
    0,
    0,
    0,
    0,
    0,
    0,
    0,
    0,
    0,
    0,
    0,
    0,
    0,
    0,
    0,
    0,
    0,
    0,
    0,
    0,
    0,
    0,
    0,
    0,
    0,
    0,
    0,
    0,
    0,
    0,
    0,
    0,
    0,
    0,
    0,
    0,
    0,
    0,
    0,
    0,
    0,
    0,
    0,
    0,
    0,
    0,
    0,
    0,
    0,
    0,
    0,
    0,
    0,
    0,
    44,
    0,
    0,
    0,
    0,
    0,
    0,
    0,
    0,
    0,
    0,
    0,
    0,
    0,
    0,
    0,
    0,
    0,
    0,
    0,
    0,
    0,
    0,
    0,
    0,
    0,
    0,
    0,
    0,
    0,
    0,
    0,
    0,
    0,
    0,
    0,
    0,
    0,
    0,
    0,
    0,
    0,
    0,
    0,
    0,
    0,
    0,
    0,
    0,
    0,
    0,
    0,
    0,
    0,
    0,
    0,
    0,
    0,
    0,
    44,
    0,
    0,
    0,
    0,
    0,
    0,
    0,
    0,
    0,
    0,
    0,
    0,
    0,
    0,
    0,
    0,
    0,
    0,
    0,
    0,
    0,
    0,
    0,
    0,
    0,
    0,
    0,
    0,
    0,
    0,
    0,
    0,
    0,
    0,
    0,
    0,
    0,
    0,
    0,
    0,
    0,
    0,
    0,
    0,
    0,
    0,
    0,
    0,
    0,
    0,
    0,
    0,
    0,
    0,
    0,
    0,
    0,
    0,
    44,
    0,
    0,
    0,
    0,
    0,
    0,
    0,
    0,
    0,
    0,
    0,
    0,
    0,
    0,
    0,
    0,
    0,
    0,
    0,
    0,
    0,
    0,
    0,
    0,
    0,
    0,
    0,
    0,
    0,
    0,
    0,
    0,
    0,
    0,
    0,
    0,
    0,
    0,
    0,
    0,
    0,
    0,
    0,
    0,
    0,
    0,
    0,
    0,
    0,
    0,
    0,
    0,
    0,
    0,
    0,
    0,
    0,
    0,
    44,
    0,
    0,
    0,
    0,
    0,
    0,
    0,
    0,
    0,
    0,
    0,
    0,
    0,
    0,
    0,
    0,
    0,
    0,
    0,
    0,
    0,
    0,
    0,
    0,
    0,
    0,
    0,
    0,
    0,
    0,
    0,
    0,
    0,
    0,
    0,
    0,
    0,
    0,
    0,
    0,
    0,
    0,
    0,
    0,
    0,
    0,
    0,
    0,
    0,
    0,
    0,
    0,
    0,
    0,
    0,
    0,
    0,
    0,
    44,
    0,
    0,
    0,
    0,
    0,
    0,
    0,
    0,
    0,
    0,
    0,
    0,
    0,
    0,
    0,
    0,
    0,
    0,
    0,
    0,
    0,
    0,
    0,
    0,
    0,
    0,
    0,
    0,
    0,
    0,
    0,
    0,
    0,
    0,
    0,
    0,
    0,
    0,
    0,
    0,
    0,
    0,
    0,
    0,
    0,
    0,
    0,
    0,
    0,
    0,
    0,
    0,
    0,
    0,
    0,
    0,
    0,
    0,
    44,
    0,
    0,
    0,
    0,
    0,
    0,
    0,
    0,
    0,
    0,
    0,
    0,
    0,
    0,
    0,
    0,
    0,
    0,
    0,
    0,
    0,
    0,
    0,
    0,
    0,
    0,
    0,
    0,
    0,
    0,
    0,
    0,
    0,
    0,
    0,
    0,
    0,
    0,
    0,
    0,
    0,
    0,
    0,
    0,
    0,
    0,
    0,
    0,
    0,
    0,
    0,
    0,
    0,
    0,
    0,
    0,
    0,
    0,
    44,
    0,
    0,
    0,
    0,
    0,
    0,
    0,
    0,
    0,
    44,
    44,
    0,
    0,
    0,
    0,
    0,
    0,
    0,
    0,
    0,
    0,
    0,
    0,
    0,
    0,
    0,
    0,
    0,
    0,
    0,
    0,
    0,
    0,
    0,
    0,
    0,
    0,
    0,
    0,
    0,
    0,
    0,
    0,
    0,
    0,
    0,
    0,
    0,
    0,
    0,
    0,
    0,
    0,
    0,
    0,
    0,
    0,
    0,
    44,
    0,
    0,
    0,
    0,
    0,
    0,
    0,
    44,
    0,
    0,
    0,
    44,
    0,
    0,
    0,
    0,
    0,
    0,
    0,
    0,
    0,
    0,
    0,
    0,
    0,
    44,
    0,
    0,
    0,
    0,
    0,
    0,
    0,
    44,
    44,
    44,
    44,
    0,
    0,
    0,
    0,
    0,
    44,
    44,
    44,
    0,
    0,
    0,
    0,
    0,
    0,
    0,
    0,
    0,
    0,
    0,
    0,
    0,
    44,
    0,
    0,
    0,
    0,
    0,
    0,
    0,
    0,
    0,
    0,
    0,
    0,
    44,
    44,
    0,
    44,
    0,
    44,
    0,
    0,
    44,
    44,
    44,
    0,
    0,
    0,
    44,
    44,
    0,
    44,
    0,
    0,
    0,
    0,
    44,
    44,
    0,
    0,
    44,
    0,
    0,
    0,
    0,
    44,
    44,
    0,
    44,
    0,
    0,
    44,
    0,
    0,
    44,
    0,
    0,
    0,
    0,
    0,
    44,
    0,
    0,
    0,
    0,
    0,
    0,
    0,
    0,
    0,
    44,
    44,
    44,
    44,
    44,
    44,
    44,
    44,
    44,
    44,
    44,
    44,
    44,
    44,
    44,
    44,
    44,
    44,
    44,
    44,
    44,
    44,
    44,
    44,
    44,
    44,
    44,
    44,
    44,
    44,
    44,
    44,
    44,
    44,
    44,
    44,
    44,
    44,
    44,
    44,
    44,
    44,
    0,
    0,
    0,
    0,
    0,
    0,
    0,
    44,
    0,
    0,
    0,
    0,
    0,
    0,
    0,
    0,
    0,
    44,
    44,
    44,
    44,
    44,
    44,
    44,
    44,
    44,
    44,
    44,
    44,
    44,
    44,
    44,
    44,
    44,
    44,
    44,
    44,
    44,
    44,
    44,
    44,
    44,
    44,
    44,
    44,
    44,
    44,
    44,
    44,
    44,
    44,
    44,
    44,
    44,
    44,
    44,
    44,
    44,
    44,
    0,
    0,
    0,
    0,
    0,
    0,
    0,
    44,
    0,
    0,
    0,
    0,
    0,
    0,
    0,
    44,
    44,
    44,
    44,
    44,
    44,
    44,
    44,
    44,
    44,
    44,
    44,
    44,
    44,
    44,
    44,
    44,
    44,
    44,
    44,
    44,
    44,
    44,
    44,
    44,
    44,
    44,
    44,
    44,
    44,
    44,
    44,
    44,
    44,
    44,
    44,
    44,
    44,
    44,
    44,
    44,
    44,
    44,
    44,
    0,
    0,
    0,
    0,
    0,
    0,
    0,
    44,
    0,
    0,
    0,
    0,
    0,
    0,
    44,
    0,
    0,
    44,
    44,
    44,
    0,
    0,
    0,
    0,
    0,
    0,
    0,
    0,
    0,
    0,
    0,
    0,
    0,
    0,
    0,
    0,
    0,
    0,
    0,
    0,
    0,
    0,
    0,
    0,
    0,
    0,
    0,
    0,
    0,
    0,
    0,
    0,
    0,
    0,
    0,
    0,
    44,
    44,
    44,
    44,
    44,
    0,
    0,
    0,
    0,
    0,
    44,
    0,
    0,
    0,
    0,
    0,
    0,
    0,
    0,
    0,
    44,
    44,
    44,
    0,
    0,
    0,
    44,
    0,
    0,
    0,
    0,
    44,
    44,
    0,
    0,
    0,
    0,
    0,
    0,
    0,
    0,
    0,
    0,
    0,
    0,
    0,
    0,
    0,
    0,
    0,
    0,
    0,
    0,
    0,
    0,
    0,
    0,
    0,
    0,
    44,
    44,
    44,
    0,
    0,
    0,
    0,
    0,
    0,
    0,
    44,
    0,
    0,
    0,
    0,
    0,
    0,
    0,
    0,
    44,
    44,
    44,
    44,
    0,
    44,
    44,
    0,
    44,
    0,
    0,
    0,
    44,
    44,
    0,
    0,
    44,
    44,
    44,
    0,
    0,
    0,
    0,
    0,
    0,
    44,
    44,
    44,
    0,
    0,
    0,
    0,
    0,
    0,
    0,
    0,
    44,
    44,
    0,
    0,
    44,
    44,
    44,
    0,
    0,
    0,
    0,
    0,
    0,
    0,
    44,
    0,
    0,
    0,
    0,
    0,
    0,
    0,
    0,
    0,
    44,
    44,
    44,
    0,
    44,
    44,
    0,
    44,
    44,
    44,
    44,
    0,
    44,
    44,
    44,
    44,
    44,
    44,
    0,
    44,
    44,
    44,
    0,
    44,
    44,
    44,
    44,
    44,
    44,
    0,
    44,
    44,
    44,
    44,
    0,
    44,
    44,
    0,
    44,
    44,
    44,
    44,
    0,
    0,
    0,
    0,
    0,
    0,
    0,
    44,
    0,
    0,
    0,
    0,
    0,
    0,
    0,
    0,
    0,
    44,
    44,
    44,
    44,
    0,
    44,
    0,
    44,
    44,
    44,
    44,
    44,
    44,
    44,
    44,
    44,
    44,
    44,
    44,
    44,
    44,
    44,
    44,
    44,
    44,
    44,
    44,
    44,
    44,
    44,
    44,
    44,
    44,
    0,
    44,
    0,
    0,
    44,
    0,
    44,
    44,
    44,
    0,
    0,
    0,
    0,
    0,
    0,
    0,
    44,
    0,
    0,
    0,
    0,
    0,
    0,
    0,
    0,
    0,
    44,
    44,
    44,
    44,
    44,
    0,
    44,
    44,
    44,
    44,
    44,
    44,
    44,
    44,
    44,
    44,
    44,
    44,
    44,
    44,
    44,
    44,
    44,
    44,
    44,
    44,
    44,
    44,
    44,
    44,
    44,
    44,
    44,
    0,
    0,
    0,
    0,
    0,
    0,
    44,
    44,
    44,
    44,
    0,
    0,
    0,
    0,
    0,
    0,
    44,
    0,
    0,
    0,
    0,
    0,
    0,
    0,
    0,
    44,
    44,
    44,
    44,
    44,
    44,
    44,
    44,
    44,
    44,
    44,
    44,
    44,
    44,
    44,
    44,
    44,
    44,
    44,
    44,
    44,
    44,
    44,
    44,
    44,
    44,
    44,
    44,
    44,
    44,
    44,
    44,
    44,
    44,
    0,
    0,
    0,
    0,
    0,
    0,
    44,
    44,
    44,
    0,
    0,
    0,
    0,
    0,
    0,
    0,
    44,
    0,
    0,
    0,
    0,
    0,
    0,
    44,
    44,
    0,
    44,
    44,
    44,
    0,
    0,
    0,
    44,
    44,
    44,
    44,
    44,
    0,
    0,
    0,
    44,
    0,
    44,
    0,
    44,
    44,
    0,
    44,
    44,
    44,
    44,
    44,
    44,
    44,
    44,
    44,
    44,
    44,
    44,
    0,
    0,
    0,
    0,
    0,
    0,
    44,
    44,
    44,
    0,
    0,
    0,
    0,
    0,
    0,
    0,
    44,
    0,
    0,
    0,
    0,
    0,
    0,
    0,
    0,
    0,
    44,
    44,
    44,
    44,
    44,
    0,
    0,
    0,
    44,
    44,
    44,
    0,
    44,
    0,
    0,
    0,
    0,
    0,
    0,
    0,
    0,
    0,
    0,
    44,
    44,
    44,
    44,
    44,
    44,
    44,
    44,
    44,
    44,
    0,
    44,
    0,
    0,
    44,
    0,
    44,
    44,
    44,
    44,
    0,
    44,
    0,
    0,
    0,
    0,
    44,
    0,
    0,
    0,
    0,
    0,
    0,
    0,
    0,
    0,
    44,
    44,
    44,
    0,
    44,
    44,
    44,
    0,
    44,
    44,
    44,
    0,
    0,
    0,
    0,
    44,
    0,
    0,
    0,
    44,
    0,
    44,
    0,
    0,
    0,
    0,
    44,
    44,
    44,
    44,
    44,
    44,
    44,
    0,
    44,
    0,
    0,
    44,
    0,
    44,
    44,
    44,
    0,
    0,
    0,
    0,
    44,
    0,
    44,
    44,
    0,
    0,
    0,
    0,
    0,
    0,
    0,
    44,
    0,
    44,
    44,
    44,
    0,
    44,
    44,
    44,
    44,
    44,
    0,
    44,
    0,
    44,
    44,
    44,
    0,
    44,
    0,
    44,
    44,
    0,
    44,
    44,
    0,
    44,
    44,
    44,
    44,
    44,
    44,
    0,
    0,
    0,
    44,
    0,
    0,
    0,
    0,
    0,
    44,
    44,
    44,
    0,
    0,
    0,
    0,
    0,
    0,
    0,
    44,
    0,
    0,
    0,
    0,
    0,
    0,
    0,
    0,
    44,
    44,
    44,
    44,
    0,
    44,
    44,
    44,
    0,
    0,
    0,
    0,
    0,
    0,
    0,
    0,
    0,
    0,
    0,
    0,
    0,
    0,
    0,
    0,
    0,
    0,
    0,
    0,
    0,
    0,
    0,
    0,
    0,
    0,
    0,
    0,
    0,
    0,
    0,
    0,
    44,
    44,
    44,
    0,
    0,
    0,
    0,
    0,
    0,
    0,
    44,
    0,
    0,
    0,
    0,
    0,
    0,
    0,
    0,
    0,
    44,
    44,
    44,
    0,
    44,
    44,
    44,
    44,
    0,
    44,
    44,
    44,
    44,
    0,
    0,
    0,
    44,
    44,
    44,
    44,
    0,
    0,
    0,
    0,
    0,
    0,
    0,
    0,
    44,
    0,
    44,
    0,
    0,
    44,
    0,
    0,
    0,
    44,
    0,
    44,
    44,
    44,
    44,
    44,
    0,
    0,
    0,
    0,
    0,
    44,
    0,
    0,
    0,
    0,
    0,
    0,
    44,
    0,
    0,
    44,
    44,
    44,
    0,
    44,
    44,
    44,
    0,
    0,
    44,
    44,
    0,
    0,
    0,
    44,
    0,
    0,
    0,
    44,
    44,
    0,
    0,
    44,
    0,
    44,
    0,
    0,
    0,
    0,
    0,
    0,
    44,
    44,
    0,
    0,
    44,
    44,
    44,
    0,
    44,
    44,
    44,
    44,
    44,
    0,
    0,
    0,
    0,
    0,
    44,
    0,
    0,
    0,
    0,
    0,
    0,
    0,
    0,
    0,
    44,
    44,
    44,
    0,
    0,
    0,
    0,
    44,
    0,
    44,
    0,
    0,
    0,
    0,
    0,
    0,
    0,
    0,
    0,
    0,
    0,
    0,
    0,
    0,
    0,
    0,
    0,
    44,
    0,
    0,
    0,
    0,
    44,
    0,
    0,
    44,
    44,
    44,
    0,
    44,
    44,
    44,
    0,
    0,
    0,
    0,
    0,
    0,
    0,
    44,
    0,
    0,
    0,
    0,
    0,
    0,
    0,
    0,
    0,
    44,
    44,
    0,
    0,
    0,
    0,
    0,
    0,
    0,
    0,
    0,
    0,
    0,
    0,
    0,
    0,
    0,
    0,
    0,
    0,
    0,
    0,
    0,
    0,
    0,
    0,
    0,
    0,
    0,
    0,
    0,
    0,
    0,
    0,
    0,
    0,
    0,
    0,
    0,
    0,
    44,
    44,
    0,
    0,
    0,
    0,
    0,
    0,
    0,
    44,
    0,
    0,
    0,
    0,
    0,
    0,
    0,
    0,
    44,
    44,
    44,
    44,
    44,
    44,
    44,
    44,
    44,
    44,
    44,
    44,
    44,
    44,
    44,
    44,
    44,
    44,
    44,
    44,
    0,
    0,
    0,
    44,
    44,
    44,
    44,
    44,
    44,
    44,
    44,
    44,
    44,
    44,
    44,
    44,
    44,
    44,
    44,
    44,
    44,
    44,
    44,
    0,
    44,
    44,
    0,
    0,
    0,
    0,
    44,
    0,
    0,
    0,
    0,
    0,
    0,
    44,
    44,
    0,
    44,
    44,
    44,
    44,
    44,
    44,
    44,
    44,
    44,
    44,
    44,
    44,
    44,
    44,
    44,
    44,
    44,
    44,
    44,
    44,
    0,
    44,
    44,
    44,
    44,
    44,
    44,
    44,
    44,
    44,
    44,
    44,
    44,
    44,
    44,
    44,
    44,
    44,
    44,
    44,
    44,
    44,
    0,
    44,
    44,
    0,
    0,
    0,
    0,
    44,
    0,
    0,
    0,
    0,
    0,
    0,
    44,
    44,
    0,
    44,
    44,
    44,
    44,
    44,
    44,
    44,
    44,
    44,
    44,
    44,
    44,
    44,
    44,
    44,
    44,
    44,
    44,
    44,
    0,
    0,
    0,
    44,
    44,
    44,
    44,
    44,
    44,
    44,
    44,
    44,
    44,
    44,
    44,
    44,
    44,
    44,
    44,
    44,
    44,
    44,
    44,
    0,
    0,
    0,
    0,
    0,
    0,
    0,
    44,
    0,
    0,
    0,
    0,
    0,
    0,
    0,
    0,
    44,
    44,
    44,
    44,
    44,
    44,
    44,
    44,
    44,
    44,
    44,
    44,
    44,
    44,
    44,
    44,
    44,
    44,
    44,
    44,
    0,
    0,
    0,
    44,
    44,
    44,
    44,
    44,
    44,
    44,
    44,
    44,
    44,
    44,
    44,
    44,
    44,
    44,
    44,
    44,
    44,
    44,
    44,
    0,
    0,
    0,
    0,
    0,
    0,
    0,
    44,
    0,
    0,
    0,
    0,
    0,
    0,
    0,
    0,
    0,
    0,
    0,
    0,
    0,
    0,
    0,
    0,
    0,
    0,
    0,
    0,
    0,
    0,
    0,
    0,
    0,
    0,
    0,
    0,
    0,
    0,
    0,
    0,
    0,
    0,
    0,
    0,
    0,
    0,
    0,
    0,
    0,
    0,
    0,
    0,
    0,
    0,
    0,
    0,
    0,
    0,
    0,
    44,
    44,
    0,
    0,
    0,
    0,
    0,
    44,
    0,
    0,
    0,
    0,
    0,
    0,
    0,
    44,
    0,
    0,
    0,
    44,
    0,
    0,
    0,
    0,
    0,
    0,
    0,
    0,
    44,
    0,
    44,
    44,
    0,
    0,
    0,
    0,
    0,
    0,
    0,
    0,
    0,
    0,
    0,
    44,
    44,
    0,
    44,
    0,
    44,
    0,
    0,
    0,
    0,
    0,
    0,
    0,
    0,
    0,
    0,
    0,
    0,
    0,
    0,
    0,
    0,
    0,
    44,
    0,
    0,
    0,
    0,
    0,
    0,
    0,
    0,
    0,
    44,
    0,
    0,
    0,
    44,
    0,
    44,
    0,
    0,
    0,
    0,
    0,
    0,
    44,
    44,
    44,
    44,
    44,
    0,
    0,
    0,
    0,
    0,
    44,
    44,
    44,
    44,
    44,
    0,
    0,
    0,
    0,
    44,
    0,
    0,
    0,
    0,
    0,
    44,
    0,
    0,
    0,
    0,
    0,
    0,
    0,
    0,
    0,
    0,
    44,
    0,
    0,
    0,
    0,
    0,
    0,
    0,
    0,
    0,
    0,
    0,
    0,
    44,
    0,
    44,
    0,
    0,
    0,
    0,
    0,
    44,
    44,
    0,
    0,
    0,
    0,
    0,
    0,
    0,
    0,
    0,
    0,
    0,
    0,
    0,
    0,
    0,
    44,
    44,
    0,
    0,
    0,
    44,
    0,
    0,
    0,
    0,
    0,
    0,
    0,
    0,
    0,
    0,
    0,
    0,
    0,
    0,
    0,
    44,
    0,
    0,
    0,
    0,
    0,
    0,
    0,
    44,
    0,
    0,
    44,
    0,
    0,
    0,
    0,
    0,
    0,
    44,
    0,
    0,
    44,
    44,
    0,
    44,
    0,
    0,
    0,
    0,
    0,
    0,
    0,
    0,
    0,
    0,
    0,
    44,
    0,
    44,
    44,
    0,
    0,
    0,
    0,
    0,
    0,
    44,
    0,
    0,
    0,
    0,
    44,
    0,
    44,
    0,
    0,
    0,
    0,
    0,
    44,
    0,
    0,
    0,
    0,
    0,
    0,
    0,
    0,
    0,
    0,
    0,
    0,
    0,
    0,
    0,
    0,
    0,
    0,
    0,
    0,
    0,
    0,
    0,
    0,
    44,
    44,
    44,
    0,
    0,
    0,
    0,
    0,
    44,
    44,
    44,
    44,
    44,
    44,
    0,
    0,
    0,
    0,
    0,
    0,
    0,
    0,
    0,
    0,
    0,
    0,
    0,
    0,
    0,
    44,
    0,
    0,
    0,
    0,
    44,
    0,
    0,
    0,
    0,
    0,
    0,
    0,
    0,
    0,
    0,
    0,
    0,
    0,
    0,
    0,
    0,
    0,
    0,
    0,
    0,
    0,
    0,
    0,
    0,
    0,
    0,
    0,
    0,
    0,
    0,
    0,
    0,
    0,
    0,
    0,
    0,
    0,
    0,
    0,
    0,
    0,
    0,
    0,
    0,
    0,
    0,
    0,
    0,
    0,
    0,
    0,
    0,
    0,
    0,
    0,
    0,
    0,
    0,
    44,
    0,
    0,
    0,
    0,
    0,
    0,
    0,
    0,
    0,
    0,
    0,
    0,
    0,
    0,
    0,
    0,
    0,
    0,
    0,
    0,
    0,
    0,
    0,
    0,
    0,
    0,
    0,
    0,
    0,
    0,
    0,
    0,
    0,
    0,
    0,
    0,
    0,
    0,
    0,
    0,
    0,
    0,
    0,
    0,
    0,
    0,
    0,
    0,
    0,
    0,
    0,
    0,
    0,
    0,
    0,
    0,
    0,
    0,
    44,
    0,
    0,
    0,
    0,
    0,
    0,
    0,
    0,
    0,
    0,
    0,
    0,
    0,
    0,
    0,
    0,
    0,
    0,
    0,
    0,
    0,
    0,
    0,
    0,
    0,
    0,
    0,
    0,
    0,
    0,
    0,
    0,
    0,
    0,
    0,
    0,
    0,
    0,
    0,
    0,
    0,
    0,
    0,
    0,
    0,
    0,
    0,
    0,
    0,
    0,
    0,
    0,
    0,
    0,
    0,
    0,
    0,
    0,
    44,
    0,
    0,
    0,
    0,
    0,
    0,
    0,
    0,
    0,
    0,
    0,
    0,
    0,
    0,
    0,
    0,
    0,
    0,
    0,
    0,
    0,
    0,
    0,
    0,
    0,
    0,
    0,
    0,
    0,
    0,
    0,
    0,
    0,
    0,
    0,
    0,
    0,
    0,
    0,
    0,
    0,
    0,
    0,
    0,
    0,
    0,
    0,
    0,
    0,
    0,
    0,
    0,
    0,
    0,
    0,
    0,
    0,
    0,
    44,
    0,
    0,
    0,
    0,
    0,
    0,
    0,
    0,
    0,
    0,
    0,
    0,
    0,
    0,
    0,
    0,
    0,
    0,
    0,
    0,
    0,
    0,
    0,
    0,
    0,
    0,
    0,
    0,
    0,
    0,
    0,
    0,
    0,
    0,
    0,
    0,
    0,
    0,
    0,
    0,
    0,
    0,
    0,
    0,
    0,
    0,
    0,
    0,
    0,
    0,
    0,
    0,
    0,
    0,
    0,
    0,
    0,
    0,
    44,
    0,
    0,
    0,
    0,
    0,
    0,
    0,
    0,
    0,
    0,
    0,
    0,
    0,
    0,
    0,
    0,
    0,
    0,
    0,
    0,
    0,
    0,
    0,
    0,
    0,
    0,
    0,
    0,
    0,
    0,
    0,
    0,
    0,
    0,
    0,
    0,
    0,
    0,
    0,
    0,
    0,
    0,
    0,
    0,
    0,
    0,
    0,
    0,
    0,
    0,
    0,
    0,
    0,
    0,
    0,
    0,
    0,
    0,
    44,
    44,
    44,
    44,
    44,
    44,
    44,
    44,
    44,
    44,
    44,
    44,
    44,
    44,
    44,
    44,
    44,
    44,
    44,
    44,
    44,
    44,
    44,
    44,
    44,
    44,
    44,
    44,
    44,
    44,
    44,
    44,
    44,
    44,
    44,
    44,
    44,
    44,
    44,
    44,
    44,
    44,
    44,
    44,
    44,
    44,
    44,
    44,
    44,
    44,
    44,
    44,
    44,
    44,
    44,
    0,
    0,
    0,
    0
   ],
   "properties": [
    {
     "name": "gv2layer",
     "type": "string",
     "value": "Colliders"
    },
    {
     "name": "z",
     "type": "int",
     "value": 5
    },
    {
     "name": "collision",
     "type": "bool",
     "value": true
    }
   ]
  },
  {
   "type": "objectgroup",
   "id": 13,
   "name": "Meta",
   "x": 0,
   "y": 0,
   "opacity": 1,
   "visible": true,
   "draworder": "index",
   "objects": [
    {
     "id": 345,
     "name": "transporter",
     "point": true,
     "x": 96.0,
     "y": 2656.0,
     "width": 0,
     "height": 0,
     "visible": true,
     "properties": [
      {
       "name": "kind",
       "type": "string",
       "value": "transporter"
      },
      {
       "name": "targetRoom",
       "type": "string",
       "value": "Machi"
      },
      {
       "name": "targetX",
       "type": "int",
       "value": 45
      },
      {
       "name": "targetY",
       "type": "int",
       "value": 20
      },
      {
       "name": "hidden",
       "type": "bool",
       "value": false
      }
     ]
    },
    {
     "id": 346,
     "name": "transporter",
     "point": true,
     "x": 96.0,
     "y": 2720.0,
     "width": 0,
     "height": 0,
     "visible": true,
     "properties": [
      {
       "name": "kind",
       "type": "string",
       "value": "transporter"
      },
      {
       "name": "targetRoom",
       "type": "string",
       "value": "Machi"
      },
      {
       "name": "targetX",
       "type": "int",
       "value": 45
      },
      {
       "name": "targetY",
       "type": "int",
       "value": 21
      },
      {
       "name": "hidden",
       "type": "bool",
       "value": false
      }
     ]
    },
    {
     "id": 347,
     "name": "transporter",
     "point": true,
     "x": 3680.0,
     "y": 1440.0,
     "width": 0,
     "height": 0,
     "visible": true,
     "properties": [
      {
       "name": "kind",
       "type": "string",
       "value": "transporter"
      },
      {
       "name": "targetRoom",
       "type": "string",
       "value": "Market"
      },
      {
       "name": "targetX",
       "type": "int",
       "value": 1
      },
      {
       "name": "targetY",
       "type": "int",
       "value": 24
      },
      {
       "name": "hidden",
       "type": "bool",
       "value": true
      }
     ]
    },
    {
     "id": 348,
     "name": "boundary",
     "x": 0,
     "y": 0,
     "polygon": [
      {
       "x": 0,
       "y": 0
      },
      {
       "x": 3776,
       "y": 0
      },
      {
       "x": 3776,
       "y": 2944
      },
      {
       "x": 0,
       "y": 2944
      }
     ],
     "width": 0,
     "height": 0,
     "visible": true,
     "properties": [
      {
       "name": "kind",
       "type": "string",
       "value": "boundary"
      }
     ]
    }
   ],
   "properties": [
    {
     "name": "gv2meta",
     "type": "bool",
     "value": true
    }
   ]
  }
 ]
}