{
 "type": "map",
 "version": "1.10",
 "tiledversion": "1.11.0",
 "orientation": "orthogonal",
 "renderorder": "right-down",
 "width": 42,
 "height": 28,
 "tilewidth": 64,
 "tileheight": 64,
 "infinite": false,
 "nextlayerid": 11,
 "nextobjectid": 55,
 "properties": [
  {
   "name": "gv2room",
   "type": "string",
   "value": "Yukimura"
  },
  {
   "name": "gv2worldWidth",
   "type": "int",
   "value": 2688
  },
  {
   "name": "gv2worldHeight",
   "type": "int",
   "value": 1792
  }
 ],
 "tilesets": [
  {
   "firstgid": 1,
   "name": "gamev2",
   "tilewidth": 64,
   "tileheight": 64,
   "tilecount": 68,
   "columns": 0,
   "objectalignment": "topleft",
   "grid": {
    "orientation": "orthogonal",
    "width": 64,
    "height": 64
   },
   "tiles": [
    {
     "id": 0,
     "image": "../assets/sprites/blue-lamp-post_0_0.png",
     "imagewidth": 64,
     "imageheight": 64
    },
    {
     "id": 1,
     "image": "../assets/sprites/building-entrance-1_0_0.png",
     "imagewidth": 192,
     "imageheight": 64
    },
    {
     "id": 2,
     "image": "../assets/sprites/building-entrance-2_0_0.png",
     "imagewidth": 192,
     "imageheight": 64
    },
    {
     "id": 3,
     "image": "../assets/sprites/building-entrance-3_0_0.png",
     "imagewidth": 192,
     "imageheight": 64
    },
    {
     "id": 4,
     "image": "../assets/sprites/building-rafter-black_0_0.png",
     "imagewidth": 192,
     "imageheight": 64
    },
    {
     "id": 5,
     "image": "../assets/sprites/building-rafter-blue_0_0.png",
     "imagewidth": 192,
     "imageheight": 64
    },
    {
     "id": 6,
     "image": "../assets/sprites/building-rafter-red_0_0.png",
     "imagewidth": 192,
     "imageheight": 64
    },
    {
     "id": 7,
     "image": "../assets/sprites/building-roof-black_0_0.png",
     "imagewidth": 192,
     "imageheight": 192
    },
    {
     "id": 8,
     "image": "../assets/sprites/building-roof-blue_0_0.png",
     "imagewidth": 192,
     "imageheight": 192
    },
    {
     "id": 9,
     "image": "../assets/sprites/building-roof-red_0_0.png",
     "imagewidth": 192,
     "imageheight": 192
    },
    {
     "id": 10,
     "image": "../assets/sprites/building-tier-black_0_0.png",
     "imagewidth": 192,
     "imageheight": 64
    },
    {
     "id": 11,
     "image": "../assets/sprites/building-tier-blue_0_0.png",
     "imagewidth": 192,
     "imageheight": 64
    },
    {
     "id": 12,
     "image": "../assets/sprites/building-tier-red_0_0.png",
     "imagewidth": 192,
     "imageheight": 64
    },
    {
     "id": 13,
     "image": "../assets/sprites/dirt-outside-autotile_corner-ne.png",
     "imagewidth": 64,
     "imageheight": 64
    },
    {
     "id": 14,
     "image": "../assets/sprites/dirt-outside-autotile_corner-nw.png",
     "imagewidth": 64,
     "imageheight": 64
    },
    {
     "id": 15,
     "image": "../assets/sprites/dirt-outside-autotile_corner-se.png",
     "imagewidth": 64,
     "imageheight": 64
    },
    {
     "id": 16,
     "image": "../assets/sprites/dirt-outside-autotile_corner-sw.png",
     "imagewidth": 64,
     "imageheight": 64
    },
    {
     "id": 17,
     "image": "../assets/sprites/dirt-outside-autotile_edge-e.png",
     "imagewidth": 64,
     "imageheight": 64
    },
    {
     "id": 18,
     "image": "../assets/sprites/dirt-outside-autotile_edge-w.png",
     "imagewidth": 64,
     "imageheight": 64
    },
    {
     "id": 19,
     "image": "../assets/sprites/fence-garden-outside_2_5.png",
     "imagewidth": 64,
     "imageheight": 64
    },
    {
     "id": 20,
     "image": "../assets/sprites/fence-garden-outside_3_5.png",
     "imagewidth": 64,
     "imageheight": 64
    },
    {
     "id": 21,
     "image": "../assets/sprites/fence-garden-outside_4_5.png",
     "imagewidth": 64,
     "imageheight": 64
    },
    {
     "id": 22,
     "image": "../assets/sprites/fox-statue-base-1_0_0.png",
     "imagewidth": 64,
     "imageheight": 128
    },
    {
     "id": 23,
     "image": "../assets/sprites/collider-marker.png",
     "imagewidth": 64,
     "imageheight": 64
    },
    {
     "id": 24,
     "image": "../assets/sprites/gravel-autotile_center.png",
     "imagewidth": 64,
     "imageheight": 64
    },
    {
     "id": 25,
     "image": "../assets/sprites/gravel-autotile_corner-ne.png",
     "imagewidth": 64,
     "imageheight": 64
    },
    {
     "id": 26,
     "image": "../assets/sprites/gravel-autotile_corner-nw.png",
     "imagewidth": 64,
     "imageheight": 64
    },
    {
     "id": 27,
     "image": "../assets/sprites/gravel-autotile_corner-se.png",
     "imagewidth": 64,
     "imageheight": 64
    },
    {
     "id": 28,
     "image": "../assets/sprites/gravel-autotile_corner-sw.png",
     "imagewidth": 64,
     "imageheight": 64
    },
    {
     "id": 29,
     "image": "../assets/sprites/gravel-autotile_edge-e.png",
     "imagewidth": 64,
     "imageheight": 64
    },
    {
     "id": 30,
     "image": "../assets/sprites/gravel-autotile_edge-n.png",
     "imagewidth": 64,
     "imageheight": 64
    },
    {
     "id": 31,
     "image": "../assets/sprites/gravel-autotile_edge-s.png",
     "imagewidth": 64,
     "imageheight": 64
    },
    {
     "id": 32,
     "image": "../assets/sprites/gravel-autotile_edge-w.png",
     "imagewidth": 64,
     "imageheight": 64
    },
    {
     "id": 33,
     "image": "../assets/sprites/ice-pond-autotile_corner-ne.png",
     "imagewidth": 64,
     "imageheight": 64
    },
    {
     "id": 34,
     "image": "../assets/sprites/ice-pond-autotile_corner-nw.png",
     "imagewidth": 64,
     "imageheight": 64
    },
    {
     "id": 35,
     "image": "../assets/sprites/ice-pond-autotile_corner-se.png",
     "imagewidth": 64,
     "imageheight": 64
    },
    {
     "id": 36,
     "image": "../assets/sprites/ice-pond-autotile_corner-sw.png",
     "imagewidth": 64,
     "imageheight": 64
    },
    {
     "id": 37,
     "image": "../assets/sprites/ice-pond-autotile_edge-n.png",
     "imagewidth": 64,
     "imageheight": 64
    },
    {
     "id": 38,
     "image": "../assets/sprites/ice-pond-autotile_edge-s.png",
     "imagewidth": 64,
     "imageheight": 64
    },
    {
     "id": 39,
     "image": "../assets/sprites/light-concrete-autotile_center.png",
     "imagewidth": 64,
     "imageheight": 64
    },
    {
     "id": 40,
     "image": "../assets/sprites/light-concrete-autotile_corner-ne.png",
     "imagewidth": 64,
     "imageheight": 64
    },
    {
     "id": 41,
     "image": "../assets/sprites/light-concrete-autotile_corner-nw.png",
     "imagewidth": 64,
     "imageheight": 64
    },
    {
     "id": 42,
     "image": "../assets/sprites/light-concrete-autotile_corner-se.png",
     "imagewidth": 64,
     "imageheight": 64
    },
    {
     "id": 43,
     "image": "../assets/sprites/light-concrete-autotile_corner-sw.png",
     "imagewidth": 64,
     "imageheight": 64
    },
    {
     "id": 44,
     "image": "../assets/sprites/light-concrete-autotile_edge-e.png",
     "imagewidth": 64,
     "imageheight": 64
    },
    {
     "id": 45,
     "image": "../assets/sprites/light-concrete-autotile_edge-n.png",
     "imagewidth": 64,
     "imageheight": 64
    },
    {
     "id": 46,
     "image": "../assets/sprites/light-concrete-autotile_edge-s.png",
     "imagewidth": 64,
     "imageheight": 64
    },
    {
     "id": 47,
     "image": "../assets/sprites/light-concrete-autotile_edge-w.png",
     "imagewidth": 64,
     "imageheight": 64
    },
    {
     "id": 48,
     "image": "../assets/sprites/pavers_0_2.png",
     "imagewidth": 64,
     "imageheight": 64
    },
    {
     "id": 49,
     "image": "../assets/sprites/pavers_1_0.png",
     "imagewidth": 64,
     "imageheight": 64
    },
    {
     "id": 50,
     "image": "../assets/sprites/pavers_1_2.png",
     "imagewidth": 64,
     "imageheight": 64
    },
    {
     "id": 51,
     "image": "../assets/sprites/pavers_2_0.png",
     "imagewidth": 64,
     "imageheight": 64
    },
    {
     "id": 52,
     "image": "../assets/sprites/pavers_2_1.png",
     "imagewidth": 64,
     "imageheight": 64
    },
    {
     "id": 53,
     "image": "../assets/sprites/pavers_2_2.png",
     "imagewidth": 64,
     "imageheight": 64
    },
    {
     "id": 54,
     "image": "../assets/sprites/red-lanterns_4_1.png",
     "imagewidth": 64,
     "imageheight": 64
    },
    {
     "id": 55,
     "image": "../assets/sprites/red-lanterns_6_3.png",
     "imagewidth": 64,
     "imageheight": 64
    },
    {
     "id": 56,
     "image": "../assets/sprites/red-vending-machine-bottom_0_0.png",
     "imagewidth": 64,
     "imageheight": 64
    },
    {
     "id": 57,
     "image": "../assets/sprites/red-vending-machine-top_0_0.png",
     "imagewidth": 64,
     "imageheight": 64
    },
    {
     "id": 58,
     "image": "../assets/sprites/sakura-small_0_0.png",
     "imagewidth": 64,
     "imageheight": 128
    },
    {
     "id": 59,
     "image": "../assets/sprites/shrub-small-circle-snow_0_0.png",
     "imagewidth": 64,
     "imageheight": 64
    },
    {
     "id": 60,
     "image": "../assets/sprites/snow-autotile_center.png",
     "imagewidth": 64,
     "imageheight": 64
    },
    {
     "id": 61,
     "image": "../assets/sprites/torii-red-feet_0_0.png",
     "imagewidth": 256,
     "imageheight": 128
    },
    {
     "id": 62,
     "image": "../assets/sprites/torii-red-top_0_0.png",
     "imagewidth": 384,
     "imageheight": 192
    },
    {
     "id": 63,
     "image": "../assets/sprites/train-track_0_0.png",
     "imagewidth": 64,
     "imageheight": 64
    },
    {
     "id": 64,
     "image": "../assets/sprites/tree-3-base-shadow-snow_0_0.png",
     "imagewidth": 128,
     "imageheight": 64
    },
    {
     "id": 65,
     "image": "../assets/sprites/tree-3-top-snow_0_0.png",
     "imagewidth": 128,
     "imageheight": 128
    },
    {
     "id": 66,
     "image": "../assets/sprites/white-vending-machine-bottom_0_0.png",
     "imagewidth": 64,
     "imageheight": 64
    },
    {
     "id": 67,
     "image": "../assets/sprites/white-vending-machine-top_0_0.png",
     "imagewidth": 64,
     "imageheight": 64
    }
   ],
   "wangsets": [
    {
     "name": "dirt-outside-autotile",
     "type": "mixed",
     "tile": -1,
     "colors": [
      {
       "name": "dirt-outside-autotile",
       "tile": -1,
       "probability": 1,
       "color": "#74d33b"
      }
     ],
     "wangtiles": [
      {
       "tileid": 13,
       "wangid": [
        0,
        0,
        0,
        0,
        1,
        1,
        1,
        0
       ]
      },
      {
       "tileid": 14,
       "wangid": [
        0,
        0,
        1,
        1,
        1,
        0,
        0,
        0
       ]
      },
      {
       "tileid": 15,
       "wangid": [
        1,
        0,
        0,
        0,
        0,
        0,
        1,
        1
       ]
      },
      {
       "tileid": 16,
       "wangid": [
        1,
        1,
        1,
        0,
        0,
        0,
        0,
        0
       ]
      },
      {
       "tileid": 17,
       "wangid": [
        1,
        0,
        0,
        0,
        1,
        1,
        1,
        1
       ]
      },
      {
       "tileid": 18,
       "wangid": [
        1,
        1,
        1,
        1,
        1,
        0,
        0,
        0
       ]
      }
     ]
    },
    {
     "name": "gravel-autotile",
     "type": "mixed",
     "tile": -1,
     "colors": [
      {
       "name": "gravel-autotile",
       "tile": -1,
       "probability": 1,
       "color": "#a1c42a"
      }
     ],
     "wangtiles": [
      {
       "tileid": 24,
       "wangid": [
        1,
        1,
        1,
        1,
        1,
        1,
        1,
        1
       ]
      },
      {
       "tileid": 25,
       "wangid": [
        0,
        0,
        0,
        0,
        1,
        1,
        1,
        0
       ]
      },
      {
       "tileid": 26,
       "wangid": [
        0,
        0,
        1,
        1,
        1,
        0,
        0,
        0
       ]
      },
      {
       "tileid": 27,
       "wangid": [
        1,
        0,
        0,
        0,
        0,
        0,
        1,
        1
       ]
      },
      {
       "tileid": 28,
       "wangid": [
        1,
        1,
        1,
        0,
        0,
        0,
        0,
        0
       ]
      },
      {
       "tileid": 29,
       "wangid": [
        1,
        0,
        0,
        0,
        1,
        1,
        1,
        1
       ]
      },
      {
       "tileid": 30,
       "wangid": [
        0,
        0,
        1,
        1,
        1,
        1,
        1,
        0
       ]
      },
      {
       "tileid": 31,
       "wangid": [
        1,
        1,
        1,
        0,
        0,
        0,
        1,
        1
       ]
      },
      {
       "tileid": 32,
       "wangid": [
        1,
        1,
        1,
        1,
        1,
        0,
        0,
        0
       ]
      }
     ]
    },
    {
     "name": "ice-pond-autotile",
     "type": "mixed",
     "tile": -1,
     "colors": [
      {
       "name": "ice-pond-autotile",
       "tile": -1,
       "probability": 1,
       "color": "#3f573d"
      }
     ],
     "wangtiles": [
      {
       "tileid": 33,
       "wangid": [
        0,
        0,
        0,
        0,
        1,
        1,
        1,
        0
       ]
      },
      {
       "tileid": 34,
       "wangid": [
        0,
        0,
        1,
        1,
        1,
        0,
        0,
        0
       ]
      },
      {
       "tileid": 35,
       "wangid": [
        1,
        0,
        0,
        0,
        0,
        0,
        1,
        1
       ]
      },
      {
       "tileid": 36,
       "wangid": [
        1,
        1,
        1,
        0,
        0,
        0,
        0,
        0
       ]
      },
      {
       "tileid": 37,
       "wangid": [
        0,
        0,
        1,
        1,
        1,
        1,
        1,
        0
       ]
      },
      {
       "tileid": 38,
       "wangid": [
        1,
        1,
        1,
        0,
        0,
        0,
        1,
        1
       ]
      }
     ]
    },
    {
     "name": "light-concrete-autotile",
     "type": "mixed",
     "tile": -1,
     "colors": [
      {
       "name": "light-concrete-autotile",
       "tile": -1,
       "probability": 1,
       "color": "#e8cc37"
      }
     ],
     "wangtiles": [
      {
       "tileid": 39,
       "wangid": [
        1,
        1,
        1,
        1,
        1,
        1,
        1,
        1
       ]
      },
      {
       "tileid": 40,
       "wangid": [
        0,
        0,
        0,
        0,
        1,
        1,
        1,
        0
       ]
      },
      {
       "tileid": 41,
       "wangid": [
        0,
        0,
        1,
        1,
        1,
        0,
        0,
        0
       ]
      },
      {
       "tileid": 42,
       "wangid": [
        1,
        0,
        0,
        0,
        0,
        0,
        1,
        1
       ]
      },
      {
       "tileid": 43,
       "wangid": [
        1,
        1,
        1,
        0,
        0,
        0,
        0,
        0
       ]
      },
      {
       "tileid": 44,
       "wangid": [
        1,
        0,
        0,
        0,
        1,
        1,
        1,
        1
       ]
      },
      {
       "tileid": 45,
       "wangid": [
        0,
        0,
        1,
        1,
        1,
        1,
        1,
        0
       ]
      },
      {
       "tileid": 46,
       "wangid": [
        1,
        1,
        1,
        0,
        0,
        0,
        1,
        1
       ]
      },
      {
       "tileid": 47,
       "wangid": [
        1,
        1,
        1,
        1,
        1,
        0,
        0,
        0
       ]
      }
     ]
    },
    {
     "name": "snow-autotile",
     "type": "mixed",
     "tile": -1,
     "colors": [
      {
       "name": "snow-autotile",
       "tile": -1,
       "probability": 1,
       "color": "#1baabe"
      }
     ],
     "wangtiles": [
      {
       "tileid": 60,
       "wangid": [
        1,
        1,
        1,
        1,
        1,
        1,
        1,
        1
       ]
      }
     ]
    }
   ]
  }
 ],
 "layers": [
  {
   "type": "tilelayer",
   "id": 1,
   "name": "Floor",
   "width": 42,
   "height": 28,
   "x": 0,
   "y": 0,
   "opacity": 1,
   "visible": true,
   "data": [
    61,
    61,
    61,
    61,
    61,
    61,
    61,
    61,
    61,
    61,
    61,
    61,
    61,
    61,
    61,
    61,
    61,
    61,
    61,
    61,
    61,
    61,
    61,
    61,
    61,
    61,
    61,
    61,
    61,
    61,
    61,
    61,
    61,
    61,
    61,
    61,
    61,
    61,
    61,
    61,
    61,
    61,
    61,
    61,
    61,
    61,
    61,
    61,
    61,
    61,
    61,
    61,
    61,
    61,
    61,
    61,
    61,
    61,
    61,
    61,
    61,
    61,
    61,
    61,
    61,
    61,
    61,
    61,
    61,
    61,
    61,
    61,
    61,
    61,
    61,
    61,
    61,
    61,
    61,
    61,
    61,
    61,
    61,
    61,
    61,
    61,
    61,
    61,
    61,
    61,
    61,
    61,
    61,
    61,
    61,
    61,
    61,
    61,
    61,
    61,
    61,
    61,
    61,
    61,
    61,
    61,
    61,
    61,
    61,
    61,
    61,
    61,
    61,
    61,
    61,
    61,
    61,
    61,
    61,
    61,
    61,
    61,
    61,
    61,
    61,
    61,
    27,
    31,
    31,
    31,
    31,
    31,
    31,
    31,
    31,
    31,
    31,
    31,
    31,
    31,
    31,
    31,
    31,
    31,
    31,
    31,
    31,
    31,
    31,
    31,
    31,
    31,
    31,
    31,
    31,
    31,
    31,
    31,
    31,
    31,
    31,
    31,
    31,
    31,
    31,
    31,
    31,
    26,
    33,
    25,
    25,
    25,
    25,
    25,
    25,
    25,
    25,
    25,
    25,
    25,
    25,
    25,
    25,
    25,
    25,
    25,
    25,
    25,
    25,
    25,
    25,
    25,
    25,
    25,
    25,
    25,
    25,
    25,
    25,
    25,
    25,
    25,
    25,
    25,
    25,
    25,
    25,
    25,
    25,
    30,
    29,
    32,
    32,
    32,
    32,
    32,
    32,
    32,
    32,
    32,
    32,
    32,
    32,
    32,
    32,
    32,
    32,
    32,
    32,
    32,
    32,
    32,
    32,
    32,
    32,
    32,
    32,
    32,
    32,
    32,
    32,
    32,
    32,
    32,
    32,
    32,
    32,
    32,
    32,
    32,
    32,
    28,
    61,
    61,
    61,
    61,
    61,
    61,
    61,
    61,
    61,
    61,
    61,
    61,
    42,
    46,
    46,
    46,
    46,
    46,
    46,
    46,
    46,
    46,
    46,
    46,
    46,
    46,
    46,
    41,
    61,
    61,
    61,
    61,
    61,
    61,
    61,
    61,
    61,
    61,
    61,
    61,
    61,
    61,
    61,
    61,
    61,
    61,
    61,
    61,
    61,
    61,
    61,
    61,
    61,
    61,
    48,
    40,
    40,
    40,
    40,
    40,
    40,
    40,
    40,
    40,
    40,
    40,
    40,
    40,
    40,
    45,
    61,
    61,
    61,
    61,
    61,
    61,
    61,
    61,
    61,
    61,
    61,
    61,
    61,
    61,
    61,
    61,
    61,
    61,
    61,
    61,
    61,
    61,
    61,
    61,
    61,
    61,
    44,
    47,
    47,
    47,
    47,
    47,
    47,
    47,
    47,
    47,
    47,
    47,
    47,
    47,
    47,
    43,
    61,
    61,
    61,
    61,
    61,
    61,
    61,
    61,
    61,
    61,
    61,
    61,
    61,
    61,
    61,
    61,
    61,
    61,
    61,
    61,
    61,
    61,
    61,
    61,
    61,
    61,
    42,
    46,
    46,
    46,
    46,
    46,
    46,
    46,
    46,
    46,
    46,
    46,
    46,
    46,
    46,
    46,
    46,
    46,
    41,
    61,
    61,
    61,
    61,
    61,
    61,
    61,
    61,
    61,
    61,
    61,
    61,
    61,
    61,
    61,
    61,
    61,
    61,
    61,
    61,
    61,
    61,
    61,
    44,
    47,
    47,
    47,
    47,
    47,
    47,
    47,
    47,
    47,
    47,
    47,
    47,
    47,
    47,
    47,
    47,
    47,
    43,
    61,
    61,
    61,
    61,
    61,
    61,
    61,
    61,
    61,
    61,
    61,
    61,
    61,
    61,
    61,
    61,
    61,
    61,
    61,
    61,
    61,
    61,
    61,
    61,
    61,
    61,
    61,
    61,
    61,
    61,
    61,
    61,
    61,
    61,
    15,
    14,
    61,
    61,
    61,
    61,
    61,
    61,
    61,
    61,
    61,
    61,
    61,
    61,
    61,
    61,
    61,
    61,
    61,
    61,
    61,
    61,
    61,
    61,
    61,
    61,
    61,
    61,
    61,
    61,
    61,
    61,
    61,
    61,
    61,
    61,
    61,
    61,
    61,
    61,
    61,
    61,
    19,
    18,
    61,
    61,
    61,
    61,
    61,
    61,
    61,
    61,
    61,
    61,
    61,
    61,
    61,
    61,
    61,
    61,
    61,
    61,
    61,
    61,
    61,
    61,
    61,
    61,
    61,
    61,
    61,
    61,
    61,
    61,
    61,
    61,
    61,
    61,
    61,
    61,
    61,
    61,
    61,
    61,
    19,
    18,
    61,
    61,
    61,
    61,
    61,
    61,
    61,
    61,
    61,
    61,
    61,
    61,
    61,
    61,
    61,
    61,
    61,
    61,
    61,
    61,
    61,
    61,
    61,
    61,
    61,
    61,
    61,
    61,
    61,
    61,
    61,
    61,
    61,
    61,
    61,
    61,
    61,
    61,
    61,
    61,
    19,
    18,
    61,
    61,
    61,
    61,
    61,
    61,
    61,
    61,
    61,
    61,
    61,
    61,
    61,
    61,
    61,
    61,
    61,
    61,
    61,
    61,
    61,
    61,
    61,
    61,
    61,
    61,
    61,
    61,
    61,
    61,
    61,
    61,
    61,
    61,
    61,
    61,
    61,
    61,
    61,
    61,
    19,
    18,
    61,
    61,
    61,
    61,
    61,
    61,
    61,
    61,
    61,
    61,
    61,
    61,
    61,
    61,
    61,
    61,
    61,
    61,
    61,
    61,
    61,
    61,
    61,
    61,
    61,
    61,
    61,
    61,
    61,
    61,
    61,
    61,
    61,
    61,
    61,
    61,
    61,
    61,
    61,
    61,
    19,
    18,
    61,
    61,
    61,
    61,
    61,
    61,
    61,
    61,
    61,
    61,
    61,
    61,
    61,
    61,
    61,
    61,
    61,
    61,
    61,
    61,
    61,
    61,
    61,
    61,
    61,
    61,
    61,
    61,
    61,
    61,
    61,
    61,
    61,
    61,
    61,
    61,
    61,
    61,
    61,
    61,
    19,
    18,
    61,
    61,
    61,
    61,
    61,
    61,
    61,
    61,
    61,
    61,
    61,
    61,
    61,
    61,
    61,
    61,
    61,
    61,
    61,
    61,
    61,
    61,
    61,
    61,
    61,
    61,
    61,
    61,
    61,
    61,
    61,
    61,
    61,
    61,
    61,
    61,
    61,
    61,
    61,
    61,
    19,
    18,
    61,
    61,
    61,
    61,
    61,
    61,
    61,
    61,
    61,
    61,
    61,
    61,
    61,
    61,
    61,
    61,
    61,
    61,
    61,
    61,
    61,
    61,
    61,
    61,
    61,
    61,
    61,
    61,
    61,
    61,
    61,
    61,
    61,
    61,
    61,
    61,
    61,
    61,
    61,
    61,
    19,
    18,
    61,
    61,
    61,
    61,
    61,
    61,
    61,
    61,
    61,
    61,
    61,
    61,
    61,
    61,
    61,
    61,
    61,
    61,
    61,
    61,
    61,
    61,
    61,
    61,
    61,
    61,
    61,
    61,
    61,
    61,
    61,
    61,
    61,
    61,
    61,
    61,
    61,
    61,
    61,
    61,
    19,
    18,
    61,
    61,
    61,
    61,
    61,
    61,
    61,
    61,
    61,
    61,
    61,
    61,
    61,
    61,
    61,
    61,
    61,
    61,
    61,
    61,
    61,
    61,
    61,
    61,
    61,
    61,
    61,
    61,
    61,
    61,
    61,
    61,
    61,
    61,
    61,
    61,
    61,
    61,
    61,
    61,
    19,
    18,
    61,
    61,
    61,
    61,
    61,
    61,
    61,
    61,
    61,
    61,
    61,
    61,
    61,
    61,
    61,
    61,
    61,
    61,
    61,
    61,
    61,
    61,
    61,
    61,
    61,
    61,
    61,
    61,
    61,
    61,
    61,
    61,
    61,
    61,
    61,
    61,
    61,
    61,
    61,
    61,
    19,
    18,
    61,
    61,
    61,
    61,
    61,
    61,
    61,
    61,
    61,
    61,
    61,
    61,
    61,
    61,
    61,
    61,
    61,
    61,
    61,
    61,
    61,
    61,
    61,
    61,
    61,
    61,
    61,
    61,
    61,
    61,
    61,
    61,
    61,
    61,
    61,
    61,
    61,
    61,
    61,
    61,
    19,
    18,
    61,
    61,
    61,
    61,
    61,
    61,
    61,
    61,
    61,
    61,
    61,
    61,
    61,
    61,
    61,
    61,
    61,
    61,
    61,
    61,
    61,
    61,
    61,
    61,
    61,
    61,
    61,
    61,
    61,
    61,
    61,
    61,
    61,
    61,
    61,
    61,
    61,
    61,
    61,
    61,
    17,
    16,
    61,
    61,
    61,
    61,
    61,
    61,
    61,
    61,
    61,
    61,
    61,
    61,
    61,
    61,
    61,
    61,
    61,
    61,
    61,
    61,
    61,
    61,
    61,
    61,
    61,
    61,
    61,
    61,
    61,
    61,
    61,
    61,
    61,
    61,
    61,
    61,
    61,
    61,
    61,
    61,
    61,
    61,
    61,
    61,
    61,
    61,
    61,
    61,
    61,
    61,
    61,
    61,
    61,
    61,
    61,
    61,
    61,
    61,
    61,
    61,
    61,
    61,
    61,
    61,
    61,
    61,
    61,
    61,
    61,
    61,
    61,
    61,
    61,
    61,
    61,
    61,
    61,
    61,
    61,
    61,
    61,
    61,
    61,
    61,
    61,
    61,
    61,
    61,
    61,
    61,
    61,
    61,
    61,
    61,
    61,
    61,
    61,
    61,
    61,
    61,
    61,
    61,
    61,
    61,
    61,
    61,
    61,
    61,
    61,
    61,
    61,
    61,
    61,
    61,
    61,
    61,
    61,
    61,
    61,
    61,
    61,
    61,
    61,
    61,
    61,
    61,
    61,
    61,
    61,
    61,
    61,
    61,
    61,
    61,
    61,
    61,
    61,
    61,
    61,
    61,
    61,
    61,
    61
   ],
   "properties": [
    {
     "name": "gv2layer",
     "type": "string",
     "value": "Floor"
    },
    {
     "name": "z",
     "type": "int",
     "value": 0
    },
    {
     "name": "collision",
     "type": "bool",
     "value": false
    }
   ]
  },
  {
   "type": "tilelayer",
   "id": 2,
   "name": "Over Floor",
   "width": 42,
   "height": 28,
   "x": 0,
   "y": 0,
   "opacity": 1,
   "visible": true,
   "data": [
    0,
    0,
    0,
    0,
    0,
    0,
    0,
    0,
    0,
    0,
    0,
    0,
    0,
    0,
    0,
    0,
    0,
    0,
    0,
    0,
    0,
    0,
    0,
    0,
    0,
    0,
    0,
    0,
    0,
    0,
    0,
    0,
    0,
    0,
    0,
    0,
    0,
    0,
    0,
    0,
    0,
    0,
    0,
    0,
    0,
    0,
    0,
    0,
    0,
    0,
    0,
    0,
    0,
    0,
    0,
    0,
    0,
    0,
    0,
    0,
    0,
    0,
    0,
    0,
    0,
    0,
    0,
    0,
    0,
    0,
    0,
    0,
    0,
    0,
    0,
    0,
    0,
    0,
    0,
    0,
    0,
    0,
    0,
    0,
    0,
    0,
    0,
    0,
    0,
    0,
    0,
    0,
    0,
    0,
    0,
    0,
    0,
    0,
    0,
    0,
    0,
    0,
    0,
    0,
    0,
    0,
    0,
    0,
    0,
    0,
    0,
    0,
    0,
    0,
    0,
    0,
    0,
    0,
    0,
    0,
    0,
    0,
    0,
    0,
    0,
    0,
    0,
    0,
    0,
    0,
    0,
    0,
    0,
    0,
    0,
    0,
    0,
    0,
    0,
    0,
    0,
    0,
    0,
    0,
    0,
    0,
    0,
    0,
    0,
    0,
    0,
    0,
    0,
    0,
    0,
    0,
    0,
    0,
    0,
    0,
    0,
    0,
    0,
    0,
    0,
    0,
    0,
    0,
    64,
    64,
    64,
    64,
    64,
    64,
    64,
    64,
    64,
    64,
    64,
    64,
    64,
    64,
    64,
    64,
    64,
    64,
    64,
    64,
    64,
    64,
    64,
    64,
    64,
    64,
    64,
    64,
    64,
    64,
    64,
    64,
    64,
    64,
    64,
    64,
    64,
    64,
    64,
    64,
    64,
    64,
    0,
    0,
    0,
    0,
    0,
    0,
    0,
    0,
    0,
    0,
    0,
    0,
    0,
    0,
    0,
    0,
    0,
    0,
    0,
    0,
    0,
    0,
    0,
    0,
    0,
    0,
    0,
    0,
    0,
    0,
    0,
    0,
    0,
    0,
    0,
    0,
    0,
    0,
    0,
    0,
    0,
    0,
    0,
    0,
    0,
    0,
    0,
    0,
    0,
    0,
    0,
    0,
    0,
    0,
    0,
    0,
    0,
    0,
    0,
    0,
    0,
    0,
    0,
    0,
    0,
    0,
    0,
    0,
    0,
    0,
    0,
    0,
    0,
    0,
    0,
    0,
    0,
    0,
    0,
    0,
    0,
    0,
    0,
    0,
    0,
    0,
    0,
    0,
    0,
    0,
    0,
    0,
    0,
    0,
    0,
    0,
    0,
    0,
    0,
    0,
    0,
    0,
    0,
    0,
    0,
    0,
    0,
    0,
    0,
    0,
    0,
    0,
    0,
    0,
    0,
    0,
    0,
    0,
    0,
    0,
    0,
    0,
    0,
    0,
    0,
    0,
    0,
    0,
    0,
    0,
    0,
    0,
    0,
    0,
    0,
    0,
    0,
    0,
    0,
    0,
    50,
    0,
    0,
    0,
    52,
    0,
    0,
    0,
    0,
    0,
    51,
    0,
    0,
    0,
    0,
    0,
    0,
    0,
    0,
    0,
    0,
    0,
    0,
    0,
    0,
    0,
    0,
    0,
    0,
    0,
    0,
    0,
    0,
    0,
    0,
    0,
    0,
    0,
    0,
    0,
    0,
    0,
    0,
    0,
    0,
    0,
    0,
    0,
    0,
    0,
    0,
    0,
    0,
    0,
    0,
    0,
    0,
    0,
    0,
    0,
    0,
    0,
    0,
    0,
    0,
    0,
    0,
    0,
    0,
    0,
    0,
    0,
    0,
    0,
    0,
    0,
    0,
    0,
    0,
    0,
    0,
    0,
    0,
    0,
    0,
    0,
    0,
    0,
    0,
    0,
    0,
    0,
    0,
    0,
    0,
    0,
    0,
    0,
    0,
    0,
    0,
    0,
    0,
    0,
    0,
    0,
    0,
    0,
    0,
    0,
    0,
    0,
    0,
    0,
    0,
    0,
    0,
    0,
    0,
    0,
    0,
    0,
    0,
    0,
    0,
    0,
    0,
    0,
    0,
    0,
    0,
    0,
    0,
    0,
    0,
    0,
    0,
    0,
    0,
    0,
    0,
    0,
    0,
    0,
    0,
    0,
    0,
    0,
    0,
    0,
    0,
    0,
    0,
    0,
    0,
    0,
    0,
    0,
    0,
    0,
    0,
    0,
    0,
    0,
    0,
    0,
    0,
    0,
    0,
    0,
    0,
    0,
    0,
    0,
    0,
    0,
    0,
    0,
    0,
    0,
    0,
    0,
    0,
    0,
    0,
    0,
    0,
    0,
    0,
    0,
    0,
    0,
    0,
    0,
    0,
    0,
    0,
    0,
    0,
    0,
    0,
    0,
    0,
    0,
    0,
    0,
    0,
    0,
    0,
    0,
    0,
    0,
    0,
    0,
    0,
    0,
    0,
    0,
    0,
    0,
    0,
    0,
    0,
    0,
    0,
    0,
    0,
    0,
    0,
    0,
    0,
    0,
    0,
    0,
    0,
    0,
    0,
    0,
    0,
    0,
    0,
    0,
    0,
    0,
    0,
    0,
    0,
    0,
    0,
    0,
    0,
    0,
    0,
    0,
    0,
    0,
    0,
    0,
    0,
    0,
    0,
    0,
    0,
    0,
    0,
    0,
    0,
    0,
    0,
    0,
    0,
    0,
    0,
    0,
    0,
    0,
    0,
    0,
    0,
    0,
    0,
    0,
    0,
    0,
    0,
    0,
    0,
    0,
    0,
    0,
    0,
    0,
    0,
    0,
    0,
    0,
    0,
    0,
    0,
    0,
    0,
    0,
    0,
    0,
    0,
    0,
    0,
    0,
    0,
    0,
    0,
    0,
    0,
    0,
    0,
    0,
    0,
    0,
    0,
    0,
    0,
    0,
    0,
    0,
    0,
    0,
    0,
    0,
    0,
    0,
    0,
    0,
    0,
    0,
    0,
    0,
    0,
    0,
    0,
    0,
    0,
    0,
    0,
    0,
    0,
    0,
    0,
    0,
    0,
    0,
    0,
    0,
    0,
    0,
    0,
    0,
    0,
    0,
    0,
    0,
    0,
    0,
    0,
    0,
    0,
    0,
    0,
    0,
    0,
    0,
    0,
    0,
    0,
    0,
    0,
    0,
    0,
    0,
    0,
    0,
    0,
    0,
    0,
    0,
    0,
    0,
    0,
    0,
    0,
    0,
    0,
    0,
    0,
    0,
    0,
    0,
    0,
    0,
    0,
    0,
    0,
    0,
    0,
    0,
    0,
    0,
    0,
    0,
    0,
    0,
    0,
    0,
    0,
    0,
    0,
    0,
    0,
    0,
    0,
    0,
    0,
    0,
    0,
    0,
    0,
    0,
    0,
    0,
    0,
    0,
    0,
    0,
    0,
    0,
    0,
    0,
    0,
    0,
    0,
    0,
    0,
    0,
    0,
    0,
    0,
    0,
    0,
    0,
    0,
    0,
    0,
    0,
    0,
    0,
    0,
    0,
    0,
    0,
    0,
    0,
    0,
    0,
    0,
    0,
    0,
    0,
    0,
    0,
    0,
    0,
    0,
    0,
    0,
    0,
    0,
    0,
    0,
    0,
    0,
    0,
    0,
    0,
    0,
    0,
    0,
    0,
    0,
    0,
    0,
    0,
    0,
    0,
    0,
    0,
    0,
    0,
    0,
    0,
    0,
    0,
    0,
    0,
    0,
    0,
    0,
    0,
    0,
    0,
    0,
    0,
    0,
    0,
    0,
    0,
    0,
    0,
    0,
    0,
    0,
    0,
    0,
    0,
    0,
    0,
    0,
    0,
    0,
    0,
    0,
    0,
    0,
    0,
    0,
    0,
    0,
    0,
    0,
    0,
    0,
    0,
    0,
    0,
    0,
    0,
    0,
    0,
    0,
    0,
    0,
    0,
    0,
    0,
    0,
    0,
    0,
    0,
    0,
    0,
    0,
    0,
    0,
    0,
    0,
    0,
    0,
    0,
    0,
    0,
    0,
    0,
    0,
    0,
    0,
    0,
    0,
    0,
    0,
    0,
    0,
    0,
    0,
    0,
    0,
    0,
    0,
    0,
    0,
    0,
    0,
    0,
    0,
    0,
    0,
    0,
    0,
    0,
    0,
    0,
    0,
    0,
    0,
    0,
    0,
    0,
    0,
    0,
    0,
    0,
    0,
    0,
    0,
    0,
    0,
    0,
    0,
    0,
    0,
    0,
    0,
    0,
    0,
    0,
    0,
    0,
    0,
    0,
    0,
    0,
    0,
    0,
    0,
    0,
    0,
    0,
    0,
    0,
    0,
    50,
    0,
    0,
    0,
    0,
    52,
    0,
    0,
    0,
    0,
    0,
    0,
    0,
    0,
    0,
    0,
    0,
    0,
    0,
    0,
    0,
    0,
    0,
    0,
    0,
    0,
    0,
    0,
    0,
    0,
    0,
    0,
    0,
    0,
    0,
    0,
    0,
    0,
    0,
    0,
    0,
    0,
    0,
    0,
    0,
    0,
    0,
    0,
    0,
    0,
    0,
    0,
    0,
    0,
    0,
    0,
    0,
    0,
    0,
    0,
    0,
    0,
    0,
    0,
    0,
    0,
    0,
    0,
    0,
    0,
    0,
    0,
    0,
    0,
    0,
    0,
    0,
    0,
    0,
    0,
    0,
    0,
    0,
    0,
    51,
    49,
    0,
    0,
    54,
    53,
    0,
    0,
    0,
    0,
    0,
    0,
    0,
    0,
    0,
    0,
    0,
    0,
    0,
    0,
    0,
    0,
    0,
    0,
    0,
    0,
    0,
    0,
    0,
    0,
    0,
    0,
    0,
    0,
    0,
    0,
    0,
    0,
    0,
    0,
    0,
    0,
    0,
    0,
    0,
    0,
    0,
    0,
    0,
    0,
    0,
    0,
    0,
    0,
    0,
    0,
    0,
    0,
    0,
    0,
    0,
    0,
    0,
    0,
    0,
    0,
    0,
    0,
    0,
    0,
    0,
    0,
    0,
    0,
    0,
    0,
    0,
    0,
    0,
    0,
    0,
    0,
    0,
    0,
    0,
    0,
    0,
    0,
    0,
    0,
    0,
    0,
    0,
    0,
    0,
    0,
    0,
    0,
    0,
    0,
    0,
    0,
    0,
    0,
    0
   ],
   "properties": [
    {
     "name": "gv2layer",
     "type": "string",
     "value": "Over Floor"
    },
    {
     "name": "z",
     "type": "int",
     "value": 1
    },
    {
     "name": "collision",
     "type": "bool",
     "value": false
    }
   ]
  },
  {
   "type": "tilelayer",
   "id": 3,
   "name": "Water",
   "width": 42,
   "height": 28,
   "x": 0,
   "y": 0,
   "opacity": 1,
   "visible": true,
   "data": [
    0,
    0,
    0,
    0,
    0,
    0,
    0,
    0,
    0,
    0,
    0,
    0,
    0,
    0,
    0,
    0,
    0,
    0,
    0,
    0,
    0,
    0,
    0,
    0,
    0,
    0,
    0,
    0,
    0,
    0,
    0,
    0,
    0,
    0,
    0,
    0,
    0,
    0,
    0,
    0,
    0,
    0,
    0,
    0,
    0,
    0,
    0,
    0,
    0,
    0,
    0,
    0,
    0,
    0,
    0,
    0,
    0,
    0,
    0,
    0,
    0,
    0,
    0,
    0,
    0,
    0,
    0,
    0,
    0,
    0,
    0,
    0,
    0,
    0,
    0,
    0,
    0,
    0,
    0,
    0,
    0,
    0,
    0,
    0,
    0,
    0,
    0,
    0,
    0,
    0,
    0,
    0,
    0,
    0,
    0,
    0,
    0,
    0,
    0,
    0,
    0,
    0,
    0,
    0,
    0,
    0,
    0,
    0,
    0,
    0,
    0,
    0,
    0,
    0,
    0,
    0,
    0,
    0,
    0,
    0,
    0,
    0,
    0,
    0,
    0,
    0,
    0,
    0,
    0,
    0,
    0,
    0,
    0,
    0,
    0,
    0,
    0,
    0,
    0,
    0,
    0,
    0,
    0,
    0,
    0,
    0,
    0,
    0,
    0,
    0,
    0,
    0,
    0,
    0,
    0,
    0,
    0,
    0,
    0,
    0,
    0,
    0,
    0,
    0,
    0,
    0,
    0,
    0,
    0,
    0,
    0,
    0,
    0,
    0,
    0,
    0,
    0,
    0,
    0,
    0,
    0,
    0,
    0,
    0,
    0,
    0,
    0,
    0,
    0,
    0,
    0,
    0,
    0,
    0,
    0,
    0,
    0,
    0,
    0,
    0,
    0,
    0,
    0,
    0,
    0,
    0,
    0,
    0,
    0,
    0,
    0,
    0,
    0,
    0,
    0,
    0,
    0,
    0,
    0,
    0,
    0,
    0,
    0,
    0,
    0,
    0,
    0,
    0,
    0,
    0,
    0,
    0,
    0,
    0,
    0,
    0,
    0,
    0,
    0,
    0,
    0,
    0,
    0,
    0,
    0,
    0,
    0,
    0,
    0,
    0,
    0,
    0,
    0,
    0,
    0,
    0,
    0,
    0,
    0,
    0,
    0,
    0,
    0,
    0,
    0,
    0,
    0,
    0,
    0,
    0,
    0,
    0,
    0,
    0,
    0,
    0,
    0,
    0,
    0,
    0,
    0,
    0,
    0,
    0,
    0,
    0,
    0,
    0,
    0,
    0,
    0,
    0,
    0,
    0,
    0,
    0,
    0,
    0,
    0,
    0,
    0,
    0,
    0,
    0,
    0,
    0,
    0,
    0,
    0,
    0,
    0,
    0,
    0,
    0,
    0,
    0,
    0,
    0,
    0,
    0,
    0,
    0,
    0,
    0,
    0,
    0,
    0,
    0,
    0,
    0,
    0,
    0,
    0,
    0,
    0,
    0,
    0,
    0,
    0,
    0,
    0,
    0,
    0,
    0,
    0,
    0,
    0,
    0,
    0,
    0,
    0,
    0,
    0,
    0,
    0,
    0,
    0,
    0,
    0,
    0,
    0,
    0,
    0,
    0,
    0,
    0,
    0,
    0,
    0,
    0,
    0,
    0,
    0,
    0,
    0,
    0,
    0,
    0,
    0,
    0,
    0,
    0,
    0,
    0,
    0,
    0,
    0,
    0,
    0,
    0,
    0,
    0,
    0,
    0,
    0,
    0,
    0,
    0,
    0,
    0,
    0,
    0,
    0,
    0,
    0,
    0,
    0,
    0,
    0,
    0,
    0,
    0,
    0,
    0,
    0,
    0,
    0,
    0,
    0,
    0,
    0,
    0,
    0,
    0,
    0,
    0,
    0,
    0,
    0,
    0,
    0,
    0,
    0,
    0,
    0,
    0,
    0,
    0,
    0,
    0,
    0,
    0,
    0,
    0,
    0,
    0,
    0,
    0,
    0,
    0,
    0,
    0,
    0,
    0,
    0,
    0,
    0,
    0,
    0,
    0,
    0,
    0,
    0,
    0,
    0,
    0,
    0,
    0,
    0,
    0,
    0,
    0,
    0,
    0,
    0,
    0,
    0,
    0,
    0,
    0,
    0,
    0,
    0,
    0,
    0,
    0,
    0,
    0,
    0,
    0,
    0,
    0,
    0,
    0,
    0,
    0,
    0,
    0,
    0,
    0,
    0,
    0,
    0,
    0,
    0,
    0,
    0,
    0,
    0,
    0,
    0,
    0,
    0,
    0,
    0,
    0,
    0,
    0,
    0,
    0,
    0,
    0,
    0,
    0,
    0,
    0,
    0,
    0,
    0,
    0,
    0,
    0,
    0,
    0,
    0,
    0,
    0,
    0,
    0,
    0,
    0,
    0,
    0,
    0,
    0,
    0,
    0,
    0,
    0,
    0,
    35,
    38,
    38,
    38,
    38,
    38,
    34,
    0,
    0,
    0,
    0,
    0,
    0,
    0,
    0,
    0,
    0,
    0,
    0,
    0,
    0,
    0,
    0,
    0,
    0,
    0,
    0,
    0,
    0,
    0,
    0,
    0,
    0,
    0,
    0,
    0,
    0,
    0,
    0,
    0,
    0,
    0,
    37,
    39,
    39,
    39,
    39,
    39,
    36,
    0,
    0,
    0,
    0,
    0,
    0,
    0,
    0,
    0,
    0,
    0,
    0,
    0,
    0,
    0,
    0,
    0,
    0,
    0,
    0,
    0,
    0,
    0,
    0,
    0,
    0,
    0,
    0,
    0,
    0,
    0,
    0,
    0,
    0,
    0,
    0,
    0,
    0,
    0,
    0,
    0,
    0,
    0,
    0,
    0,
    0,
    0,
    0,
    0,
    0,
    0,
    0,
    0,
    0,
    0,
    0,
    0,
    0,
    0,
    0,
    0,
    0,
    0,
    0,
    0,
    0,
    0,
    0,
    0,
    0,
    0,
    0,
    0,
    0,
    0,
    0,
    0,
    0,
    0,
    0,
    0,
    0,
    0,
    0,
    0,
    0,
    0,
    0,
    0,
    0,
    0,
    0,
    0,
    0,
    0,
    0,
    0,
    0,
    0,
    0,
    0,
    0,
    0,
    0,
    0,
    0,
    0,
    0,
    0,
    0,
    0,
    0,
    0,
    0,
    0,
    0,
    0,
    0,
    0,
    0,
    0,
    0,
    0,
    0,
    0,
    0,
    0,
    0,
    0,
    0,
    0,
    0,
    0,
    0,
    0,
    0,
    0,
    0,
    0,
    0,
    0,
    0,
    0,
    0,
    0,
    0,
    0,
    0,
    0,
    0,
    0,
    0,
    0,
    0,
    0,
    0,
    0,
    0,
    0,
    0,
    0,
    0,
    0,
    0,
    0,
    0,
    0,
    0,
    0,
    0,
    0,
    0,
    0,
    0,
    0,
    0,
    0,
    0,
    0,
    0,
    0,
    0,
    0,
    0,
    0,
    0,
    0,
    0,
    0,
    0,
    0,
    0,
    0,
    0,
    0,
    0,
    0,
    0,
    0,
    0,
    0,
    0,
    0,
    0,
    0,
    0,
    0,
    0,
    0,
    0,
    0,
    0,
    0,
    0,
    0,
    0,
    0,
    0,
    0,
    0,
    0,
    0,
    0,
    0,
    0,
    0,
    0,
    0,
    0,
    0,
    0,
    0,
    0,
    0,
    0,
    0,
    0,
    0,
    0,
    0,
    0,
    0,
    0,
    0,
    0,
    0,
    0,
    0,
    0,
    0,
    0,
    0,
    0,
    0,
    0,
    0,
    0,
    0,
    0,
    0,
    0,
    0,
    0,
    0,
    0,
    0,
    0,
    0,
    0,
    0,
    0,
    0,
    0,
    0,
    0,
    0,
    0,
    0,
    0,
    0,
    0,
    0,
    0,
    0,
    0,
    0,
    0,
    0,
    0,
    0,
    0,
    0,
    0,
    0,
    0,
    0,
    0,
    0,
    0,
    0,
    0,
    0,
    0,
    0,
    0,
    0,
    0,
    0,
    0,
    0,
    0,
    0,
    0,
    0,
    0,
    0,
    0,
    0,
    0,
    0,
    0,
    0,
    0,
    0,
    0,
    0,
    0,
    0,
    0,
    0,
    0,
    0,
    0,
    0,
    0,
    0,
    0,
    0,
    0,
    0,
    0,
    0,
    0,
    0,
    0,
    0,
    0,
    0,
    0,
    0,
    0,
    0,
    0,
    0,
    0,
    0,
    0,
    0,
    0,
    0,
    0,
    0,
    0,
    0,
    0,
    0,
    0,
    0,
    0,
    0,
    0,
    0,
    0,
    0,
    0,
    0,
    0,
    0,
    0,
    0,
    0,
    0,
    0,
    0,
    0,
    0,
    0,
    0,
    0,
    0,
    0,
    0,
    0,
    0,
    0,
    0,
    0,
    0,
    0,
    0,
    0,
    0,
    0,
    0,
    0,
    0,
    0,
    0,
    0,
    0,
    0,
    0,
    0,
    0,
    0,
    0,
    0,
    0,
    0,
    0,
    0,
    0,
    0,
    0,
    0,
    0,
    0,
    0,
    0,
    0,
    0,
    0,
    0,
    0,
    0,
    0,
    0,
    0,
    0,
    0,
    0,
    0,
    0,
    0,
    0,
    0,
    0,
    0,
    0,
    0,
    0,
    0,
    0,
    0,
    0,
    0,
    0,
    0,
    0,
    0,
    0,
    0,
    0,
    0,
    0,
    0,
    0,
    0,
    0,
    0,
    0,
    0,
    0,
    0,
    0,
    0,
    0,
    0,
    0,
    0,
    0,
    0,
    0,
    0,
    0,
    0,
    0,
    0,
    0,
    0,
    0,
    0,
    0,
    0,
    0,
    0,
    0,
    0,
    0,
    0,
    0,
    0,
    0,
    0,
    0,
    0,
    0,
    0,
    0,
    0,
    0,
    0,
    0,
    0,
    0,
    0,
    0,
    0,
    0,
    0,
    0,
    0,
    0,
    0,
    0,
    0,
    0,
    0,
    0,
    0,
    0,
    0,
    0,
    0,
    0,
    0,
    0,
    0,
    0,
    0,
    0,
    0,
    0,
    0,
    0,
    0,
    0,
    0,
    0,
    0,
    0,
    0,
    0,
    0,
    0,
    0,
    0,
    0,
    0,
    0,
    0,
    0,
    0,
    0,
    0,
    0,
    0,
    0,
    0,
    0,
    0,
    0,
    0,
    0,
    0,
    0,
    0
   ],
   "properties": [
    {
     "name": "gv2layer",
     "type": "string",
     "value": "Water"
    },
    {
     "name": "z",
     "type": "int",
     "value": 1
    },
    {
     "name": "collision",
     "type": "bool",
     "value": false
    }
   ]
  },
  {
   "type": "tilelayer",
   "id": 4,
   "name": "Collidables",
   "width": 42,
   "height": 28,
   "x": 0,
   "y": 0,
   "opacity": 1,
   "visible": true,
   "data": [
    0,
    0,
    0,
    0,
    0,
    0,
    0,
    0,
    0,
    0,
    0,
    0,
    0,
    0,
    0,
    0,
    0,
    0,
    0,
    0,
    0,
    0,
    0,
    0,
    0,
    0,
    0,
    0,
    0,
    0,
    0,
    0,
    0,
    0,
    0,
    0,
    0,
    0,
    0,
    0,
    0,
    0,
    0,
    0,
    0,
    0,
    0,
    0,
    0,
    0,
    0,
    0,
    0,
    0,
    0,
    0,
    0,
    0,
    0,
    0,
    0,
    0,
    0,
    0,
    0,
    0,
    0,
    0,
    0,
    0,
    0,
    0,
    0,
    0,
    0,
    0,
    0,
    0,
    0,
    0,
    0,
    0,
    0,
    0,
    0,
    20,
    21,
    21,
    21,
    21,
    21,
    21,
    21,
    21,
    21,
    21,
    21,
    21,
    21,
    21,
    21,
    21,
    21,
    21,
    21,
    21,
    21,
    21,
    21,
    21,
    21,
    21,
    21,
    21,
    21,
    21,
    21,
    21,
    21,
    21,
    21,
    21,
    21,
    21,
    22,
    0,
    60,
    0,
    0,
    0,
    0,
    0,
    0,
    0,
    0,
    0,
    0,
    0,
    0,
    0,
    0,
    0,
    0,
    0,
    0,
    0,
    0,
    0,
    0,
    0,
    0,
    0,
    0,
    0,
    0,
    0,
    0,
    0,
    0,
    0,
    0,
    0,
    0,
    0,
    0,
    0,
    0,
    60,
    60,
    0,
    0,
    0,
    0,
    0,
    0,
    0,
    0,
    0,
    0,
    0,
    0,
    0,
    0,
    0,
    0,
    0,
    0,
    0,
    0,
    0,
    0,
    0,
    0,
    0,
    0,
    0,
    0,
    0,
    0,
    0,
    0,
    0,
    0,
    0,
    0,
    0,
    0,
    0,
    0,
    60,
    60,
    0,
    0,
    0,
    0,
    0,
    0,
    0,
    0,
    0,
    0,
    0,
    0,
    0,
    0,
    0,
    0,
    0,
    0,
    0,
    0,
    0,
    0,
    0,
    0,
    0,
    0,
    0,
    0,
    0,
    0,
    0,
    0,
    0,
    0,
    0,
    0,
    0,
    0,
    0,
    0,
    60,
    0,
    20,
    21,
    21,
    21,
    21,
    21,
    21,
    21,
    21,
    21,
    22,
    0,
    0,
    0,
    0,
    0,
    0,
    0,
    0,
    0,
    0,
    0,
    0,
    0,
    0,
    0,
    0,
    0,
    0,
    0,
    0,
    20,
    21,
    21,
    21,
    21,
    21,
    21,
    21,
    22,
    0,
    0,
    0,
    0,
    0,
    0,
    0,
    0,
    0,
    0,
    0,
    0,
    0,
    0,
    1,
    0,
    0,
    0,
    0,
    0,
    0,
    0,
    0,
    0,
    0,
    0,
    0,
    1,
    0,
    0,
    0,
    0,
    0,
    0,
    0,
    0,
    0,
    0,
    0,
    0,
    0,
    0,
    0,
    0,
    0,
    0,
    0,
    0,
    0,
    0,
    0,
    0,
    0,
    0,
    0,
    0,
    0,
    0,
    0,
    0,
    0,
    0,
    0,
    0,
    0,
    0,
    0,
    0,
    0,
    0,
    0,
    0,
    0,
    0,
    0,
    0,
    0,
    0,
    0,
    0,
    0,
    0,
    0,
    0,
    0,
    0,
    0,
    60,
    0,
    0,
    0,
    0,
    0,
    0,
    0,
    0,
    0,
    0,
    0,
    0,
    0,
    0,
    0,
    0,
    0,
    0,
    0,
    0,
    0,
    0,
    0,
    0,
    0,
    0,
    0,
    0,
    0,
    0,
    0,
    0,
    0,
    0,
    0,
    0,
    60,
    0,
    0,
    0,
    0,
    0,
    0,
    0,
    0,
    0,
    0,
    0,
    0,
    0,
    0,
    0,
    0,
    0,
    0,
    0,
    0,
    0,
    0,
    0,
    0,
    0,
    0,
    0,
    0,
    0,
    0,
    0,
    0,
    0,
    0,
    0,
    0,
    0,
    0,
    0,
    0,
    0,
    0,
    0,
    0,
    0,
    0,
    0,
    0,
    0,
    0,
    0,
    0,
    0,
    0,
    0,
    0,
    0,
    0,
    0,
    0,
    0,
    0,
    0,
    0,
    0,
    0,
    0,
    0,
    0,
    0,
    0,
    0,
    0,
    0,
    0,
    60,
    60,
    0,
    0,
    0,
    0,
    0,
    0,
    0,
    0,
    0,
    0,
    0,
    0,
    60,
    0,
    0,
    0,
    0,
    0,
    60,
    0,
    0,
    0,
    0,
    0,
    0,
    0,
    0,
    0,
    0,
    0,
    60,
    0,
    0,
    0,
    0,
    0,
    0,
    0,
    0,
    0,
    0,
    0,
    0,
    0,
    0,
    0,
    0,
    0,
    0,
    0,
    0,
    0,
    0,
    60,
    0,
    0,
    0,
    0,
    0,
    0,
    0,
    0,
    55,
    0,
    0,
    0,
    0,
    0,
    0,
    0,
    0,
    0,
    0,
    0,
    0,
    0,
    60,
    0,
    0,
    0,
    0,
    0,
    0,
    0,
    0,
    0,
    0,
    0,
    0,
    0,
    60,
    0,
    0,
    0,
    0,
    0,
    0,
    0,
    0,
    0,
    0,
    0,
    0,
    0,
    0,
    0,
    0,
    0,
    0,
    0,
    0,
    0,
    0,
    0,
    0,
    55,
    0,
    0,
    55,
    0,
    0,
    0,
    0,
    0,
    0,
    0,
    0,
    0,
    0,
    0,
    0,
    0,
    0,
    0,
    0,
    0,
    0,
    0,
    0,
    0,
    0,
    0,
    0,
    0,
    0,
    0,
    60,
    0,
    0,
    0,
    60,
    0,
    0,
    0,
    0,
    0,
    0,
    0,
    0,
    0,
    0,
    0,
    0,
    0,
    0,
    0,
    0,
    0,
    0,
    0,
    0,
    0,
    0,
    0,
    0,
    0,
    0,
    0,
    0,
    0,
    0,
    0,
    0,
    0,
    0,
    0,
    0,
    0,
    0,
    60,
    0,
    0,
    0,
    0,
    0,
    0,
    0,
    0,
    0,
    0,
    0,
    0,
    0,
    0,
    0,
    0,
    0,
    0,
    0,
    0,
    0,
    0,
    0,
    0,
    0,
    0,
    0,
    0,
    0,
    0,
    0,
    60,
    0,
    0,
    0,
    0,
    0,
    0,
    0,
    0,
    0,
    0,
    0,
    0,
    0,
    0,
    0,
    0,
    0,
    0,
    0,
    60,
    0,
    0,
    0,
    0,
    0,
    0,
    0,
    0,
    0,
    0,
    0,
    0,
    0,
    0,
    0,
    0,
    60,
    0,
    0,
    0,
    0,
    0,
    0,
    0,
    0,
    0,
    0,
    0,
    0,
    0,
    0,
    0,
    0,
    0,
    60,
    0,
    0,
    0,
    0,
    0,
    0,
    0,
    0,
    0,
    0,
    0,
    0,
    0,
    0,
    0,
    0,
    0,
    0,
    0,
    0,
    0,
    0,
    0,
    0,
    0,
    0,
    0,
    0,
    0,
    0,
    0,
    0,
    0,
    0,
    0,
    0,
    0,
    0,
    0,
    0,
    0,
    0,
    0,
    0,
    0,
    0,
    0,
    0,
    0,
    0,
    0,
    0,
    0,
    0,
    0,
    0,
    0,
    0,
    0,
    0,
    0,
    0,
    0,
    0,
    0,
    0,
    0,
    0,
    0,
    0,
    0,
    0,
    60,
    0,
    0,
    0,
    0,
    0,
    0,
    0,
    0,
    0,
    0,
    0,
    0,
    60,
    0,
    0,
    0,
    0,
    0,
    0,
    0,
    0,
    0,
    0,
    0,
    0,
    0,
    0,
    0,
    0,
    0,
    0,
    0,
    0,
    0,
    0,
    0,
    0,
    0,
    0,
    60,
    0,
    0,
    0,
    0,
    0,
    60,
    0,
    0,
    0,
    0,
    0,
    0,
    0,
    0,
    0,
    0,
    0,
    0,
    0,
    0,
    0,
    0,
    0,
    0,
    0,
    0,
    0,
    60,
    0,
    0,
    0,
    0,
    0,
    0,
    0,
    0,
    60,
    0,
    0,
    0,
    0,
    0,
    0,
    0,
    0,
    0,
    0,
    0,
    0,
    0,
    0,
    0,
    0,
    0,
    0,
    0,
    0,
    0,
    0,
    0,
    0,
    0,
    0,
    0,
    0,
    0,
    0,
    0,
    0,
    0,
    0,
    0,
    0,
    0,
    0,
    0,
    0,
    0,
    0,
    0,
    0,
    0,
    0,
    0,
    0,
    0,
    0,
    0,
    0,
    0,
    0,
    0,
    0,
    0,
    0,
    0,
    0,
    0,
    0,
    0,
    0,
    55,
    0,
    0,
    0,
    0,
    0,
    0,
    55,
    0,
    0,
    0,
    0,
    0,
    0,
    0,
    0,
    0,
    0,
    0,
    0,
    0,
    0,
    0,
    0,
    0,
    0,
    0,
    0,
    0,
    0,
    0,
    0,
    0,
    0,
    0,
    0,
    0,
    0,
    0,
    0,
    0,
    0,
    0,
    0,
    0,
    0,
    0,
    0,
    0,
    0,
    0,
    0,
    0,
    0,
    0,
    0,
    0,
    0,
    0,
    0,
    0,
    0,
    0,
    0,
    0,
    0,
    0,
    0,
    0,
    0,
    0,
    0,
    0,
    0,
    0,
    0,
    0,
    0,
    0,
    0,
    0,
    0,
    0,
    0,
    0,
    0,
    0,
    0,
    0,
    0,
    0,
    0,
    0,
    0,
    0,
    0,
    0,
    0,
    0,
    0,
    0,
    0,
    0,
    0,
    0,
    0,
    0,
    0,
    0,
    20,
    21,
    21,
    21,
    21,
    21,
    21,
    21,
    21,
    21,
    21,
    21,
    21,
    21,
    21,
    21,
    21,
    21,
    22,
    0,
    0,
    0,
    0,
    20,
    21,
    21,
    21,
    21,
    21,
    21,
    21,
    21,
    21,
    21,
    21,
    22,
    0,
    0,
    0,
    0,
    0,
    0,
    0,
    0,
    0,
    0,
    0,
    0,
    0,
    0,
    0,
    0,
    0,
    0,
    0,
    0,
    0,
    0,
    0,
    0,
    0,
    0,
    0,
    0,
    0,
    0,
    0,
    0,
    0,
    0,
    0,
    0,
    0,
    0,
    0,
    0,
    0,
    0,
    0,
    0,
    0
   ],
   "properties": [
    {
     "name": "gv2layer",
     "type": "string",
     "value": "Collidables"
    },
    {
     "name": "z",
     "type": "int",
     "value": 5
    },
    {
     "name": "collision",
     "type": "bool",
     "value": false
    }
   ]
  },
  {
   "type": "objectgroup",
   "id": 5,
   "name": "Collidables \u00b7obj",
   "x": 0,
   "y": 0,
   "opacity": 1,
   "visible": true,
   "draworder": "index",
   "objects": [
    {
     "id": 1,
     "gid": 65,
     "name": "tree-3-base-shadow-snow_0_0",
     "x": 0,
     "y": 640,
     "width": 128,
     "height": 64,
     "visible": true
    },
    {
     "id": 2,
     "gid": 65,
     "name": "tree-3-base-shadow-snow_0_0",
     "x": 0,
     "y": 896,
     "width": 128,
     "height": 64,
     "visible": true
    },
    {
     "id": 3,
     "gid": 65,
     "name": "tree-3-base-shadow-snow_0_0",
     "x": 0,
     "y": 1152,
     "width": 128,
     "height": 64,
     "visible": true
    },
    {
     "id": 4,
     "gid": 65,
     "name": "tree-3-base-shadow-snow_0_0",
     "x": 0,
     "y": 1408,
     "width": 128,
     "height": 64,
     "visible": true
    },
    {
     "id": 5,
     "gid": 65,
     "name": "tree-3-base-shadow-snow_0_0",
     "x": 832,
     "y": 1344,
     "width": 128,
     "height": 64,
     "visible": true
    },
    {
     "id": 6,
     "gid": 23,
     "name": "fox-statue-base-1_0_0",
     "x": 1280,
     "y": 1216,
     "width": 64,
     "height": 128,
     "visible": true
    },
    {
     "id": 7,
     "gid": 62,
     "name": "torii-red-feet_0_0",
     "x": 1408,
     "y": 1280,
     "width": 256,
     "height": 128,
     "visible": true
    },
    {
     "id": 8,
     "gid": 23,
     "name": "fox-statue-base-1_0_0",
     "x": 1728,
     "y": 1216,
     "width": 64,
     "height": 128,
     "visible": true
    },
    {
     "id": 9,
     "gid": 6,
     "name": "building-rafter-blue_0_0",
     "x": 1792,
     "y": 448,
     "width": 192,
     "height": 64,
     "visible": true
    },
    {
     "id": 10,
     "gid": 12,
     "name": "building-tier-blue_0_0",
     "x": 1792,
     "y": 512,
     "width": 192,
     "height": 64,
     "visible": true
    },
    {
     "id": 11,
     "gid": 2,
     "name": "building-entrance-1_0_0",
     "x": 1792,
     "y": 576,
     "width": 192,
     "height": 64,
     "visible": true
    },
    {
     "id": 12,
     "gid": 65,
     "name": "tree-3-base-shadow-snow_0_0",
     "x": 1856,
     "y": 1088,
     "width": 128,
     "height": 64,
     "visible": true
    },
    {
     "id": 13,
     "gid": 6,
     "name": "building-rafter-blue_0_0",
     "x": 2048,
     "y": 960,
     "width": 192,
     "height": 64,
     "visible": true
    },
    {
     "id": 14,
     "gid": 12,
     "name": "building-tier-blue_0_0",
     "x": 2048,
     "y": 1024,
     "width": 192,
     "height": 64,
     "visible": true
    },
    {
     "id": 15,
     "gid": 2,
     "name": "building-entrance-1_0_0",
     "x": 2048,
     "y": 1088,
     "width": 192,
     "height": 64,
     "visible": true
    },
    {
     "id": 16,
     "gid": 5,
     "name": "building-rafter-black_0_0",
     "x": 2048,
     "y": 1408,
     "width": 192,
     "height": 64,
     "visible": true
    },
    {
     "id": 17,
     "gid": 11,
     "name": "building-tier-black_0_0",
     "x": 2048,
     "y": 1472,
     "width": 192,
     "height": 64,
     "visible": true
    },
    {
     "id": 18,
     "gid": 3,
     "name": "building-entrance-2_0_0",
     "x": 2048,
     "y": 1536,
     "width": 192,
     "height": 64,
     "visible": true
    },
    {
     "id": 19,
     "gid": 65,
     "name": "tree-3-base-shadow-snow_0_0",
     "x": 2560,
     "y": 640,
     "width": 128,
     "height": 64,
     "visible": true
    },
    {
     "id": 20,
     "gid": 65,
     "name": "tree-3-base-shadow-snow_0_0",
     "x": 2560,
     "y": 896,
     "width": 128,
     "height": 64,
     "visible": true
    },
    {
     "id": 21,
     "gid": 65,
     "name": "tree-3-base-shadow-snow_0_0",
     "x": 2560,
     "y": 1152,
     "width": 128,
     "height": 64,
     "visible": true
    },
    {
     "id": 22,
     "gid": 65,
     "name": "tree-3-base-shadow-snow_0_0",
     "x": 2560,
     "y": 1408,
     "width": 128,
     "height": 64,
     "visible": true
    },
    {
     "id": 23,
     "gid": 7,
     "name": "building-rafter-red_0_0",
     "x": 320,
     "y": 1344,
     "width": 192,
     "height": 64,
     "visible": true
    },
    {
     "id": 24,
     "gid": 13,
     "name": "building-tier-red_0_0",
     "x": 320,
     "y": 1408,
     "width": 192,
     "height": 64,
     "visible": true
    },
    {
     "id": 25,
     "gid": 4,
     "name": "building-entrance-3_0_0",
     "x": 320,
     "y": 1472,
     "width": 192,
     "height": 64,
     "visible": true
    },
    {
     "id": 26,
     "gid": 65,
     "name": "tree-3-base-shadow-snow_0_0",
     "x": 576,
     "y": 1088,
     "width": 128,
     "height": 64,
     "visible": true
    }
   ],
   "properties": [
    {
     "name": "gv2layer",
     "type": "string",
     "value": "Collidables"
    },
    {
     "name": "z",
     "type": "int",
     "value": 5
    },
    {
     "name": "collision",
     "type": "bool",
     "value": false
    }
   ]
  },
  {
   "type": "tilelayer",
   "id": 6,
   "name": "Other",
   "width": 42,
   "height": 28,
   "x": 0,
   "y": 0,
   "opacity": 1,
   "visible": true,
   "data": [
    0,
    0,
    0,
    0,
    0,
    0,
    0,
    0,
    0,
    0,
    0,
    0,
    0,
    0,
    0,
    0,
    0,
    0,
    0,
    0,
    0,
    0,
    0,
    0,
    0,
    0,
    0,
    0,
    0,
    0,
    0,
    0,
    0,
    0,
    0,
    0,
    0,
    0,
    0,
    0,
    0,
    0,
    0,
    0,
    0,
    0,
    0,
    0,
    0,
    0,
    0,
    0,
    0,
    0,
    0,
    0,
    0,
    0,
    0,
    0,
    0,
    0,
    0,
    0,
    0,
    0,
    0,
    0,
    0,
    0,
    0,
    0,
    0,
    0,
    0,
    0,
    0,
    0,
    0,
    0,
    0,
    0,
    0,
    0,
    0,
    0,
    0,
    0,
    0,
    0,
    0,
    0,
    0,
    0,
    0,
    0,
    0,
    0,
    0,
    0,
    0,
    0,
    0,
    0,
    0,
    0,
    0,
    0,
    0,
    0,
    0,
    0,
    0,
    0,
    0,
    0,
    0,
    0,
    0,
    0,
    0,
    0,
    0,
    0,
    0,
    0,
    0,
    0,
    0,
    0,
    0,
    0,
    0,
    0,
    0,
    0,
    0,
    0,
    0,
    0,
    0,
    0,
    0,
    0,
    0,
    0,
    0,
    0,
    0,
    0,
    0,
    0,
    0,
    0,
    0,
    0,
    0,
    0,
    0,
    0,
    0,
    0,
    0,
    0,
    0,
    0,
    0,
    0,
    0,
    0,
    0,
    0,
    0,
    0,
    0,
    0,
    0,
    0,
    0,
    0,
    0,
    0,
    0,
    0,
    0,
    0,
    0,
    0,
    0,
    0,
    0,
    0,
    0,
    0,
    0,
    0,
    0,
    0,
    0,
    0,
    0,
    0,
    0,
    0,
    0,
    0,
    0,
    0,
    0,
    0,
    0,
    0,
    0,
    0,
    0,
    0,
    0,
    0,
    0,
    0,
    0,
    0,
    0,
    0,
    0,
    0,
    0,
    0,
    0,
    0,
    0,
    0,
    0,
    0,
    0,
    0,
    0,
    0,
    0,
    0,
    0,
    0,
    0,
    0,
    0,
    0,
    0,
    0,
    0,
    0,
    0,
    0,
    0,
    0,
    0,
    0,
    0,
    0,
    0,
    0,
    0,
    0,
    0,
    0,
    0,
    0,
    0,
    0,
    0,
    0,
    0,
    0,
    68,
    0,
    58,
    0,
    0,
    0,
    0,
    0,
    0,
    0,
    0,
    0,
    0,
    0,
    0,
    0,
    0,
    0,
    0,
    0,
    0,
    0,
    0,
    0,
    0,
    0,
    0,
    0,
    0,
    0,
    0,
    0,
    0,
    0,
    0,
    0,
    0,
    0,
    0,
    0,
    0,
    0,
    67,
    0,
    57,
    0,
    0,
    0,
    0,
    0,
    0,
    0,
    0,
    0,
    0,
    0,
    0,
    0,
    0,
    0,
    0,
    0,
    0,
    0,
    0,
    0,
    0,
    0,
    0,
    0,
    0,
    0,
    0,
    0,
    0,
    0,
    0,
    0,
    0,
    0,
    0,
    0,
    0,
    0,
    0,
    0,
    0,
    0,
    0,
    0,
    0,
    0,
    0,
    0,
    0,
    0,
    0,
    0,
    0,
    0,
    0,
    0,
    0,
    0,
    0,
    0,
    0,
    0,
    0,
    0,
    0,
    0,
    0,
    0,
    0,
    0,
    0,
    0,
    0,
    0,
    0,
    0,
    0,
    0,
    0,
    0,
    0,
    0,
    0,
    0,
    0,
    0,
    0,
    0,
    0,
    0,
    0,
    0,
    0,
    0,
    0,
    0,
    0,
    0,
    0,
    0,
    0,
    0,
    0,
    0,
    0,
    0,
    0,
    0,
    0,
    0,
    0,
    0,
    0,
    0,
    0,
    0,
    0,
    0,
    0,
    0,
    0,
    0,
    0,
    0,
    0,
    0,
    0,
    0,
    0,
    0,
    0,
    0,
    0,
    0,
    0,
    0,
    0,
    0,
    0,
    0,
    0,
    0,
    0,
    0,
    0,
    0,
    0,
    0,
    0,
    0,
    0,
    0,
    0,
    0,
    0,
    0,
    0,
    0,
    0,
    0,
    0,
    0,
    0,
    0,
    0,
    0,
    0,
    0,
    0,
    0,
    0,
    0,
    0,
    0,
    0,
    0,
    0,
    0,
    0,
    0,
    0,
    0,
    0,
    0,
    0,
    0,
    0,
    0,
    0,
    0,
    0,
    0,
    0,
    0,
    0,
    0,
    0,
    0,
    0,
    0,
    0,
    0,
    0,
    0,
    0,
    0,
    0,
    0,
    0,
    0,
    0,
    0,
    0,
    0,
    0,
    0,
    0,
    0,
    0,
    0,
    0,
    0,
    0,
    0,
    0,
    0,
    0,
    0,
    0,
    0,
    0,
    0,
    0,
    0,
    0,
    0,
    0,
    0,
    0,
    0,
    0,
    0,
    0,
    0,
    0,
    0,
    0,
    0,
    0,
    0,
    0,
    0,
    0,
    0,
    0,
    0,
    0,
    0,
    0,
    0,
    0,
    0,
    0,
    0,
    0,
    0,
    0,
    0,
    0,
    0,
    0,
    0,
    0,
    0,
    0,
    0,
    0,
    0,
    0,
    0,
    0,
    0,
    0,
    0,
    0,
    0,
    0,
    0,
    0,
    0,
    0,
    0,
    0,
    0,
    0,
    0,
    0,
    0,
    0,
    0,
    0,
    0,
    0,
    0,
    0,
    0,
    0,
    0,
    0,
    0,
    0,
    0,
    0,
    0,
    0,
    0,
    0,
    0,
    0,
    0,
    0,
    0,
    0,
    0,
    0,
    0,
    0,
    0,
    0,
    0,
    0,
    0,
    0,
    0,
    0,
    0,
    0,
    0,
    0,
    0,
    0,
    0,
    0,
    0,
    0,
    0,
    0,
    0,
    0,
    0,
    0,
    0,
    0,
    0,
    0,
    0,
    0,
    0,
    0,
    0,
    0,
    0,
    0,
    0,
    0,
    0,
    0,
    0,
    0,
    0,
    0,
    0,
    0,
    0,
    0,
    0,
    0,
    0,
    0,
    0,
    0,
    0,
    0,
    0,
    0,
    0,
    0,
    0,
    0,
    0,
    0,
    0,
    0,
    0,
    0,
    0,
    0,
    0,
    0,
    0,
    0,
    0,
    0,
    0,
    0,
    0,
    0,
    0,
    0,
    0,
    0,
    0,
    0,
    0,
    0,
    0,
    0,
    0,
    0,
    0,
    0,
    0,
    0,
    0,
    0,
    0,
    0,
    0,
    0,
    0,
    0,
    0,
    0,
    0,
    0,
    0,
    0,
    0,
    0,
    0,
    0,
    0,
    0,
    0,
    0,
    0,
    0,
    0,
    0,
    0,
    0,
    0,
    0,
    0,
    0,
    0,
    0,
    0,
    0,
    0,
    0,
    0,
    0,
    0,
    0,
    0,
    0,
    0,
    0,
    0,
    0,
    0,
    0,
    0,
    0,
    0,
    0,
    0,
    0,
    0,
    0,
    0,
    0,
    0,
    0,
    0,
    0,
    0,
    0,
    0,
    0,
    0,
    0,
    0,
    0,
    0,
    0,
    0,
    0,
    0,
    0,
    0,
    0,
    0,
    0,
    0,
    0,
    0,
    0,
    0,
    0,
    0,
    0,
    0,
    0,
    0,
    0,
    0,
    0,
    0,
    0,
    0,
    0,
    0,
    0,
    0,
    0,
    0,
    0,
    0,
    0,
    0,
    0,
    0,
    0,
    0,
    0,
    0,
    0,
    0,
    0,
    0,
    0,
    0,
    0,
    0,
    0,
    0,
    0,
    0,
    0,
    0,
    0,
    0,
    0,
    0,
    0,
    0,
    0,
    0,
    0,
    0,
    0,
    0,
    0,
    0,
    0,
    0,
    0,
    0,
    0,
    0,
    0,
    0,
    0,
    0,
    0,
    0,
    0,
    0,
    0,
    0,
    0,
    0,
    0,
    0,
    0,
    0,
    0,
    0,
    0,
    0,
    0,
    0,
    0,
    0,
    0,
    0,
    0,
    0,
    0,
    0,
    0,
    0,
    0,
    0,
    0,
    0,
    0,
    0,
    0,
    0,
    0,
    0,
    0,
    0,
    0,
    0,
    0,
    0,
    0,
    0,
    0,
    0,
    0,
    0,
    0,
    0,
    0,
    0,
    0,
    0,
    0,
    0,
    0,
    0,
    0,
    0,
    0,
    0,
    0,
    0,
    0,
    0,
    0,
    0,
    0,
    0,
    0,
    0,
    0,
    0,
    0,
    0,
    0,
    0,
    0,
    0,
    0,
    0,
    0,
    0,
    0,
    0,
    0,
    0,
    0,
    0,
    0,
    0,
    0,
    0,
    0,
    0,
    0,
    0,
    0,
    0,
    0,
    0,
    0,
    0,
    0,
    0,
    0,
    0,
    0,
    0,
    0,
    0,
    0,
    0,
    0,
    0,
    0,
    0,
    0,
    0,
    0,
    0,
    0,
    0,
    0,
    0,
    0,
    0,
    0,
    0,
    0,
    0,
    0,
    0,
    0,
    0,
    0,
    0,
    0,
    0,
    0,
    0,
    0,
    0,
    0,
    0,
    0,
    0,
    0,
    0,
    0,
    0,
    0,
    0,
    0,
    0,
    0,
    0,
    0,
    0,
    0,
    0,
    0,
    0,
    0,
    0,
    0,
    0,
    0,
    0,
    0,
    0,
    0,
    0,
    0,
    0,
    0,
    0,
    0,
    0,
    0,
    0,
    0,
    0,
    0,
    0,
    0,
    0,
    0,
    0,
    0,
    0,
    0,
    0,
    0,
    0,
    0,
    0,
    0,
    0,
    0,
    0,
    0,
    0,
    0,
    0,
    0,
    0,
    0,
    0,
    0,
    0,
    0,
    0,
    0,
    0,
    0,
    0,
    0,
    0,
    0,
    0,
    0,
    0,
    0,
    0,
    0,
    0,
    0,
    0,
    0,
    0,
    0,
    0,
    0,
    0,
    0,
    0,
    0,
    0,
    0,
    0,
    0,
    0,
    0,
    0,
    0,
    0,
    0,
    0,
    0,
    0,
    0,
    0,
    0,
    0,
    0,
    0,
    0,
    0,
    0,
    0,
    0,
    0,
    0,
    0,
    0,
    0,
    0,
    0,
    0,
    0,
    0,
    0,
    0,
    0,
    0,
    0,
    0,
    0
   ],
   "properties": [
    {
     "name": "gv2layer",
     "type": "string",
     "value": "Other"
    },
    {
     "name": "z",
     "type": "int",
     "value": 6
    },
    {
     "name": "collision",
     "type": "bool",
     "value": false
    }
   ]
  },
  {
   "type": "tilelayer",
   "id": 7,
   "name": "Tops",
   "width": 42,
   "height": 28,
   "x": 0,
   "y": 0,
   "opacity": 1,
   "visible": true,
   "data": [
    0,
    0,
    0,
    0,
    0,
    0,
    0,
    0,
    0,
    0,
    0,
    0,
    0,
    0,
    0,
    0,
    0,
    0,
    0,
    0,
    0,
    0,
    0,
    0,
    0,
    0,
    0,
    0,
    0,
    0,
    0,
    0,
    0,
    0,
    0,
    0,
    0,
    0,
    0,
    0,
    0,
    0,
    0,
    0,
    0,
    0,
    0,
    0,
    0,
    0,
    0,
    0,
    0,
    0,
    0,
    0,
    0,
    0,
    0,
    0,
    0,
    0,
    0,
    0,
    0,
    0,
    0,
    0,
    0,
    0,
    0,
    0,
    0,
    0,
    0,
    0,
    0,
    0,
    0,
    0,
    0,
    0,
    0,
    0,
    0,
    0,
    0,
    0,
    0,
    0,
    0,
    0,
    0,
    0,
    0,
    0,
    0,
    0,
    0,
    0,
    0,
    0,
    0,
    0,
    0,
    0,
    0,
    0,
    0,
    0,
    0,
    0,
    0,
    0,
    0,
    0,
    0,
    0,
    0,
    0,
    0,
    0,
    0,
    0,
    0,
    0,
    0,
    0,
    0,
    0,
    0,
    0,
    0,
    0,
    0,
    0,
    0,
    0,
    0,
    0,
    0,
    0,
    0,
    0,
    0,
    0,
    0,
    0,
    0,
    0,
    0,
    0,
    0,
    0,
    0,
    0,
    0,
    0,
    0,
    0,
    0,
    0,
    0,
    0,
    0,
    0,
    0,
    0,
    0,
    0,
    0,
    0,
    0,
    0,
    0,
    0,
    0,
    0,
    0,
    0,
    0,
    0,
    0,
    0,
    0,
    0,
    0,
    0,
    0,
    0,
    0,
    0,
    0,
    0,
    0,
    0,
    0,
    0,
    0,
    0,
    0,
    0,
    0,
    0,
    0,
    0,
    0,
    0,
    0,
    0,
    0,
    0,
    0,
    0,
    0,
    0,
    0,
    0,
    0,
    0,
    0,
    0,
    0,
    0,
    0,
    0,
    0,
    0,
    0,
    0,
    0,
    0,
    0,
    0,
    0,
    0,
    0,
    0,
    0,
    0,
    0,
    0,
    0,
    0,
    0,
    0,
    0,
    0,
    0,
    0,
    0,
    0,
    0,
    0,
    0,
    0,
    0,
    0,
    0,
    0,
    0,
    0,
    0,
    0,
    0,
    0,
    0,
    0,
    0,
    0,
    0,
    0,
    0,
    0,
    0,
    0,
    0,
    0,
    0,
    0,
    0,
    0,
    0,
    0,
    0,
    0,
    0,
    0,
    0,
    0,
    0,
    0,
    0,
    0,
    0,
    0,
    0,
    0,
    0,
    0,
    0,
    0,
    0,
    0,
    0,
    0,
    0,
    0,
    0,
    0,
    0,
    0,
    0,
    0,
    0,
    0,
    0,
    0,
    0,
    0,
    0,
    0,
    0,
    0,
    0,
    0,
    0,
    0,
    0,
    0,
    0,
    0,
    0,
    0,
    0,
    0,
    0,
    0,
    0,
    0,
    0,
    0,
    0,
    0,
    0,
    0,
    0,
    0,
    0,
    0,
    0,
    0,
    0,
    0,
    0,
    0,
    0,
    0,
    0,
    0,
    0,
    0,
    0,
    0,
    0,
    0,
    0,
    0,
    0,
    0,
    0,
    0,
    0,
    0,
    0,
    0,
    0,
    0,
    0,
    0,
    0,
    0,
    0,
    0,
    0,
    0,
    0,
    0,
    0,
    0,
    0,
    0,
    0,
    0,
    0,
    0,
    0,
    0,
    0,
    0,
    0,
    0,
    0,
    0,
    0,
    0,
    0,
    0,
    0,
    0,
    0,
    0,
    0,
    0,
    0,
    0,
    0,
    0,
    0,
    0,
    0,
    0,
    0,
    0,
    0,
    0,
    0,
    0,
    0,
    0,
    0,
    0,
    0,
    0,
    0,
    0,
    0,
    0,
    0,
    0,
    0,
    0,
    0,
    0,
    0,
    0,
    0,
    0,
    0,
    0,
    0,
    0,
    0,
    0,
    0,
    0,
    0,
    0,
    0,
    0,
    0,
    0,
    0,
    0,
    0,
    0,
    0,
    0,
    0,
    0,
    0,
    0,
    0,
    0,
    0,
    0,
    0,
    0,
    0,
    0,
    0,
    0,
    0,
    0,
    0,
    0,
    0,
    0,
    0,
    0,
    0,
    0,
    0,
    0,
    0,
    0,
    0,
    0,
    0,
    0,
    0,
    0,
    0,
    0,
    0,
    0,
    0,
    0,
    0,
    0,
    0,
    0,
    0,
    0,
    0,
    56,
    0,
    0,
    0,
    0,
    0,
    0,
    0,
    0,
    0,
    0,
    0,
    0,
    0,
    0,
    0,
    0,
    0,
    0,
    0,
    0,
    0,
    0,
    0,
    0,
    0,
    0,
    0,
    0,
    0,
    0,
    0,
    0,
    0,
    0,
    0,
    0,
    0,
    0,
    0,
    0,
    0,
    0,
    0,
    0,
    0,
    0,
    0,
    0,
    0,
    0,
    0,
    0,
    56,
    0,
    0,
    56,
    0,
    0,
    0,
    0,
    0,
    0,
    0,
    0,
    0,
    0,
    0,
    0,
    0,
    0,
    0,
    0,
    0,
    0,
    0,
    0,
    0,
    0,
    0,
    0,
    0,
    0,
    0,
    0,
    0,
    0,
    0,
    0,
    0,
    0,
    0,
    0,
    0,
    0,
    0,
    0,
    0,
    0,
    0,
    0,
    0,
    0,
    0,
    0,
    0,
    0,
    0,
    0,
    0,
    0,
    0,
    0,
    0,
    0,
    0,
    0,
    0,
    0,
    0,
    0,
    0,
    0,
    0,
    0,
    0,
    0,
    0,
    0,
    0,
    0,
    0,
    0,
    0,
    0,
    0,
    0,
    0,
    0,
    0,
    0,
    0,
    0,
    0,
    0,
    0,
    0,
    0,
    0,
    0,
    0,
    0,
    0,
    0,
    0,
    0,
    0,
    0,
    0,
    0,
    0,
    0,
    0,
    0,
    0,
    0,
    0,
    0,
    0,
    0,
    0,
    0,
    0,
    0,
    0,
    0,
    0,
    0,
    0,
    0,
    0,
    0,
    0,
    0,
    0,
    0,
    0,
    0,
    0,
    0,
    0,
    0,
    0,
    0,
    0,
    0,
    0,
    0,
    0,
    0,
    0,
    0,
    0,
    0,
    0,
    0,
    0,
    0,
    0,
    0,
    0,
    0,
    0,
    0,
    0,
    0,
    0,
    0,
    0,
    0,
    0,
    0,
    0,
    0,
    0,
    0,
    0,
    0,
    0,
    0,
    0,
    0,
    0,
    0,
    0,
    0,
    0,
    0,
    0,
    0,
    0,
    0,
    0,
    0,
    0,
    0,
    0,
    0,
    0,
    0,
    0,
    0,
    0,
    0,
    0,
    0,
    0,
    0,
    0,
    0,
    0,
    0,
    0,
    0,
    0,
    0,
    0,
    0,
    0,
    0,
    0,
    0,
    0,
    0,
    0,
    0,
    0,
    0,
    0,
    0,
    0,
    0,
    0,
    0,
    0,
    0,
    0,
    0,
    0,
    0,
    0,
    0,
    0,
    0,
    0,
    0,
    0,
    0,
    0,
    0,
    0,
    0,
    0,
    0,
    0,
    0,
    0,
    0,
    0,
    0,
    0,
    0,
    0,
    0,
    0,
    0,
    0,
    0,
    0,
    0,
    0,
    0,
    0,
    0,
    0,
    0,
    0,
    0,
    0,
    0,
    0,
    0,
    0,
    0,
    0,
    0,
    0,
    0,
    0,
    0,
    0,
    0,
    0,
    0,
    0,
    0,
    0,
    0,
    0,
    0,
    0,
    0,
    0,
    0,
    0,
    0,
    0,
    0,
    0,
    0,
    0,
    0,
    0,
    0,
    0,
    0,
    0,
    0,
    0,
    0,
    0,
    0,
    0,
    0,
    0,
    0,
    0,
    0,
    0,
    0,
    0,
    0,
    0,
    0,
    0,
    0,
    0,
    0,
    0,
    0,
    0,
    0,
    0,
    0,
    0,
    0,
    0,
    0,
    0,
    0,
    0,
    0,
    0,
    0,
    0,
    0,
    0,
    0,
    0,
    0,
    0,
    0,
    0,
    0,
    0,
    0,
    0,
    0,
    0,
    0,
    0,
    0,
    0,
    0,
    0,
    0,
    0,
    0,
    0,
    56,
    0,
    0,
    0,
    0,
    0,
    0,
    56,
    0,
    0,
    0,
    0,
    0,
    0,
    0,
    0,
    0,
    0,
    0,
    0,
    0,
    0,
    0,
    0,
    0,
    0,
    0,
    0,
    0,
    0,
    0,
    0,
    0,
    0,
    0,
    0,
    0,
    0,
    0,
    0,
    0,
    0,
    0,
    0,
    0,
    0,
    0,
    0,
    0,
    0,
    0,
    0,
    0,
    0,
    0,
    0,
    0,
    0,
    0,
    0,
    0,
    0,
    0,
    0,
    0,
    0,
    0,
    0,
    0,
    0,
    0,
    0,
    0,
    0,
    0,
    0,
    0,
    0,
    0,
    0,
    0,
    0,
    0,
    0,
    0,
    0,
    0,
    0,
    0,
    0,
    0,
    0,
    0,
    0,
    0,
    0,
    0,
    0,
    0,
    0,
    0,
    0,
    0,
    0,
    0,
    0,
    0,
    0,
    0,
    0,
    0,
    0,
    0,
    0,
    0,
    0,
    0,
    0,
    0,
    0,
    0,
    0,
    0,
    0,
    0,
    0,
    0,
    0,
    0,
    0,
    0,
    0,
    0,
    0,
    0,
    0,
    0,
    0,
    0,
    0,
    0,
    0,
    0,
    0,
    0,
    0,
    0,
    0,
    0,
    0,
    0,
    0,
    0,
    0,
    0,
    0,
    0,
    0,
    0,
    0,
    0,
    0,
    0,
    0,
    0,
    0,
    0,
    0,
    0,
    0,
    0,
    0,
    0,
    0,
    0,
    0,
    0,
    0,
    0,
    0,
    0,
    0,
    0,
    0,
    0,
    0,
    0,
    0,
    0,
    0,
    0,
    0,
    0,
    0,
    0,
    0,
    0,
    0,
    0,
    0,
    0,
    0,
    0,
    0,
    0,
    0,
    0,
    0,
    0,
    0,
    0,
    0,
    0,
    0,
    0,
    0,
    0,
    0,
    0,
    0,
    0,
    0,
    0,
    0,
    0,
    0,
    0,
    0,
    0,
    0,
    0,
    0
   ],
   "properties": [
    {
     "name": "gv2layer",
     "type": "string",
     "value": "Tops"
    },
    {
     "name": "z",
     "type": "int",
     "value": 7
    },
    {
     "name": "collision",
     "type": "bool",
     "value": false
    }
   ]
  },
  {
   "type": "objectgroup",
   "id": 8,
   "name": "Tops \u00b7obj",
   "x": 0,
   "y": 0,
   "opacity": 1,
   "visible": true,
   "draworder": "index",
   "objects": [
    {
     "id": 27,
     "gid": 66,
     "name": "tree-3-top-snow_0_0",
     "x": 0,
     "y": 768,
     "width": 128,
     "height": 128,
     "visible": true
    },
    {
     "id": 28,
     "gid": 66,
     "name": "tree-3-top-snow_0_0",
     "x": 0,
     "y": 1024,
     "width": 128,
     "height": 128,
     "visible": true
    },
    {
     "id": 29,
     "gid": 66,
     "name": "tree-3-top-snow_0_0",
     "x": 0,
     "y": 1280,
     "width": 128,
     "height": 128,
     "visible": true
    },
    {
     "id": 30,
     "gid": 66,
     "name": "tree-3-top-snow_0_0",
     "x": 0,
     "y": 512,
     "width": 128,
     "height": 128,
     "visible": true
    },
    {
     "id": 31,
     "gid": 59,
     "name": "sakura-small_0_0",
     "x": 704,
     "y": 1408,
     "width": 64,
     "height": 128,
     "visible": true
    },
    {
     "id": 32,
     "gid": 66,
     "name": "tree-3-top-snow_0_0",
     "x": 704,
     "y": 1536,
     "width": 128,
     "height": 128,
     "visible": true
    },
    {
     "id": 33,
     "gid": 66,
     "name": "tree-3-top-snow_0_0",
     "x": 832,
     "y": 1216,
     "width": 128,
     "height": 128,
     "visible": true
    },
    {
     "id": 34,
     "gid": 66,
     "name": "tree-3-top-snow_0_0",
     "x": 960,
     "y": 1536,
     "width": 128,
     "height": 128,
     "visible": true
    },
    {
     "id": 35,
     "gid": 66,
     "name": "tree-3-top-snow_0_0",
     "x": 1216,
     "y": 1536,
     "width": 128,
     "height": 128,
     "visible": true
    },
    {
     "id": 36,
     "gid": 63,
     "name": "torii-red-top_0_0",
     "x": 1344,
     "y": 1088,
     "width": 384,
     "height": 192,
     "visible": true
    },
    {
     "id": 37,
     "gid": 66,
     "name": "tree-3-top-snow_0_0",
     "x": 1728,
     "y": 1536,
     "width": 128,
     "height": 128,
     "visible": true
    },
    {
     "id": 38,
     "gid": 9,
     "name": "building-roof-blue_0_0",
     "x": 1792,
     "y": 256,
     "width": 192,
     "height": 192,
     "visible": true
    },
    {
     "id": 39,
     "gid": 66,
     "name": "tree-3-top-snow_0_0",
     "x": 1856,
     "y": 960,
     "width": 128,
     "height": 128,
     "visible": true
    },
    {
     "id": 40,
     "gid": 66,
     "name": "tree-3-top-snow_0_0",
     "x": 192,
     "y": 1536,
     "width": 128,
     "height": 128,
     "visible": true
    },
    {
     "id": 41,
     "gid": 59,
     "name": "sakura-small_0_0",
     "x": 1920,
     "y": 1536,
     "width": 64,
     "height": 128,
     "visible": true
    },
    {
     "id": 42,
     "gid": 66,
     "name": "tree-3-top-snow_0_0",
     "x": 1984,
     "y": 1536,
     "width": 128,
     "height": 128,
     "visible": true
    },
    {
     "id": 43,
     "gid": 9,
     "name": "building-roof-blue_0_0",
     "x": 2048,
     "y": 768,
     "width": 192,
     "height": 192,
     "visible": true
    },
    {
     "id": 44,
     "gid": 8,
     "name": "building-roof-black_0_0",
     "x": 2048,
     "y": 1216,
     "width": 192,
     "height": 192,
     "visible": true
    },
    {
     "id": 45,
     "gid": 66,
     "name": "tree-3-top-snow_0_0",
     "x": 2240,
     "y": 1536,
     "width": 128,
     "height": 128,
     "visible": true
    },
    {
     "id": 46,
     "gid": 66,
     "name": "tree-3-top-snow_0_0",
     "x": 2560,
     "y": 768,
     "width": 128,
     "height": 128,
     "visible": true
    },
    {
     "id": 47,
     "gid": 66,
     "name": "tree-3-top-snow_0_0",
     "x": 2560,
     "y": 1024,
     "width": 128,
     "height": 128,
     "visible": true
    },
    {
     "id": 48,
     "gid": 66,
     "name": "tree-3-top-snow_0_0",
     "x": 2560,
     "y": 1280,
     "width": 128,
     "height": 128,
     "visible": true
    },
    {
     "id": 49,
     "gid": 66,
     "name": "tree-3-top-snow_0_0",
     "x": 2560,
     "y": 512,
     "width": 128,
     "height": 128,
     "visible": true
    },
    {
     "id": 50,
     "gid": 10,
     "name": "building-roof-red_0_0",
     "x": 320,
     "y": 1152,
     "width": 192,
     "height": 192,
     "visible": true
    },
    {
     "id": 51,
     "gid": 66,
     "name": "tree-3-top-snow_0_0",
     "x": 448,
     "y": 1536,
     "width": 128,
     "height": 128,
     "visible": true
    },
    {
     "id": 52,
     "gid": 66,
     "name": "tree-3-top-snow_0_0",
     "x": 576,
     "y": 960,
     "width": 128,
     "height": 128,
     "visible": true
    }
   ],
   "properties": [
    {
     "name": "gv2layer",
     "type": "string",
     "value": "Tops"
    },
    {
     "name": "z",
     "type": "int",
     "value": 7
    },
    {
     "name": "collision",
     "type": "bool",
     "value": false
    }
   ]
  },
  {
   "type": "tilelayer",
   "id": 9,
   "name": "Colliders",
   "width": 42,
   "height": 28,
   "x": 0,
   "y": 0,
   "opacity": 1,
   "visible": true,
   "data": [
    0,
    0,
    0,
    0,
    0,
    0,
    0,
    0,
    0,
    0,
    0,
    0,
    0,
    0,
    0,
    0,
    0,
    0,
    0,
    0,
    0,
    0,
    0,
    0,
    0,
    0,
    0,
    0,
    0,
    0,
    0,
    0,
    0,
    0,
    0,
    0,
    0,
    0,
    0,
    0,
    0,
    0,
    0,
    0,
    0,
    0,
    0,
    0,
    0,
    0,
    0,
    0,
    0,
    0,
    0,
    0,
    0,
    0,
    0,
    0,
    0,
    0,
    0,
    0,
    0,
    0,
    0,
    0,
    0,
    0,
    0,
    0,
    0,
    0,
    0,
    0,
    0,
    0,
    0,
    0,
    0,
    0,
    0,
    0,
    0,
    24,
    24,
    24,
    24,
    24,
    24,
    24,
    24,
    24,
    24,
    24,
    24,
    24,
    24,
    24,
    24,
    24,
    24,
    24,
    24,
    24,
    24,
    24,
    24,
    24,
    24,
    24,
    24,
    24,
    24,
    24,
    24,
    24,
    24,
    24,
    24,
    24,
    24,
    24,
    24,
    0,
    24,
    0,
    0,
    0,
    0,
    0,
    0,
    0,
    0,
    0,
    0,
    0,
    0,
    0,
    0,
    0,
    0,
    0,
    0,
    0,
    0,
    0,
    0,
    0,
    0,
    0,
    0,
    0,
    0,
    0,
    0,
    0,
    0,
    0,
    0,
    0,
    0,
    0,
    0,
    0,
    0,
    24,
    24,
    24,
    24,
    24,
    24,
    24,
    24,
    24,
    24,
    24,
    24,
    24,
    24,
    24,
    24,
    24,
    24,
    24,
    24,
    24,
    24,
    24,
    24,
    24,
    24,
    24,
    24,
    24,
    24,
    24,
    24,
    24,
    24,
    24,
    24,
    24,
    24,
    24,
    24,
    24,
    24,
    24,
    24,
    0,
    0,
    0,
    0,
    0,
    0,
    0,
    0,
    0,
    0,
    0,
    0,
    0,
    0,
    0,
    0,
    0,
    0,
    0,
    0,
    0,
    0,
    0,
    0,
    0,
    0,
    0,
    0,
    0,
    0,
    0,
    0,
    0,
    0,
    0,
    0,
    0,
    0,
    0,
    0,
    24,
    0,
    24,
    24,
    24,
    24,
    24,
    24,
    24,
    24,
    24,
    24,
    24,
    0,
    0,
    0,
    0,
    0,
    0,
    0,
    0,
    24,
    0,
    24,
    0,
    0,
    0,
    0,
    0,
    0,
    0,
    0,
    0,
    24,
    24,
    24,
    24,
    24,
    24,
    24,
    24,
    24,
    0,
    0,
    0,
    0,
    0,
    0,
    0,
    0,
    0,
    0,
    0,
    0,
    0,
    0,
    24,
    0,
    0,
    0,
    0,
    0,
    0,
    0,
    0,
    0,
    0,
    0,
    0,
    24,
    0,
    24,
    24,
    24,
    0,
    0,
    0,
    0,
    0,
    0,
    0,
    0,
    0,
    0,
    0,
    0,
    0,
    0,
    0,
    0,
    0,
    0,
    0,
    0,
    0,
    0,
    0,
    0,
    0,
    0,
    0,
    0,
    0,
    0,
    0,
    0,
    0,
    0,
    0,
    0,
    0,
    0,
    0,
    24,
    24,
    24,
    0,
    0,
    0,
    0,
    0,
    0,
    0,
    0,
    0,
    0,
    0,
    0,
    0,
    24,
    0,
    0,
    0,
    0,
    0,
    0,
    0,
    0,
    0,
    0,
    0,
    0,
    0,
    0,
    0,
    0,
    0,
    0,
    0,
    0,
    0,
    0,
    0,
    0,
    0,
    24,
    0,
    24,
    0,
    0,
    0,
    0,
    0,
    0,
    0,
    0,
    24,
    0,
    0,
    24,
    24,
    0,
    0,
    0,
    0,
    0,
    0,
    0,
    0,
    0,
    0,
    0,
    0,
    0,
    0,
    0,
    0,
    0,
    0,
    0,
    0,
    0,
    0,
    0,
    0,
    0,
    0,
    0,
    0,
    0,
    0,
    0,
    0,
    0,
    0,
    0,
    0,
    0,
    0,
    24,
    24,
    0,
    0,
    0,
    0,
    0,
    0,
    0,
    0,
    0,
    0,
    0,
    0,
    0,
    0,
    0,
    0,
    0,
    0,
    0,
    0,
    0,
    0,
    0,
    0,
    0,
    0,
    0,
    0,
    0,
    0,
    0,
    24,
    24,
    0,
    0,
    0,
    0,
    0,
    0,
    0,
    0,
    0,
    0,
    0,
    0,
    24,
    0,
    0,
    0,
    0,
    0,
    24,
    0,
    0,
    0,
    0,
    0,
    0,
    0,
    0,
    0,
    0,
    0,
    24,
    0,
    0,
    0,
    0,
    0,
    0,
    0,
    0,
    0,
    0,
    0,
    0,
    0,
    0,
    0,
    0,
    0,
    0,
    0,
    0,
    0,
    0,
    24,
    0,
    24,
    24,
    24,
    24,
    24,
    24,
    24,
    24,
    0,
    0,
    0,
    0,
    0,
    0,
    0,
    0,
    0,
    0,
    0,
    0,
    0,
    24,
    0,
    0,
    0,
    0,
    0,
    0,
    0,
    0,
    0,
    0,
    0,
    0,
    0,
    24,
    0,
    0,
    24,
    24,
    0,
    0,
    24,
    24,
    24,
    24,
    24,
    24,
    24,
    0,
    0,
    0,
    0,
    0,
    0,
    0,
    0,
    0,
    0,
    0,
    24,
    0,
    0,
    24,
    0,
    0,
    0,
    0,
    0,
    0,
    0,
    0,
    0,
    0,
    0,
    0,
    0,
    0,
    24,
    24,
    0,
    0,
    0,
    0,
    0,
    0,
    0,
    0,
    0,
    0,
    0,
    24,
    0,
    0,
    0,
    24,
    0,
    0,
    0,
    0,
    0,
    0,
    0,
    0,
    0,
    0,
    0,
    0,
    0,
    0,
    0,
    0,
    24,
    24,
    24,
    0,
    0,
    0,
    0,
    0,
    0,
    0,
    0,
    0,
    0,
    0,
    0,
    0,
    0,
    0,
    0,
    0,
    0,
    0,
    24,
    0,
    0,
    0,
    0,
    0,
    0,
    0,
    0,
    0,
    0,
    0,
    0,
    0,
    0,
    0,
    0,
    0,
    0,
    0,
    24,
    24,
    24,
    0,
    0,
    0,
    0,
    0,
    0,
    0,
    0,
    0,
    24,
    0,
    0,
    0,
    0,
    0,
    0,
    24,
    24,
    0,
    0,
    0,
    0,
    0,
    0,
    0,
    0,
    0,
    0,
    0,
    24,
    0,
    0,
    0,
    0,
    0,
    0,
    24,
    24,
    0,
    24,
    24,
    24,
    0,
    0,
    0,
    0,
    24,
    0,
    0,
    24,
    24,
    0,
    0,
    0,
    0,
    0,
    0,
    0,
    0,
    0,
    0,
    0,
    0,
    0,
    24,
    0,
    0,
    0,
    0,
    0,
    0,
    0,
    0,
    0,
    0,
    0,
    0,
    0,
    0,
    0,
    0,
    0,
    0,
    0,
    0,
    0,
    0,
    0,
    0,
    24,
    24,
    0,
    0,
    0,
    0,
    0,
    0,
    0,
    0,
    0,
    0,
    0,
    0,
    0,
    0,
    0,
    0,
    0,
    0,
    0,
    0,
    0,
    0,
    0,
    0,
    0,
    0,
    0,
    0,
    0,
    0,
    0,
    0,
    0,
    0,
    0,
    0,
    0,
    0,
    0,
    0,
    0,
    0,
    0,
    0,
    0,
    0,
    24,
    0,
    0,
    0,
    0,
    0,
    0,
    0,
    0,
    0,
    0,
    0,
    0,
    24,
    0,
    0,
    24,
    0,
    24,
    0,
    0,
    24,
    0,
    24,
    0,
    0,
    0,
    0,
    0,
    0,
    0,
    0,
    0,
    0,
    0,
    0,
    0,
    0,
    0,
    0,
    24,
    0,
    0,
    24,
    24,
    24,
    24,
    0,
    0,
    0,
    0,
    24,
    24,
    0,
    0,
    0,
    0,
    0,
    0,
    0,
    24,
    0,
    0,
    24,
    0,
    0,
    0,
    0,
    24,
    0,
    0,
    0,
    0,
    0,
    0,
    0,
    0,
    24,
    0,
    0,
    24,
    24,
    0,
    0,
    0,
    24,
    24,
    24,
    0,
    0,
    0,
    0,
    0,
    0,
    0,
    0,
    0,
    0,
    0,
    0,
    0,
    0,
    0,
    0,
    0,
    0,
    0,
    0,
    0,
    0,
    0,
    0,
    24,
    24,
    24,
    0,
    0,
    0,
    0,
    0,
    24,
    24,
    0,
    0,
    0,
    0,
    0,
    24,
    24,
    24,
    0,
    0,
    0,
    24,
    0,
    0,
    0,
    0,
    0,
    0,
    0,
    0,
    24,
    0,
    0,
    0,
    0,
    0,
    0,
    24,
    0,
    0,
    0,
    0,
    24,
    24,
    24,
    0,
    0,
    0,
    0,
    0,
    0,
    0,
    0,
    0,
    0,
    0,
    0,
    0,
    0,
    0,
    0,
    0,
    0,
    0,
    0,
    0,
    0,
    0,
    0,
    0,
    0,
    0,
    0,
    0,
    0,
    0,
    0,
    0,
    0,
    0,
    0,
    0,
    0,
    0,
    24,
    24,
    24,
    0,
    0,
    0,
    0,
    0,
    0,
    0,
    0,
    0,
    0,
    0,
    0,
    0,
    0,
    0,
    0,
    0,
    0,
    0,
    0,
    0,
    0,
    0,
    0,
    0,
    0,
    0,
    0,
    0,
    0,
    0,
    0,
    0,
    0,
    0,
    0,
    0,
    24,
    0,
    0,
    0,
    0,
    0,
    0,
    0,
    0,
    0,
    0,
    0,
    0,
    0,
    0,
    24,
    24,
    24,
    24,
    24,
    24,
    24,
    24,
    24,
    24,
    24,
    24,
    24,
    24,
    24,
    24,
    24,
    24,
    24,
    0,
    0,
    0,
    0,
    24,
    24,
    24,
    24,
    24,
    24,
    24,
    24,
    24,
    24,
    24,
    24,
    24,
    0,
    0,
    0,
    0,
    0,
    0,
    0,
    0,
    0,
    0,
    0,
    0,
    0,
    0,
    0,
    0,
    0,
    0,
    0,
    0,
    0,
    0,
    0,
    0,
    0,
    0,
    0,
    0,
    0,
    0,
    0,
    0,
    0,
    0,
    0,
    0,
    0,
    0,
    0,
    0,
    0,
    0,
    0,
    0,
    0
   ],
   "properties": [
    {
     "name": "gv2layer",
     "type": "string",
     "value": "Colliders"
    },
    {
     "name": "z",
     "type": "int",
     "value": 5
    },
    {
     "name": "collision",
     "type": "bool",
     "value": true
    }
   ]
  },
  {
   "type": "objectgroup",
   "id": 10,
   "name": "Meta",
   "x": 0,
   "y": 0,
   "opacity": 1,
   "visible": true,
   "draworder": "index",
   "objects": [
    {
     "id": 53,
     "name": "transporter",
     "point": true,
     "x": 1888.0,
     "y": 608.0,
     "width": 0,
     "height": 0,
     "visible": true,
     "properties": [
      {
       "name": "kind",
       "type": "string",
       "value": "transporter"
      },
      {
       "name": "targetRoom",
       "type": "string",
       "value": "YukimuraStation"
      },
      {
       "name": "targetX",
       "type": "int",
       "value": 11
      },
      {
       "name": "targetY",
       "type": "int",
       "value": 11
      },
      {
       "name": "hidden",
       "type": "bool",
       "value": true
      }
     ]
    },
    {
     "id": 54,
     "name": "boundary",
     "x": 0,
     "y": 0,
     "polygon": [
      {
       "x": 0,
       "y": 0
      },
      {
       "x": 2688,
       "y": 0
      },
      {
       "x": 2688,
       "y": 1792
      },
      {
       "x": 0,
       "y": 1792
      }
     ],
     "width": 0,
     "height": 0,
     "visible": true,
     "properties": [
      {
       "name": "kind",
       "type": "string",
       "value": "boundary"
      }
     ]
    }
   ],
   "properties": [
    {
     "name": "gv2meta",
     "type": "bool",
     "value": true
    }
   ]
  }
 ]
}